(1001)
(FACE MDF )
(T1  D=3.175 CR=0. - ZMIN=-7. - FLAT END MILL)
G0 G90 G94 G17
G21
G53 G0 Z0.

(FACE1)
M5
M9
T1
S16500 M3
G4 P4.
G55
G0 X144.064 Y0.414
Z15.
Z5.
G1 Z-0.683 F1016.
G18 G3 X143.746 Z-1. I-0.318 K0.
G1 X142.
X0.
G17 G2 Y2.396 I0. J0.991
G1 X142.
G3 Y4.378 I0. J0.991
G1 X0.
G2 Y6.36 I0. J0.991
G1 X142.
G3 Y8.342 I0. J0.991
G1 X0.
G2 Y10.324 I0. J0.991
G1 X142.
G3 Y12.306 I0. J0.991
G1 X0.
G2 Y14.288 I0. J0.991
G1 X142.
G3 Y16.269 I0. J0.991
G1 X0.
G2 Y18.251 I0. J0.991
G1 X142.
G3 Y20.233 I0. J0.991
G1 X0.
G2 Y22.215 I0. J0.991
G1 X142.
G3 Y24.197 I0. J0.991
G1 X0.
G2 Y26.179 I0. J0.991
G1 X142.
G3 Y28.161 I0. J0.991
G1 X0.
G2 Y30.142 I0. J0.991
G1 X142.
G3 Y32.124 I0. J0.991
G1 X0.
G2 Y34.106 I0. J0.991
G1 X142.
G3 Y36.088 I0. J0.991
G1 X0.
G2 Y38.07 I0. J0.991
G1 X142.
G3 Y40.052 I0. J0.991
G1 X0.
G2 Y42.034 I0. J0.991
G1 X142.
G3 Y44.016 I0. J0.991
G1 X0.
G2 Y45.998 I0. J0.991
G1 X142.
G3 Y47.979 I0. J0.991
G1 X0.
G2 Y49.961 I0. J0.991
G1 X142.
G3 Y51.943 I0. J0.991
G1 X0.
G2 Y53.925 I0. J0.991
G1 X142.
G3 Y55.907 I0. J0.991
G1 X0.
G2 Y57.889 I0. J0.991
G1 X142.
G3 Y59.871 I0. J0.991
G1 X0.
G2 Y61.853 I0. J0.991
G1 X142.
G3 Y63.834 I0. J0.991
G1 X0.
G2 Y65.816 I0. J0.991
G1 X142.
G3 Y67.798 I0. J0.991
G1 X0.
G2 Y69.78 I0. J0.991
G1 X142.
G3 Y71.762 I0. J0.991
G1 X0.
G2 Y73.744 I0. J0.991
G1 X142.
G3 Y75.726 I0. J0.991
G1 X0.
G2 Y77.707 I0. J0.991
G1 X142.
G3 Y79.689 I0. J0.991
G1 X0.
G2 Y81.671 I0. J0.991
G1 X142.
G3 Y83.653 I0. J0.991
G1 X0.
G2 Y85.635 I0. J0.991
G1 X142.
G3 Y87.617 I0. J0.991
G1 X0.
G2 Y89.599 I0. J0.991
G1 X142.
G3 Y91.581 I0. J0.991
G1 X0.
G2 Y93.563 I0. J0.991
G1 X142.
G3 Y95.544 I0. J0.991
G1 X0.
G2 Y97.526 I0. J0.991
G1 X142.
G3 Y99.508 I0. J0.991
G1 X0.
G2 Y101.49 I0. J0.991
G1 X142.
G3 Y103.472 I0. J0.991
G1 X0.
G18 G3 X-0.317 Z-0.683 I0. K0.317
G0 Z5.
X-2.064 Y0.414
G1 Z-2.682 F1016.
G2 X-1.746 Z-3. I0.317 K0.
G1 X0.
X142.
G17 G3 Y2.396 I0. J0.991
G1 X0.
G2 Y4.378 I0. J0.991
G1 X142.
G3 Y6.36 I0. J0.991
G1 X0.
G2 Y8.342 I0. J0.991
G1 X142.
G3 Y10.324 I0. J0.991
G1 X0.
G2 Y12.306 I0. J0.991
G1 X142.
G3 Y14.288 I0. J0.991
G1 X0.
G2 Y16.269 I0. J0.991
G1 X142.
G3 Y18.251 I0. J0.991
G1 X0.
G2 Y20.233 I0. J0.991
G1 X142.
G3 Y22.215 I0. J0.991
G1 X0.
G2 Y24.197 I0. J0.991
G1 X142.
G3 Y26.179 I0. J0.991
G1 X0.
G2 Y28.161 I0. J0.991
G1 X142.
G3 Y30.142 I0. J0.991
G1 X0.
G2 Y32.124 I0. J0.991
G1 X142.
G3 Y34.106 I0. J0.991
G1 X0.
G2 Y36.088 I0. J0.991
G1 X142.
G3 Y38.07 I0. J0.991
G1 X0.
G2 Y40.052 I0. J0.991
G1 X142.
G3 Y42.034 I0. J0.991
G1 X0.
G2 Y44.016 I0. J0.991
G1 X142.
G3 Y45.998 I0. J0.991
G1 X0.
G2 Y47.979 I0. J0.991
G1 X142.
G3 Y49.961 I0. J0.991
G1 X0.
G2 Y51.943 I0. J0.991
G1 X142.
G3 Y53.925 I0. J0.991
G1 X0.
G2 Y55.907 I0. J0.991
G1 X142.
G3 Y57.889 I0. J0.991
G1 X0.
G2 Y59.871 I0. J0.991
G1 X142.
G3 Y61.853 I0. J0.991
G1 X0.
G2 Y63.834 I0. J0.991
G1 X142.
G3 Y65.816 I0. J0.991
G1 X0.
G2 Y67.798 I0. J0.991
G1 X142.
G3 Y69.78 I0. J0.991
G1 X0.
G2 Y71.762 I0. J0.991
G1 X142.
G3 Y73.744 I0. J0.991
G1 X0.
G2 Y75.726 I0. J0.991
G1 X142.
G3 Y77.707 I0. J0.991
G1 X0.
G2 Y79.689 I0. J0.991
G1 X142.
G3 Y81.671 I0. J0.991
G1 X0.
G2 Y83.653 I0. J0.991
G1 X142.
G3 Y85.635 I0. J0.991
G1 X0.
G2 Y87.617 I0. J0.991
G1 X142.
G3 Y89.599 I0. J0.991
G1 X0.
G2 Y91.581 I0. J0.991
G1 X142.
G3 Y93.563 I0. J0.991
G1 X0.
G2 Y95.544 I0. J0.991
G1 X142.
G3 Y97.526 I0. J0.991
G1 X0.
G2 Y99.508 I0. J0.991
G1 X142.
G3 Y101.49 I0. J0.991
G1 X0.
G2 Y103.472 I0. J0.991
G1 X142.
G18 G2 X142.318 Z-2.682 I0. K0.318
G0 Z5.
X144.064 Y0.414
G1 Z-4.682 F1016.
G3 X143.746 Z-5. I-0.318 K0.
G1 X142.
X0.
G17 G2 Y2.396 I0. J0.991
G1 X142.
G3 Y4.378 I0. J0.991
G1 X0.
G2 Y6.36 I0. J0.991
G1 X142.
G3 Y8.342 I0. J0.991
G1 X0.
G2 Y10.324 I0. J0.991
G1 X142.
G3 Y12.306 I0. J0.991
G1 X0.
G2 Y14.288 I0. J0.991
G1 X142.
G3 Y16.269 I0. J0.991
G1 X0.
G2 Y18.251 I0. J0.991
G1 X142.
G3 Y20.233 I0. J0.991
G1 X0.
G2 Y22.215 I0. J0.991
G1 X142.
G3 Y24.197 I0. J0.991
G1 X0.
G2 Y26.179 I0. J0.991
G1 X142.
G3 Y28.161 I0. J0.991
G1 X0.
G2 Y30.142 I0. J0.991
G1 X142.
G3 Y32.124 I0. J0.991
G1 X0.
G2 Y34.106 I0. J0.991
G1 X142.
G3 Y36.088 I0. J0.991
G1 X0.
G2 Y38.07 I0. J0.991
G1 X142.
G3 Y40.052 I0. J0.991
G1 X0.
G2 Y42.034 I0. J0.991
G1 X142.
G3 Y44.016 I0. J0.991
G1 X0.
G2 Y45.998 I0. J0.991
G1 X142.
G3 Y47.979 I0. J0.991
G1 X0.
G2 Y49.961 I0. J0.991
G1 X142.
G3 Y51.943 I0. J0.991
G1 X0.
G2 Y53.925 I0. J0.991
G1 X142.
G3 Y55.907 I0. J0.991
G1 X0.
G2 Y57.889 I0. J0.991
G1 X142.
G3 Y59.871 I0. J0.991
G1 X0.
G2 Y61.853 I0. J0.991
G1 X142.
G3 Y63.834 I0. J0.991
G1 X0.
G2 Y65.816 I0. J0.991
G1 X142.
G3 Y67.798 I0. J0.991
G1 X0.
G2 Y69.78 I0. J0.991
G1 X142.
G3 Y71.762 I0. J0.991
G1 X0.
G2 Y73.744 I0. J0.991
G1 X142.
G3 Y75.726 I0. J0.991
G1 X0.
G2 Y77.707 I0. J0.991
G1 X142.
G3 Y79.689 I0. J0.991
G1 X0.
G2 Y81.671 I0. J0.991
G1 X142.
G3 Y83.653 I0. J0.991
G1 X0.
G2 Y85.635 I0. J0.991
G1 X142.
G3 Y87.617 I0. J0.991
G1 X0.
G2 Y89.599 I0. J0.991
G1 X142.
G3 Y91.581 I0. J0.991
G1 X0.
G2 Y93.563 I0. J0.991
G1 X142.
G3 Y95.544 I0. J0.991
G1 X0.
G2 Y97.526 I0. J0.991
G1 X142.
G3 Y99.508 I0. J0.991
G1 X0.
G2 Y101.49 I0. J0.991
G1 X142.
G3 Y103.472 I0. J0.991
G1 X0.
G18 G3 X-0.317 Z-4.682 I0. K0.318
G0 Z5.
X-2.064 Y0.414
G1 Z-6.682 F1016.
G2 X-1.746 Z-7. I0.317 K0.
G1 X0.
X142.
G17 G3 Y2.396 I0. J0.991
G1 X0.
G2 Y4.378 I0. J0.991
G1 X142.
G3 Y6.36 I0. J0.991
G1 X0.
G2 Y8.342 I0. J0.991
G1 X142.
G3 Y10.324 I0. J0.991
G1 X0.
G2 Y12.306 I0. J0.991
G1 X142.
G3 Y14.288 I0. J0.991
G1 X0.
G2 Y16.269 I0. J0.991
G1 X142.
G3 Y18.251 I0. J0.991
G1 X0.
G2 Y20.233 I0. J0.991
G1 X142.
G3 Y22.215 I0. J0.991
G1 X0.
G2 Y24.197 I0. J0.991
G1 X142.
G3 Y26.179 I0. J0.991
G1 X0.
G2 Y28.161 I0. J0.991
G1 X142.
G3 Y30.142 I0. J0.991
G1 X0.
G2 Y32.124 I0. J0.991
G1 X142.
G3 Y34.106 I0. J0.991
G1 X0.
G2 Y36.088 I0. J0.991
G1 X142.
G3 Y38.07 I0. J0.991
G1 X0.
G2 Y40.052 I0. J0.991
G1 X142.
G3 Y42.034 I0. J0.991
G1 X0.
G2 Y44.016 I0. J0.991
G1 X142.
G3 Y45.998 I0. J0.991
G1 X0.
G2 Y47.979 I0. J0.991
G1 X142.
G3 Y49.961 I0. J0.991
G1 X0.
G2 Y51.943 I0. J0.991
G1 X142.
G3 Y53.925 I0. J0.991
G1 X0.
G2 Y55.907 I0. J0.991
G1 X142.
G3 Y57.889 I0. J0.991
G1 X0.
G2 Y59.871 I0. J0.991
G1 X142.
G3 Y61.853 I0. J0.991
G1 X0.
G2 Y63.834 I0. J0.991
G1 X142.
G3 Y65.816 I0. J0.991
G1 X0.
G2 Y67.798 I0. J0.991
G1 X142.
G3 Y69.78 I0. J0.991
G1 X0.
G2 Y71.762 I0. J0.991
G1 X142.
G3 Y73.744 I0. J0.991
G1 X0.
G2 Y75.726 I0. J0.991
G1 X142.
G3 Y77.707 I0. J0.991
G1 X0.
G2 Y79.689 I0. J0.991
G1 X142.
G3 Y81.671 I0. J0.991
G1 X0.
G2 Y83.653 I0. J0.991
G1 X142.
G3 Y85.635 I0. J0.991
G1 X0.
G2 Y87.617 I0. J0.991
G1 X142.
G3 Y89.599 I0. J0.991
G1 X0.
G2 Y91.581 I0. J0.991
G1 X142.
G3 Y93.563 I0. J0.991
G1 X0.
G2 Y95.544 I0. J0.991
G1 X142.
G3 Y97.526 I0. J0.991
G1 X0.
G2 Y99.508 I0. J0.991
G1 X142.
G3 Y101.49 I0. J0.991
G1 X0.
G2 Y103.472 I0. J0.991
G1 X142.
G18 G2 X142.318 Z-6.682 I0. K0.318
G0 Z15.
G17

G53 G0 Z0.
M30
