(1002)
(FACE MDF )
(T1  D=3.175 CR=0. - ZMIN=-13.997 - FLAT END MILL)
G0 G90 G94 G17
G21
G53 G0 Z0.

(ADAPTIVE2)
M5
M9
T1
S16500 M3
G4 P4.
G55
G0 X3.485 Y3.776
Z15.
Z5.
Z-2.365
G1 Z-2.682 F1016.
X3.491 Y3.781 Z-2.753
X3.508 Y3.797 Z-2.82
X3.537 Y3.822 Z-2.88
X3.574 Y3.855 Z-2.931
X3.62 Y3.895 Z-2.969
X3.67 Y3.939 Z-2.992
X3.723 Y3.986 Z-3.
G3 X4.899 Y5.277 I-5.37 J6.072
G1 X4.966 Y5.377 F1816.
X4.978 Y5.496
X4.933 Y5.608
X4.899 Y5.653
X4.855 Y5.727
X4.735 Y6.027
X4.674 Y6.326
X4.664 Y6.626
Y98.374
X4.674 Y98.674
X4.735 Y98.973
X4.855 Y99.273
X4.899 Y99.347
X5.066 Y99.573
X5.126 Y99.64
X5.199 Y99.707
X5.424 Y99.873
X5.499 Y99.919
X5.649 Y99.986
X5.799 Y100.039
X6.099 Y100.097
X6.398 Y100.111
X135.602
X135.901 Y100.097
X136.201 Y100.039
X136.351 Y99.986
X136.501 Y99.919
X136.576 Y99.873
X136.801 Y99.707
X136.874 Y99.64
X136.934 Y99.573
X137.101 Y99.347
X137.145 Y99.273
X137.265 Y98.973
X137.326 Y98.674
X137.336 Y98.374
Y6.626
X137.326 Y6.326
X137.265 Y6.027
X137.145 Y5.727
X137.101 Y5.653
X136.934 Y5.427
X136.874 Y5.36
X136.801 Y5.293
X136.576 Y5.127
X136.501 Y5.081
X136.351 Y5.014
X136.201 Y4.961
X135.901 Y4.903
X135.602 Y4.889
X6.398
X6.233 Y4.897
G3 X5.914 Y4.614 I-0.004 J-0.317 F1016.
G1 X5.912 Y4.579 Z-2.998
X5.926 Y4.525 Z-2.986
X5.939 Y4.474 Z-2.965
X5.95 Y4.428 Z-2.935
X5.978 Y4.395 Z-2.895
X6. Y4.368 Z-2.849
X6.016 Y4.349 Z-2.796
X6.026 Y4.337 Z-2.741
X6.029 Y4.332 Z-2.683
G0 Z5.
X15.799 Y13.564
Z2.5
G3 X17.982 Y11.483 Z2.335 I1.092 J-1.04 F1016.
X15.799 Y13.564 Z2.169 I-1.092 J1.04
X17.982 Y11.483 Z2.004 I1.092 J-1.04
X15.799 Y13.564 Z1.838 I-1.092 J1.04
X17.982 Y11.483 Z1.673 I1.092 J-1.04
X15.799 Y13.564 Z1.507 I-1.092 J1.04
X17.982 Y11.483 Z1.342 I1.092 J-1.04
X15.799 Y13.564 Z1.176 I-1.092 J1.04
X17.982 Y11.483 Z1.011 I1.092 J-1.04
X15.799 Y13.564 Z0.845 I-1.092 J1.04
X17.982 Y11.483 Z0.68 I1.092 J-1.04
X15.799 Y13.564 Z0.515 I-1.092 J1.04
X17.982 Y11.483 Z0.349 I1.092 J-1.04
X15.799 Y13.564 Z0.184 I-1.092 J1.04
X17.982 Y11.483 Z0.018 I1.092 J-1.04
X15.799 Y13.564 Z-0.147 I-1.092 J1.04
X17.982 Y11.483 Z-0.313 I1.092 J-1.04
X15.799 Y13.564 Z-0.478 I-1.092 J1.04
X17.982 Y11.483 Z-0.644 I1.092 J-1.04
X15.799 Y13.564 Z-0.809 I-1.092 J1.04
X17.982 Y11.483 Z-0.974 I1.092 J-1.04
X15.799 Y13.564 Z-1.14 I-1.092 J1.04
X17.982 Y11.483 Z-1.305 I1.092 J-1.04
X15.799 Y13.564 Z-1.471 I-1.092 J1.04
X17.982 Y11.483 Z-1.636 I1.092 J-1.04
X15.799 Y13.564 Z-1.802 I-1.092 J1.04
X17.982 Y11.483 Z-1.967 I1.092 J-1.04
X15.799 Y13.564 Z-2.133 I-1.092 J1.04
X17.982 Y11.483 Z-2.298 I1.092 J-1.04
X15.799 Y13.564 Z-2.464 I-1.092 J1.04
X17.982 Y11.483 Z-2.629 I1.092 J-1.04
X15.799 Y13.564 Z-2.794 I-1.092 J1.04
X17.982 Y11.483 Z-2.96 I1.092 J-1.04
X18.399 Y12.524 Z-3. I-1.092 J1.04
X15.382 I-1.508 J0.
X18.399 I1.508 J0.
G1 X18.446 Y13.423 F1816.
X18.422 Y13.61
X18.35 Y13.784
X18.233 Y13.932
X18.081 Y14.043
X17.905 Y14.11
X17.64 Y14.169
X17.49 Y14.186
X15.991
X15.692 Y14.171
X15.411 Y14.065
X15.162 Y13.898
X14.949 Y13.686
X14.777 Y13.441
X14.646 Y13.17
X14.558 Y12.884
X14.513 Y12.587
X14.509 Y12.287
X14.546 Y11.989
X14.622 Y11.699
X14.736 Y11.422
X14.766 Y11.367
X14.925 Y11.158
X15.133 Y10.997
X15.375 Y10.896
X15.636 Y10.861
X17.49 Y10.862
X17.64 Y10.878
X18.029 Y10.966
X18.318 Y11.047
X18.578 Y11.196
X18.8 Y11.398
X18.98 Y11.638
X19.124 Y11.901
X19.241 Y12.177
X19.279 Y12.294
X19.306 Y12.393
X19.323 Y12.495
X19.329 Y12.597
G3 X18.763 Y12.786 I-0.317 J-0.008 F1016.
G1 X18.757 Y12.779
X17.729 Y11.486 F1816.
X17.721 Y11.476 F1016.
G3 X18.029 Y10.966 I0.248 J-0.198
G1 X18.09 Y10.98 F1816.
X18.389 Y11.063
X18.51 Y11.124
X18.689 Y11.252
X18.898 Y11.423
X18.989 Y11.521
X19.062 Y11.622
X19.118 Y11.723
X19.259 Y12.023
X19.289 Y12.109
X19.314 Y12.216
X19.327 Y12.323
X19.329 Y12.623
X19.323 Y12.773
X19.293 Y12.923
X19.289 Y12.939
X19.167 Y13.222
X19.093 Y13.372
X19.047 Y13.447
X18.989 Y13.526
X18.921 Y13.601
X18.839 Y13.676
X18.656 Y13.822
X18.523 Y13.915
X18.389 Y13.984
X18.09 Y14.068
X17.905 Y14.11
X17.857 Y14.115 F1016.
X17.12 Y14.143
X16.776 Y14.156 F1816.
X15.991 Y14.186 F1016.
X15.092 F1816.
X14.792 Y14.171
X14.514 Y14.06
X14.269 Y13.886
X14.062 Y13.669
X13.893 Y13.421
X13.762 Y13.151
X13.668 Y12.866
X13.611 Y12.572
X13.588 Y12.273
X13.597 Y11.973
X13.642 Y11.676
X13.664 Y11.596
X13.765 Y11.357
X13.924 Y11.151
X14.13 Y10.994
X14.371 Y10.895
X14.628 Y10.861
X15.636
G3 X15.936 Y11.241 I-0.011 J0.317 F1016.
G1 X15.89 Y11.471
X15.464 Y13.578 F1816.
X15.392 Y13.932 F1016.
G3 X15.092 Y14.186 I-0.311 J-0.063
G1 X14.492 Y14.185 F1816.
X14.192 Y14.174
X13.894 Y14.148
X13.616 Y14.033
X13.373 Y13.858
X13.165 Y13.642
X12.994 Y13.395
X12.857 Y13.128
X12.753 Y12.847
X12.682 Y12.555
X12.645 Y12.258
X12.643 Y11.958
X12.679 Y11.66
X12.691 Y11.613
X12.79 Y11.369
X12.948 Y11.159
X13.156 Y10.997
X13.399 Y10.896
X13.66 Y10.861
X14.628
G3 X14.931 Y11.228 I-0.011 J0.317 F1016.
G1 X14.892 Y11.473
X14.559 Y13.574 F1816.
X14.506 Y13.906 F1016.
G3 X14.192 Y14.174 I-0.314 J-0.05
G1 X13.893 Y14.163 F1816.
X13.354 Y14.162
X13.054 Y14.147
X12.771 Y14.046
X12.519 Y13.884
X12.301 Y13.678
X12.116 Y13.442
X11.965 Y13.183
X11.846 Y12.907
X11.761 Y12.62
X11.708 Y12.324
X11.693 Y12.025
X11.716 Y11.726
X11.732 Y11.651
X11.822 Y11.4
X11.976 Y11.182
X12.182 Y11.012
X12.425 Y10.902
X12.689 Y10.861
X13.66
G3 X13.965 Y11.215 I-0.011 J0.317 F1016.
G1 X13.935 Y11.475
X13.696 Y13.549 F1816.
X13.658 Y13.881 F1016.
G3 X13.354 Y14.162 I-0.315 J-0.036
G1 X12.394 F1816.
X12.094 Y14.147
X11.816 Y14.036
X11.567 Y13.868
X11.35 Y13.66
X11.167 Y13.423
X11.017 Y13.163
X10.899 Y12.887
X10.812 Y12.6
X10.761 Y12.304
X10.746 Y12.005
X10.761 Y11.836
X10.822 Y11.569
X10.954 Y11.328
X11.146 Y11.132
X11.384 Y10.996
X11.65 Y10.929
X11.794 Y10.914
X12.394 Y10.868
X12.689 Y10.861
G3 X13. Y11.215 I-0.004 J0.317 F1016.
G1 X12.971 Y11.468
X12.736 Y13.549 F1816.
X12.698 Y13.88 F1016.
G3 X12.394 Y14.162 I-0.315 J-0.036
G1 X12.094 F1816.
X11.944 Y14.155
X11.774 Y14.122
X11.494 Y14.056
X11.195 Y13.982
X11.045 Y13.921
X10.97 Y13.88
X10.886 Y13.822
X10.595 Y13.577
X10.542 Y13.522
X10.431 Y13.372
X10.354 Y13.222
X10.295 Y13.086
X10.228 Y12.923
X10.19 Y12.773
X10.176 Y12.623
X10.19 Y12.323
X10.205 Y12.173
X10.241 Y12.023
X10.295 Y11.887
X10.388 Y11.723
X10.475 Y11.573
X10.595 Y11.418
X10.67 Y11.343
X10.745 Y11.283
X10.985 Y11.124
X11.09 Y11.062
X11.195 Y11.014
X11.345 Y10.968
X11.494 Y10.946
X11.65 Y10.929
G3 X11.986 Y11.192 I0.023 J0.317 F1016.
G1 X11.991 Y11.246 Z-2.995
X11.977 Y11.301 Z-2.98
X11.964 Y11.352 Z-2.954
X11.952 Y11.397 Z-2.919
X11.925 Y11.432 Z-2.87
X11.904 Y11.459 Z-2.812
X11.892 Y11.475 Z-2.749
X11.887 Y11.48 Z-2.683
G0 Z5.
X15.799 Y29.564
Z2.5
G3 X17.982 Y27.483 Z2.335 I1.092 J-1.04 F1016.
X15.799 Y29.564 Z2.169 I-1.092 J1.04
X17.982 Y27.483 Z2.004 I1.092 J-1.04
X15.799 Y29.564 Z1.838 I-1.092 J1.04
X17.982 Y27.483 Z1.673 I1.092 J-1.04
X15.799 Y29.564 Z1.507 I-1.092 J1.04
X17.982 Y27.483 Z1.342 I1.092 J-1.04
X15.799 Y29.564 Z1.176 I-1.092 J1.04
X17.982 Y27.483 Z1.011 I1.092 J-1.04
X15.799 Y29.564 Z0.845 I-1.092 J1.04
X17.982 Y27.483 Z0.68 I1.092 J-1.04
X15.799 Y29.564 Z0.515 I-1.092 J1.04
X17.982 Y27.483 Z0.349 I1.092 J-1.04
X15.799 Y29.564 Z0.184 I-1.092 J1.04
X17.982 Y27.483 Z0.018 I1.092 J-1.04
X15.799 Y29.564 Z-0.147 I-1.092 J1.04
X17.982 Y27.483 Z-0.313 I1.092 J-1.04
X15.799 Y29.564 Z-0.478 I-1.092 J1.04
X17.982 Y27.483 Z-0.644 I1.092 J-1.04
X15.799 Y29.564 Z-0.809 I-1.092 J1.04
X17.982 Y27.483 Z-0.974 I1.092 J-1.04
X15.799 Y29.564 Z-1.14 I-1.092 J1.04
X17.982 Y27.483 Z-1.305 I1.092 J-1.04
X15.799 Y29.564 Z-1.471 I-1.092 J1.04
X17.982 Y27.483 Z-1.636 I1.092 J-1.04
X15.799 Y29.564 Z-1.802 I-1.092 J1.04
X17.982 Y27.483 Z-1.967 I1.092 J-1.04
X15.799 Y29.564 Z-2.133 I-1.092 J1.04
X17.982 Y27.483 Z-2.298 I1.092 J-1.04
X15.799 Y29.564 Z-2.464 I-1.092 J1.04
X17.982 Y27.483 Z-2.629 I1.092 J-1.04
X15.799 Y29.564 Z-2.794 I-1.092 J1.04
X17.982 Y27.483 Z-2.96 I1.092 J-1.04
X18.399 Y28.524 Z-3. I-1.092 J1.04
X15.382 I-1.508 J0.
X18.399 I1.508 J0.
G1 X18.446 Y29.423 F1816.
X18.422 Y29.61
X18.35 Y29.784
X18.233 Y29.932
X18.081 Y30.043
X17.905 Y30.11
X17.64 Y30.169
X17.49 Y30.186
X15.991
X15.692 Y30.171
X15.411 Y30.065
X15.162 Y29.898
X14.949 Y29.686
X14.777 Y29.441
X14.646 Y29.17
X14.558 Y28.884
X14.513 Y28.587
X14.509 Y28.287
X14.546 Y27.989
X14.622 Y27.699
X14.736 Y27.422
X14.766 Y27.367
X14.925 Y27.158
X15.133 Y26.997
X15.375 Y26.896
X15.636 Y26.861
X17.49 Y26.862
X17.64 Y26.878
X18.029 Y26.966
X18.318 Y27.047
X18.578 Y27.196
X18.8 Y27.398
X18.98 Y27.638
X19.124 Y27.901
X19.241 Y28.177
X19.275 Y28.282
X19.306 Y28.398
X19.322 Y28.516
X19.324 Y28.636
G3 X18.757 Y28.807 I-0.317 J-0.025 F1016.
G1 X18.743 Y28.789
X17.729 Y27.486 F1816.
X17.719 Y27.473 F1016.
G3 X18.029 Y26.966 I0.251 J-0.195
G1 X18.241 Y27.015 F1816.
X18.389 Y27.063
X18.539 Y27.141
X18.689 Y27.252
X18.878 Y27.404
X18.989 Y27.52
X19.057 Y27.614
X19.21 Y27.914
X19.289 Y28.111
X19.313 Y28.214
X19.329 Y28.514
X19.317 Y28.814
X19.289 Y28.936
X19.219 Y29.113
X19.069 Y29.413
X18.989 Y29.525
X18.891 Y29.631
X18.793 Y29.713
X18.689 Y29.796
X18.539 Y29.907
X18.389 Y29.984
X18.312 Y30.013
X18.09 Y30.068
X17.905 Y30.11
X17.857 Y30.115 F1016.
X17.12 Y30.143
X16.776 Y30.156 F1816.
X15.991 Y30.186 F1016.
X15.092 F1816.
X14.792 Y30.171
X14.514 Y30.06
X14.269 Y29.886
X14.062 Y29.669
X13.893 Y29.421
X13.762 Y29.151
X13.668 Y28.866
X13.611 Y28.572
X13.588 Y28.273
X13.597 Y27.973
X13.642 Y27.676
X13.664 Y27.596
X13.765 Y27.357
X13.924 Y27.151
X14.13 Y26.994
X14.371 Y26.895
X14.628 Y26.861
X15.636
G3 X15.936 Y27.241 I-0.011 J0.317 F1016.
G1 X15.89 Y27.471
X15.464 Y29.578 F1816.
X15.392 Y29.932 F1016.
G3 X15.092 Y30.186 I-0.311 J-0.063
G1 X14.492 Y30.185 F1816.
X14.192 Y30.174
X13.894 Y30.148
X13.616 Y30.033
X13.373 Y29.858
X13.165 Y29.642
X12.994 Y29.395
X12.857 Y29.128
X12.753 Y28.847
X12.682 Y28.555
X12.645 Y28.258
X12.643 Y27.958
X12.679 Y27.66
X12.691 Y27.613
X12.79 Y27.369
X12.948 Y27.159
X13.156 Y26.997
X13.399 Y26.896
X13.66 Y26.861
X14.628
G3 X14.931 Y27.228 I-0.011 J0.317 F1016.
G1 X14.892 Y27.473
X14.559 Y29.574 F1816.
X14.506 Y29.906 F1016.
G3 X14.192 Y30.174 I-0.314 J-0.05
G1 X13.893 Y30.163 F1816.
X13.354 Y30.162
X13.054 Y30.147
X12.771 Y30.046
X12.519 Y29.884
X12.301 Y29.678
X12.116 Y29.442
X11.965 Y29.183
X11.846 Y28.907
X11.761 Y28.62
X11.708 Y28.324
X11.693 Y28.025
X11.716 Y27.726
X11.732 Y27.651
X11.822 Y27.4
X11.976 Y27.182
X12.182 Y27.012
X12.425 Y26.902
X12.689 Y26.861
X13.66
G3 X13.965 Y27.215 I-0.011 J0.317 F1016.
G1 X13.935 Y27.475
X13.696 Y29.549 F1816.
X13.658 Y29.881 F1016.
G3 X13.354 Y30.162 I-0.315 J-0.036
G1 X12.394 F1816.
X12.094 Y30.147
X11.816 Y30.036
X11.567 Y29.868
X11.35 Y29.66
X11.167 Y29.423
X11.017 Y29.163
X10.899 Y28.887
X10.812 Y28.6
X10.761 Y28.304
X10.746 Y28.005
X10.761 Y27.836
X10.822 Y27.569
X10.954 Y27.328
X11.146 Y27.132
X11.384 Y26.996
X11.65 Y26.929
X11.794 Y26.914
X12.394 Y26.868
X12.689 Y26.861
G3 X13. Y27.215 I-0.004 J0.317 F1016.
G1 X12.971 Y27.468
X12.736 Y29.549 F1816.
X12.698 Y29.88 F1016.
G3 X12.394 Y30.162 I-0.315 J-0.036
G1 X12.094 F1816.
X11.944 Y30.155
X11.794 Y30.127
X11.315 Y30.013
X11.195 Y29.982
X11.045 Y29.921
X10.895 Y29.829
X10.753 Y29.713
X10.595 Y29.576
X10.52 Y29.495
X10.458 Y29.413
X10.372 Y29.263
X10.295 Y29.086
X10.239 Y28.95
X10.199 Y28.814
X10.178 Y28.664
X10.179 Y28.514
X10.199 Y28.214
X10.228 Y28.064
X10.283 Y27.914
X10.295 Y27.887
X10.451 Y27.614
X10.514 Y27.515
X10.595 Y27.416
X10.705 Y27.314
X10.895 Y27.183
X11.044 Y27.087
X11.195 Y27.014
X11.345 Y26.969
X11.494 Y26.946
X11.65 Y26.929
G3 X11.986 Y27.192 I0.023 J0.317 F1016.
G1 X11.991 Y27.246 Z-2.995
X11.977 Y27.301 Z-2.98
X11.964 Y27.352 Z-2.954
X11.952 Y27.397 Z-2.919
X11.925 Y27.432 Z-2.87
X11.904 Y27.459 Z-2.812
X11.892 Y27.475 Z-2.749
X11.887 Y27.48 Z-2.683
G0 Z5.
X15.799 Y61.564
Z2.5
G3 X17.982 Y59.483 Z2.335 I1.092 J-1.04 F1016.
X15.799 Y61.564 Z2.169 I-1.092 J1.04
X17.982 Y59.483 Z2.004 I1.092 J-1.04
X15.799 Y61.564 Z1.838 I-1.092 J1.04
X17.982 Y59.483 Z1.673 I1.092 J-1.04
X15.799 Y61.564 Z1.507 I-1.092 J1.04
X17.982 Y59.483 Z1.342 I1.092 J-1.04
X15.799 Y61.564 Z1.176 I-1.092 J1.04
X17.982 Y59.483 Z1.011 I1.092 J-1.04
X15.799 Y61.564 Z0.845 I-1.092 J1.04
X17.982 Y59.483 Z0.68 I1.092 J-1.04
X15.799 Y61.564 Z0.515 I-1.092 J1.04
X17.982 Y59.483 Z0.349 I1.092 J-1.04
X15.799 Y61.564 Z0.184 I-1.092 J1.04
X17.982 Y59.483 Z0.018 I1.092 J-1.04
X15.799 Y61.564 Z-0.147 I-1.092 J1.04
X17.982 Y59.483 Z-0.313 I1.092 J-1.04
X15.799 Y61.564 Z-0.478 I-1.092 J1.04
X17.982 Y59.483 Z-0.644 I1.092 J-1.04
X15.799 Y61.564 Z-0.809 I-1.092 J1.04
X17.982 Y59.483 Z-0.974 I1.092 J-1.04
X15.799 Y61.564 Z-1.14 I-1.092 J1.04
X17.982 Y59.483 Z-1.305 I1.092 J-1.04
X15.799 Y61.564 Z-1.471 I-1.092 J1.04
X17.982 Y59.483 Z-1.636 I1.092 J-1.04
X15.799 Y61.564 Z-1.802 I-1.092 J1.04
X17.982 Y59.483 Z-1.967 I1.092 J-1.04
X15.799 Y61.564 Z-2.133 I-1.092 J1.04
X17.982 Y59.483 Z-2.298 I1.092 J-1.04
X15.799 Y61.564 Z-2.464 I-1.092 J1.04
X17.982 Y59.483 Z-2.629 I1.092 J-1.04
X15.799 Y61.564 Z-2.794 I-1.092 J1.04
X17.982 Y59.483 Z-2.96 I1.092 J-1.04
X18.399 Y60.524 Z-3. I-1.092 J1.04
X15.382 I-1.508 J0.
X18.399 I1.508 J0.
G1 X18.446 Y61.423 F1816.
X18.422 Y61.61
X18.35 Y61.784
X18.233 Y61.932
X18.081 Y62.043
X17.905 Y62.11
X17.64 Y62.169
X17.49 Y62.186
X15.991
X15.692 Y62.171
X15.411 Y62.065
X15.162 Y61.898
X14.949 Y61.686
X14.777 Y61.441
X14.646 Y61.17
X14.558 Y60.884
X14.513 Y60.587
X14.509 Y60.287
X14.546 Y59.989
X14.622 Y59.699
X14.736 Y59.422
X14.766 Y59.367
X14.925 Y59.158
X15.133 Y58.997
X15.375 Y58.896
X15.636 Y58.861
X17.49 Y58.862
X17.64 Y58.878
X18.029 Y58.966
X18.318 Y59.047
X18.578 Y59.196
X18.8 Y59.398
X18.98 Y59.638
X19.124 Y59.901
X19.241 Y60.177
X19.28 Y60.295
X19.306 Y60.392
X19.323 Y60.491
X19.329 Y60.591
G3 X18.764 Y60.783 I-0.317 J-0.006 F1016.
G1 X18.759 Y60.777
X17.729 Y59.486 F1816.
X17.721 Y59.476 F1016.
G3 X18.029 Y58.966 I0.248 J-0.198
G1 X18.09 Y58.98 F1816.
X18.389 Y59.064
X18.459 Y59.096
X18.574 Y59.164
X18.689 Y59.252
X18.868 Y59.396
X18.989 Y59.522
X19.053 Y59.609
X19.104 Y59.696
X19.247 Y59.996
X19.289 Y60.11
X19.311 Y60.203
X19.325 Y60.296
X19.329 Y60.595
X19.325 Y60.745
X19.3 Y60.895
X19.289 Y60.938
X19.18 Y61.195
X19.108 Y61.345
X19.065 Y61.42
X19.014 Y61.495
X18.989 Y61.526
X18.914 Y61.608
X18.84 Y61.676
X18.689 Y61.796
X18.539 Y61.906
X18.389 Y61.984
X18.09 Y62.068
X17.905 Y62.11
X17.857 Y62.115 F1016.
X17.12 Y62.143
X16.776 Y62.156 F1816.
X15.991 Y62.186 F1016.
X15.092 F1816.
X14.792 Y62.171
X14.514 Y62.06
X14.269 Y61.886
X14.062 Y61.669
X13.893 Y61.421
X13.762 Y61.151
X13.668 Y60.866
X13.611 Y60.572
X13.588 Y60.273
X13.597 Y59.973
X13.642 Y59.676
X13.664 Y59.596
X13.765 Y59.357
X13.924 Y59.151
X14.13 Y58.994
X14.371 Y58.895
X14.628 Y58.861
X15.636
G3 X15.936 Y59.241 I-0.011 J0.317 F1016.
G1 X15.89 Y59.471
X15.464 Y61.578 F1816.
X15.392 Y61.932 F1016.
G3 X15.092 Y62.186 I-0.311 J-0.063
G1 X14.492 Y62.185 F1816.
X14.192 Y62.174
X13.894 Y62.148
X13.616 Y62.033
X13.373 Y61.858
X13.165 Y61.642
X12.994 Y61.395
X12.857 Y61.128
X12.753 Y60.847
X12.682 Y60.555
X12.645 Y60.258
X12.643 Y59.958
X12.679 Y59.66
X12.691 Y59.613
X12.79 Y59.369
X12.948 Y59.159
X13.156 Y58.997
X13.399 Y58.896
X13.66 Y58.861
X14.628
G3 X14.931 Y59.228 I-0.011 J0.317 F1016.
G1 X14.892 Y59.473
X14.559 Y61.574 F1816.
X14.506 Y61.906 F1016.
G3 X14.192 Y62.174 I-0.314 J-0.05
G1 X13.893 Y62.163 F1816.
X13.354 Y62.162
X13.054 Y62.147
X12.771 Y62.046
X12.519 Y61.884
X12.301 Y61.678
X12.116 Y61.442
X11.965 Y61.183
X11.846 Y60.907
X11.761 Y60.62
X11.708 Y60.324
X11.693 Y60.025
X11.716 Y59.726
X11.732 Y59.651
X11.822 Y59.4
X11.976 Y59.182
X12.182 Y59.012
X12.425 Y58.902
X12.689 Y58.861
X13.66
G3 X13.965 Y59.215 I-0.011 J0.317 F1016.
G1 X13.935 Y59.475
X13.696 Y61.549 F1816.
X13.658 Y61.881 F1016.
G3 X13.354 Y62.162 I-0.315 J-0.036
G1 X12.394 F1816.
X12.094 Y62.147
X11.816 Y62.036
X11.567 Y61.868
X11.35 Y61.66
X11.167 Y61.423
X11.017 Y61.163
X10.899 Y60.887
X10.812 Y60.6
X10.761 Y60.304
X10.746 Y60.005
X10.761 Y59.836
X10.822 Y59.569
X10.954 Y59.328
X11.146 Y59.132
X11.384 Y58.996
X11.65 Y58.929
X11.794 Y58.914
X12.394 Y58.868
X12.689 Y58.861
G3 X13. Y59.215 I-0.004 J0.317 F1016.
G1 X12.971 Y59.468
X12.736 Y61.549 F1816.
X12.698 Y61.88 F1016.
G3 X12.394 Y62.162 I-0.315 J-0.036
G1 X12.094 F1816.
X11.944 Y62.155
X11.794 Y62.127
X11.494 Y62.056
X11.195 Y61.982
X11.045 Y61.922
X10.97 Y61.88
X10.895 Y61.829
X10.851 Y61.795
X10.595 Y61.577
X10.518 Y61.495
X10.46 Y61.42
X10.413 Y61.345
X10.342 Y61.195
X10.295 Y61.086
X10.22 Y60.895
X10.187 Y60.745
X10.176 Y60.595
X10.192 Y60.296
X10.21 Y60.146
X10.25 Y59.996
X10.295 Y59.887
X10.403 Y59.696
X10.486 Y59.556
X10.536 Y59.486
X10.595 Y59.417
X10.615 Y59.396
X10.755 Y59.276
X11.028 Y59.096
X11.111 Y59.05
X11.195 Y59.013
X11.345 Y58.968
X11.494 Y58.946
X11.65 Y58.929
G3 X11.986 Y59.192 I0.023 J0.317 F1016.
G1 X11.991 Y59.246 Z-2.995
X11.977 Y59.301 Z-2.98
X11.964 Y59.352 Z-2.954
X11.952 Y59.397 Z-2.919
X11.925 Y59.432 Z-2.87
X11.904 Y59.459 Z-2.812
X11.892 Y59.475 Z-2.749
X11.887 Y59.48 Z-2.683
G0 Z5.
X15.799 Y45.564
Z2.5
G3 X17.982 Y43.483 Z2.335 I1.092 J-1.04 F1016.
X15.799 Y45.564 Z2.169 I-1.092 J1.04
X17.982 Y43.483 Z2.004 I1.092 J-1.04
X15.799 Y45.564 Z1.838 I-1.092 J1.04
X17.982 Y43.483 Z1.673 I1.092 J-1.04
X15.799 Y45.564 Z1.507 I-1.092 J1.04
X17.982 Y43.483 Z1.342 I1.092 J-1.04
X15.799 Y45.564 Z1.176 I-1.092 J1.04
X17.982 Y43.483 Z1.011 I1.092 J-1.04
X15.799 Y45.564 Z0.845 I-1.092 J1.04
X17.982 Y43.483 Z0.68 I1.092 J-1.04
X15.799 Y45.564 Z0.515 I-1.092 J1.04
X17.982 Y43.483 Z0.349 I1.092 J-1.04
X15.799 Y45.564 Z0.184 I-1.092 J1.04
X17.982 Y43.483 Z0.018 I1.092 J-1.04
X15.799 Y45.564 Z-0.147 I-1.092 J1.04
X17.982 Y43.483 Z-0.313 I1.092 J-1.04
X15.799 Y45.564 Z-0.478 I-1.092 J1.04
X17.982 Y43.483 Z-0.644 I1.092 J-1.04
X15.799 Y45.564 Z-0.809 I-1.092 J1.04
X17.982 Y43.483 Z-0.974 I1.092 J-1.04
X15.799 Y45.564 Z-1.14 I-1.092 J1.04
X17.982 Y43.483 Z-1.305 I1.092 J-1.04
X15.799 Y45.564 Z-1.471 I-1.092 J1.04
X17.982 Y43.483 Z-1.636 I1.092 J-1.04
X15.799 Y45.564 Z-1.802 I-1.092 J1.04
X17.982 Y43.483 Z-1.967 I1.092 J-1.04
X15.799 Y45.564 Z-2.133 I-1.092 J1.04
X17.982 Y43.483 Z-2.298 I1.092 J-1.04
X15.799 Y45.564 Z-2.464 I-1.092 J1.04
X17.982 Y43.483 Z-2.629 I1.092 J-1.04
X15.799 Y45.564 Z-2.794 I-1.092 J1.04
X17.982 Y43.483 Z-2.96 I1.092 J-1.04
X18.399 Y44.524 Z-3. I-1.092 J1.04
X15.382 I-1.508 J0.
X18.399 I1.508 J0.
G1 X18.446 Y45.423 F1816.
X18.422 Y45.61
X18.35 Y45.784
X18.233 Y45.932
X18.081 Y46.043
X17.905 Y46.11
X17.64 Y46.169
X17.49 Y46.186
X15.991
X15.692 Y46.171
X15.411 Y46.065
X15.162 Y45.898
X14.949 Y45.686
X14.777 Y45.441
X14.646 Y45.17
X14.558 Y44.884
X14.513 Y44.587
X14.509 Y44.287
X14.546 Y43.989
X14.622 Y43.699
X14.736 Y43.422
X14.766 Y43.367
X14.925 Y43.158
X15.133 Y42.997
X15.375 Y42.896
X15.636 Y42.861
X17.49 Y42.862
X17.627 Y42.876
X17.79 Y42.911
X18.029 Y42.966
X18.318 Y43.047
X18.578 Y43.196
X18.8 Y43.398
X18.98 Y43.638
X19.124 Y43.901
X19.241 Y44.177
X19.279 Y44.292
X19.307 Y44.395
X19.323 Y44.501
X19.328 Y44.608
G3 X18.762 Y44.793 I-0.317 J-0.013 F1016.
G1 X18.754 Y44.783
X17.729 Y43.486 F1816.
X17.72 Y43.475 F1016.
G3 X18.029 Y42.966 I0.249 J-0.197
G1 X18.09 Y42.98 F1816.
X18.389 Y43.063
X18.51 Y43.123
X18.631 Y43.205
X18.832 Y43.365
X18.903 Y43.428
X18.974 Y43.505
X18.989 Y43.522
X19.086 Y43.664
X19.157 Y43.805
X19.289 Y44.112
X19.32 Y44.258
X19.329 Y44.405
X19.328 Y44.704
X19.315 Y44.82
X19.289 Y44.936
X19.267 Y45.004
X19.127 Y45.304
X19.068 Y45.416
X18.989 Y45.527
X18.92 Y45.604
X18.689 Y45.796
X18.543 Y45.904
X18.389 Y45.984
X18.09 Y46.068
X17.905 Y46.11
X17.857 Y46.115 F1016.
X17.12 Y46.143
X16.776 Y46.156 F1816.
X15.991 Y46.186 F1016.
X15.092 F1816.
X14.792 Y46.171
X14.514 Y46.06
X14.269 Y45.886
X14.062 Y45.669
X13.893 Y45.421
X13.762 Y45.151
X13.668 Y44.866
X13.611 Y44.572
X13.588 Y44.273
X13.597 Y43.973
X13.642 Y43.676
X13.664 Y43.596
X13.765 Y43.357
X13.924 Y43.151
X14.13 Y42.994
X14.371 Y42.895
X14.628 Y42.861
X15.636
G3 X15.936 Y43.241 I-0.011 J0.317 F1016.
G1 X15.89 Y43.471
X15.464 Y45.578 F1816.
X15.392 Y45.932 F1016.
G3 X15.092 Y46.186 I-0.311 J-0.063
G1 X14.492 Y46.185 F1816.
X14.192 Y46.174
X13.894 Y46.148
X13.616 Y46.033
X13.373 Y45.858
X13.165 Y45.642
X12.994 Y45.395
X12.857 Y45.128
X12.753 Y44.847
X12.682 Y44.555
X12.645 Y44.258
X12.643 Y43.958
X12.679 Y43.66
X12.691 Y43.613
X12.79 Y43.369
X12.948 Y43.159
X13.156 Y42.997
X13.399 Y42.896
X13.66 Y42.861
X14.628
G3 X14.931 Y43.228 I-0.011 J0.317 F1016.
G1 X14.892 Y43.473
X14.559 Y45.574 F1816.
X14.506 Y45.906 F1016.
G3 X14.192 Y46.174 I-0.314 J-0.05
G1 X13.893 Y46.163 F1816.
X13.354 Y46.162
X13.054 Y46.147
X12.771 Y46.046
X12.519 Y45.884
X12.301 Y45.678
X12.116 Y45.442
X11.965 Y45.183
X11.846 Y44.907
X11.761 Y44.62
X11.708 Y44.324
X11.693 Y44.025
X11.716 Y43.726
X11.732 Y43.651
X11.822 Y43.4
X11.976 Y43.182
X12.182 Y43.012
X12.425 Y42.902
X12.689 Y42.861
X13.66
G3 X13.965 Y43.215 I-0.011 J0.317 F1016.
G1 X13.935 Y43.475
X13.696 Y45.549 F1816.
X13.658 Y45.881 F1016.
G3 X13.354 Y46.162 I-0.315 J-0.036
G1 X12.394 F1816.
X12.094 Y46.147
X11.816 Y46.036
X11.567 Y45.868
X11.35 Y45.66
X11.167 Y45.423
X11.017 Y45.163
X10.899 Y44.887
X10.812 Y44.6
X10.761 Y44.304
X10.746 Y44.005
X10.761 Y43.836
X10.822 Y43.569
X10.954 Y43.328
X11.146 Y43.132
X11.384 Y42.996
X11.65 Y42.929
X11.794 Y42.914
X12.394 Y42.868
X12.689 Y42.861
G3 X13. Y43.215 I-0.004 J0.317 F1016.
G1 X12.971 Y43.468
X12.736 Y45.549 F1816.
X12.698 Y45.88 F1016.
G3 X12.394 Y46.162 I-0.315 J-0.036
G1 X12.094 F1816.
X11.944 Y46.155
X11.794 Y46.127
X11.494 Y46.056
X11.195 Y45.982
X11.103 Y45.948
X11.011 Y45.904
X10.895 Y45.829
X10.624 Y45.604
X10.595 Y45.577
X10.476 Y45.44
X10.392 Y45.304
X10.26 Y45.004
X10.209 Y44.854
X10.182 Y44.704
X10.186 Y44.405
X10.218 Y44.105
X10.249 Y43.996
X10.295 Y43.888
X10.34 Y43.805
X10.521 Y43.505
X10.595 Y43.417
X10.728 Y43.295
X10.895 Y43.183
X11.045 Y43.086
X11.195 Y43.014
X11.345 Y42.969
X11.494 Y42.946
X11.65 Y42.929
G3 X11.986 Y43.192 I0.023 J0.317 F1016.
G1 X11.991 Y43.246 Z-2.995
X11.977 Y43.301 Z-2.98
X11.964 Y43.352 Z-2.954
X11.952 Y43.397 Z-2.919
X11.925 Y43.432 Z-2.87
X11.904 Y43.459 Z-2.812
X11.892 Y43.475 Z-2.749
X11.887 Y43.48 Z-2.683
G0 Z5.
X15.799 Y77.564
Z2.5
G3 X17.982 Y75.483 Z2.335 I1.092 J-1.04 F1016.
X15.799 Y77.564 Z2.169 I-1.092 J1.04
X17.982 Y75.483 Z2.004 I1.092 J-1.04
X15.799 Y77.564 Z1.838 I-1.092 J1.04
X17.982 Y75.483 Z1.673 I1.092 J-1.04
X15.799 Y77.564 Z1.507 I-1.092 J1.04
X17.982 Y75.483 Z1.342 I1.092 J-1.04
X15.799 Y77.564 Z1.176 I-1.092 J1.04
X17.982 Y75.483 Z1.011 I1.092 J-1.04
X15.799 Y77.564 Z0.845 I-1.092 J1.04
X17.982 Y75.483 Z0.68 I1.092 J-1.04
X15.799 Y77.564 Z0.515 I-1.092 J1.04
X17.982 Y75.483 Z0.349 I1.092 J-1.04
X15.799 Y77.564 Z0.184 I-1.092 J1.04
X17.982 Y75.483 Z0.018 I1.092 J-1.04
X15.799 Y77.564 Z-0.147 I-1.092 J1.04
X17.982 Y75.483 Z-0.313 I1.092 J-1.04
X15.799 Y77.564 Z-0.478 I-1.092 J1.04
X17.982 Y75.483 Z-0.644 I1.092 J-1.04
X15.799 Y77.564 Z-0.809 I-1.092 J1.04
X17.982 Y75.483 Z-0.974 I1.092 J-1.04
X15.799 Y77.564 Z-1.14 I-1.092 J1.04
X17.982 Y75.483 Z-1.305 I1.092 J-1.04
X15.799 Y77.564 Z-1.471 I-1.092 J1.04
X17.982 Y75.483 Z-1.636 I1.092 J-1.04
X15.799 Y77.564 Z-1.802 I-1.092 J1.04
X17.982 Y75.483 Z-1.967 I1.092 J-1.04
X15.799 Y77.564 Z-2.133 I-1.092 J1.04
X17.982 Y75.483 Z-2.298 I1.092 J-1.04
X15.799 Y77.564 Z-2.464 I-1.092 J1.04
X17.982 Y75.483 Z-2.629 I1.092 J-1.04
X15.799 Y77.564 Z-2.794 I-1.092 J1.04
X17.982 Y75.483 Z-2.96 I1.092 J-1.04
X18.399 Y76.524 Z-3. I-1.092 J1.04
X15.382 I-1.508 J0.
X18.399 I1.508 J0.
G1 X18.446 Y77.423 F1816.
X18.422 Y77.61
X18.35 Y77.784
X18.233 Y77.932
X18.081 Y78.043
X17.905 Y78.11
X17.64 Y78.169
X17.49 Y78.186
X15.991
X15.692 Y78.171
X15.411 Y78.065
X15.162 Y77.898
X14.949 Y77.686
X14.777 Y77.441
X14.646 Y77.17
X14.558 Y76.884
X14.513 Y76.587
X14.509 Y76.287
X14.546 Y75.989
X14.622 Y75.699
X14.736 Y75.422
X14.766 Y75.367
X14.925 Y75.158
X15.133 Y74.997
X15.375 Y74.896
X15.636 Y74.861
X17.49 Y74.862
X17.64 Y74.878
X18.029 Y74.966
X18.318 Y75.047
X18.578 Y75.196
X18.8 Y75.398
X18.98 Y75.638
X19.124 Y75.901
X19.241 Y76.177
X19.276 Y76.283
X19.305 Y76.395
X19.322 Y76.51
X19.325 Y76.627
G3 X18.758 Y76.801 I-0.317 J-0.021 F1016.
G1 X18.746 Y76.785
X17.729 Y75.486 F1816.
X17.719 Y75.474 F1016.
G3 X18.029 Y74.966 I0.25 J-0.196
G1 X18.121 Y74.987 F1816.
X18.389 Y75.063
X18.539 Y75.14
X18.689 Y75.252
X18.861 Y75.39
X18.931 Y75.456
X18.989 Y75.522
X19.037 Y75.587
X19.196 Y75.887
X19.289 Y76.111
X19.307 Y76.186
X19.328 Y76.336
X19.329 Y76.486
X19.32 Y76.786
X19.289 Y76.936
X19.232 Y77.086
X19.086 Y77.386
X18.989 Y77.527
X18.908 Y77.615
X18.827 Y77.686
X18.689 Y77.796
X18.539 Y77.907
X18.388 Y77.985
X18.09 Y78.068
X17.905 Y78.11
X17.857 Y78.115 F1016.
X17.12 Y78.143
X16.776 Y78.156 F1816.
X15.991 Y78.186 F1016.
X15.092 F1816.
X14.792 Y78.171
X14.514 Y78.06
X14.269 Y77.886
X14.062 Y77.669
X13.893 Y77.421
X13.762 Y77.151
X13.668 Y76.866
X13.611 Y76.572
X13.588 Y76.273
X13.597 Y75.973
X13.642 Y75.676
X13.664 Y75.596
X13.765 Y75.357
X13.924 Y75.151
X14.13 Y74.994
X14.371 Y74.895
X14.628 Y74.861
X15.636
G3 X15.936 Y75.241 I-0.011 J0.317 F1016.
G1 X15.89 Y75.471
X15.464 Y77.578 F1816.
X15.392 Y77.932 F1016.
G3 X15.092 Y78.186 I-0.311 J-0.063
G1 X14.492 Y78.185 F1816.
X14.192 Y78.174
X13.894 Y78.148
X13.616 Y78.033
X13.373 Y77.858
X13.165 Y77.642
X12.994 Y77.395
X12.857 Y77.128
X12.753 Y76.847
X12.682 Y76.555
X12.645 Y76.258
X12.643 Y75.958
X12.679 Y75.66
X12.691 Y75.613
X12.79 Y75.369
X12.948 Y75.159
X13.156 Y74.997
X13.399 Y74.896
X13.66 Y74.861
X14.628
G3 X14.931 Y75.228 I-0.011 J0.317 F1016.
G1 X14.892 Y75.473
X14.559 Y77.574 F1816.
X14.506 Y77.906 F1016.
G3 X14.192 Y78.174 I-0.314 J-0.05
G1 X13.893 Y78.163 F1816.
X13.354 Y78.162
X13.054 Y78.147
X12.771 Y78.046
X12.519 Y77.884
X12.301 Y77.678
X12.116 Y77.442
X11.965 Y77.183
X11.846 Y76.907
X11.761 Y76.62
X11.708 Y76.324
X11.693 Y76.025
X11.716 Y75.726
X11.732 Y75.651
X11.822 Y75.4
X11.976 Y75.182
X12.182 Y75.012
X12.425 Y74.902
X12.689 Y74.861
X13.66
G3 X13.965 Y75.215 I-0.011 J0.317 F1016.
G1 X13.935 Y75.475
X13.696 Y77.549 F1816.
X13.658 Y77.881 F1016.
G3 X13.354 Y78.162 I-0.315 J-0.036
G1 X12.394 F1816.
X12.094 Y78.147
X11.816 Y78.036
X11.567 Y77.868
X11.35 Y77.66
X11.167 Y77.423
X11.017 Y77.163
X10.899 Y76.887
X10.812 Y76.6
X10.761 Y76.304
X10.746 Y76.005
X10.761 Y75.836
X10.822 Y75.569
X10.954 Y75.328
X11.146 Y75.132
X11.384 Y74.996
X11.65 Y74.929
X11.794 Y74.914
X12.394 Y74.868
X12.689 Y74.861
G3 X13. Y75.215 I-0.004 J0.317 F1016.
G1 X12.971 Y75.468
X12.736 Y77.549 F1816.
X12.698 Y77.88 F1016.
G3 X12.394 Y78.162 I-0.315 J-0.036
G1 X12.094 F1816.
X11.944 Y78.155
X11.794 Y78.127
X11.207 Y77.985
X11.195 Y77.982
X11.045 Y77.92
X10.895 Y77.829
X10.721 Y77.686
X10.595 Y77.576
X10.507 Y77.481
X10.438 Y77.386
X10.295 Y77.086
X10.233 Y76.936
X10.193 Y76.786
X10.176 Y76.636
X10.181 Y76.486
X10.203 Y76.186
X10.237 Y76.037
X10.296 Y75.887
X10.467 Y75.587
X10.524 Y75.503
X10.595 Y75.418
X10.74 Y75.287
X10.895 Y75.183
X11.045 Y75.087
X11.195 Y75.014
X11.273 Y74.987
X11.384 Y74.961
X11.494 Y74.946
X11.65 Y74.929
G3 X11.986 Y75.192 I0.023 J0.317 F1016.
G1 X11.991 Y75.246 Z-2.995
X11.977 Y75.301 Z-2.98
X11.964 Y75.352 Z-2.954
X11.952 Y75.397 Z-2.919
X11.925 Y75.432 Z-2.87
X11.904 Y75.459 Z-2.812
X11.892 Y75.475 Z-2.749
X11.887 Y75.48 Z-2.683
G0 Z5.
X15.799 Y93.564
Z2.5
G3 X17.982 Y91.483 Z2.335 I1.092 J-1.04 F1016.
X15.799 Y93.564 Z2.169 I-1.092 J1.04
X17.982 Y91.483 Z2.004 I1.092 J-1.04
X15.799 Y93.564 Z1.838 I-1.092 J1.04
X17.982 Y91.483 Z1.673 I1.092 J-1.04
X15.799 Y93.564 Z1.507 I-1.092 J1.04
X17.982 Y91.483 Z1.342 I1.092 J-1.04
X15.799 Y93.564 Z1.176 I-1.092 J1.04
X17.982 Y91.483 Z1.011 I1.092 J-1.04
X15.799 Y93.564 Z0.845 I-1.092 J1.04
X17.982 Y91.483 Z0.68 I1.092 J-1.04
X15.799 Y93.564 Z0.515 I-1.092 J1.04
X17.982 Y91.483 Z0.349 I1.092 J-1.04
X15.799 Y93.564 Z0.184 I-1.092 J1.04
X17.982 Y91.483 Z0.018 I1.092 J-1.04
X15.799 Y93.564 Z-0.147 I-1.092 J1.04
X17.982 Y91.483 Z-0.313 I1.092 J-1.04
X15.799 Y93.564 Z-0.478 I-1.092 J1.04
X17.982 Y91.483 Z-0.644 I1.092 J-1.04
X15.799 Y93.564 Z-0.809 I-1.092 J1.04
X17.982 Y91.483 Z-0.974 I1.092 J-1.04
X15.799 Y93.564 Z-1.14 I-1.092 J1.04
X17.982 Y91.483 Z-1.305 I1.092 J-1.04
X15.799 Y93.564 Z-1.471 I-1.092 J1.04
X17.982 Y91.483 Z-1.636 I1.092 J-1.04
X15.799 Y93.564 Z-1.802 I-1.092 J1.04
X17.982 Y91.483 Z-1.967 I1.092 J-1.04
X15.799 Y93.564 Z-2.133 I-1.092 J1.04
X17.982 Y91.483 Z-2.298 I1.092 J-1.04
X15.799 Y93.564 Z-2.464 I-1.092 J1.04
X17.982 Y91.483 Z-2.629 I1.092 J-1.04
X15.799 Y93.564 Z-2.794 I-1.092 J1.04
X17.982 Y91.483 Z-2.96 I1.092 J-1.04
X18.399 Y92.524 Z-3. I-1.092 J1.04
X15.382 I-1.508 J0.
X18.399 I1.508 J0.
G1 X18.446 Y93.423 F1816.
X18.422 Y93.61
X18.35 Y93.784
X18.233 Y93.932
X18.081 Y94.043
X17.905 Y94.11
X17.79 Y94.136
X17.596 Y94.176
X17.49 Y94.186
X15.991
X15.692 Y94.171
X15.411 Y94.065
X15.162 Y93.898
X14.949 Y93.686
X14.777 Y93.441
X14.646 Y93.17
X14.558 Y92.884
X14.513 Y92.587
X14.509 Y92.287
X14.546 Y91.989
X14.622 Y91.699
X14.736 Y91.422
X14.766 Y91.367
X14.925 Y91.158
X15.133 Y90.997
X15.375 Y90.896
X15.636 Y90.861
X17.49 Y90.862
X17.638 Y90.878
X18.029 Y90.966
X18.318 Y91.047
X18.578 Y91.196
X18.8 Y91.398
X18.98 Y91.638
X19.124 Y91.901
X19.241 Y92.177
X19.279 Y92.294
X19.307 Y92.396
X19.324 Y92.501
X19.329 Y92.606
G3 X18.763 Y92.792 I-0.317 J-0.011 F1016.
G1 X18.756 Y92.783
X17.729 Y91.486 F1816.
X17.72 Y91.475 F1016.
G3 X18.029 Y90.966 I0.249 J-0.197
G1 X18.239 Y91.014 F1816.
X18.389 Y91.065
X18.492 Y91.114
X18.594 Y91.178
X18.689 Y91.252
X18.951 Y91.478
X18.989 Y91.521
X19.078 Y91.649
X19.144 Y91.778
X19.278 Y92.077
X19.289 Y92.111
X19.318 Y92.244
X19.329 Y92.377
Y92.677
X19.318 Y92.806
X19.289 Y92.935
X19.276 Y92.977
X19.141 Y93.277
X19.076 Y93.402
X18.989 Y93.527
X18.946 Y93.577
X18.689 Y93.796
X18.585 Y93.876
X18.487 Y93.937
X18.389 Y93.984
X18.09 Y94.068
X17.905 Y94.11
X17.857 Y94.115 F1016.
X17.12 Y94.143
X16.776 Y94.156 F1816.
X15.991 Y94.186 F1016.
X15.092 F1816.
X14.792 Y94.171
X14.514 Y94.06
X14.269 Y93.886
X14.062 Y93.669
X13.893 Y93.421
X13.762 Y93.151
X13.668 Y92.866
X13.611 Y92.572
X13.588 Y92.273
X13.597 Y91.973
X13.642 Y91.676
X13.664 Y91.596
X13.765 Y91.357
X13.924 Y91.151
X14.13 Y90.994
X14.371 Y90.895
X14.628 Y90.861
X15.636
G3 X15.936 Y91.241 I-0.011 J0.317 F1016.
G1 X15.89 Y91.471
X15.464 Y93.578 F1816.
X15.392 Y93.932 F1016.
G3 X15.092 Y94.186 I-0.311 J-0.063
G1 X14.492 Y94.185 F1816.
X14.192 Y94.174
X13.894 Y94.148
X13.616 Y94.033
X13.373 Y93.858
X13.165 Y93.642
X12.994 Y93.395
X12.857 Y93.128
X12.753 Y92.847
X12.682 Y92.555
X12.645 Y92.258
X12.643 Y91.958
X12.679 Y91.66
X12.691 Y91.613
X12.79 Y91.369
X12.948 Y91.159
X13.156 Y90.997
X13.399 Y90.896
X13.66 Y90.861
X14.628
G3 X14.931 Y91.228 I-0.011 J0.317 F1016.
G1 X14.892 Y91.473
X14.559 Y93.574 F1816.
X14.506 Y93.906 F1016.
G3 X14.192 Y94.174 I-0.314 J-0.05
G1 X13.893 Y94.163 F1816.
X13.354 Y94.162
X13.054 Y94.147
X12.771 Y94.046
X12.519 Y93.884
X12.301 Y93.678
X12.116 Y93.442
X11.965 Y93.183
X11.846 Y92.907
X11.761 Y92.62
X11.708 Y92.324
X11.693 Y92.025
X11.716 Y91.726
X11.732 Y91.651
X11.822 Y91.4
X11.976 Y91.182
X12.182 Y91.012
X12.425 Y90.902
X12.689 Y90.861
X13.66
G3 X13.965 Y91.215 I-0.011 J0.317 F1016.
G1 X13.935 Y91.475
X13.696 Y93.549 F1816.
X13.658 Y93.881 F1016.
G3 X13.354 Y94.162 I-0.315 J-0.036
G1 X12.394 F1816.
X12.094 Y94.147
X11.816 Y94.036
X11.567 Y93.868
X11.35 Y93.66
X11.167 Y93.423
X11.017 Y93.163
X10.899 Y92.887
X10.812 Y92.6
X10.761 Y92.304
X10.746 Y92.005
X10.761 Y91.836
X10.822 Y91.569
X10.954 Y91.328
X11.146 Y91.132
X11.384 Y90.996
X11.65 Y90.929
X11.794 Y90.914
X12.394 Y90.868
X12.689 Y90.861
G3 X13. Y91.215 I-0.004 J0.317 F1016.
G1 X12.971 Y91.468
X12.736 Y93.549 F1816.
X12.698 Y93.88 F1016.
G3 X12.394 Y94.162 I-0.315 J-0.036
G1 X12.094 F1816.
X11.944 Y94.155
X11.794 Y94.127
X11.494 Y94.056
X11.195 Y93.982
X11.08 Y93.938
X10.965 Y93.876
X10.895 Y93.828
X10.594 Y93.577
X10.524 Y93.502
X10.466 Y93.427
X10.378 Y93.277
X10.249 Y92.977
X10.202 Y92.827
X10.179 Y92.677
X10.187 Y92.377
X10.197 Y92.227
X10.225 Y92.077
X10.255 Y91.983
X10.295 Y91.888
X10.356 Y91.778
X10.542 Y91.478
X10.595 Y91.417
X10.67 Y91.345
X10.745 Y91.283
X10.903 Y91.178
X11.049 Y91.084
X11.195 Y91.015
X11.345 Y90.969
X11.494 Y90.946
X11.65 Y90.929
G3 X11.986 Y91.192 I0.023 J0.317 F1016.
G1 X11.991 Y91.246 Z-2.995
X11.977 Y91.301 Z-2.98
X11.964 Y91.352 Z-2.954
X11.952 Y91.397 Z-2.919
X11.925 Y91.432 Z-2.87
X11.904 Y91.459 Z-2.812
X11.892 Y91.475 Z-2.749
X11.887 Y91.48 Z-2.683
G0 Z5.
X31.987 Y13.564
Z2.5
G3 X34.17 Y11.483 Z2.335 I1.092 J-1.04 F1016.
X31.987 Y13.564 Z2.169 I-1.092 J1.04
X34.17 Y11.483 Z2.004 I1.092 J-1.04
X31.987 Y13.564 Z1.838 I-1.092 J1.04
X34.17 Y11.483 Z1.673 I1.092 J-1.04
X31.987 Y13.564 Z1.507 I-1.092 J1.04
X34.17 Y11.483 Z1.342 I1.092 J-1.04
X31.987 Y13.564 Z1.176 I-1.092 J1.04
X34.17 Y11.483 Z1.011 I1.092 J-1.04
X31.987 Y13.564 Z0.845 I-1.092 J1.04
X34.17 Y11.483 Z0.68 I1.092 J-1.04
X31.987 Y13.564 Z0.515 I-1.092 J1.04
X34.17 Y11.483 Z0.349 I1.092 J-1.04
X31.987 Y13.564 Z0.184 I-1.092 J1.04
X34.17 Y11.483 Z0.018 I1.092 J-1.04
X31.987 Y13.564 Z-0.147 I-1.092 J1.04
X34.17 Y11.483 Z-0.313 I1.092 J-1.04
X31.987 Y13.564 Z-0.478 I-1.092 J1.04
X34.17 Y11.483 Z-0.644 I1.092 J-1.04
X31.987 Y13.564 Z-0.809 I-1.092 J1.04
X34.17 Y11.483 Z-0.974 I1.092 J-1.04
X31.987 Y13.564 Z-1.14 I-1.092 J1.04
X34.17 Y11.483 Z-1.305 I1.092 J-1.04
X31.987 Y13.564 Z-1.471 I-1.092 J1.04
X34.17 Y11.483 Z-1.636 I1.092 J-1.04
X31.987 Y13.564 Z-1.802 I-1.092 J1.04
X34.17 Y11.483 Z-1.967 I1.092 J-1.04
X31.987 Y13.564 Z-2.133 I-1.092 J1.04
X34.17 Y11.483 Z-2.298 I1.092 J-1.04
X31.987 Y13.564 Z-2.464 I-1.092 J1.04
X34.17 Y11.483 Z-2.629 I1.092 J-1.04
X31.987 Y13.564 Z-2.794 I-1.092 J1.04
X34.17 Y11.483 Z-2.96 I1.092 J-1.04
X34.586 Y12.524 Z-3. I-1.092 J1.04
X31.57 I-1.508 J0.
X34.586 I1.508 J0.
G1 X34.634 Y13.423 F1816.
X34.6 Y13.637
X34.497 Y13.827
X34.337 Y13.972
X34.138 Y14.056
X33.678 Y14.162
X33.528 Y14.184
X33.378 Y14.186
X32.179
X31.879 Y14.171
X31.599 Y14.065
X31.35 Y13.898
X31.137 Y13.686
X30.965 Y13.441
X30.834 Y13.17
X30.746 Y12.884
X30.701 Y12.587
X30.697 Y12.287
X30.734 Y11.989
X30.81 Y11.699
X30.923 Y11.422
X30.954 Y11.367
X31.113 Y11.158
X31.321 Y10.997
X31.563 Y10.896
X31.824 Y10.861
X33.378
X33.528 Y10.864
X33.678 Y10.886
X34.277 Y11.025
X34.394 Y11.066
X34.511 Y11.124
X34.577 Y11.166
X34.742 Y11.297
X34.877 Y11.404
X34.898 Y11.423
X34.969 Y11.498
X35.028 Y11.573
X35.118 Y11.723
X35.177 Y11.846
X35.259 Y12.023
X35.305 Y12.173
X35.327 Y12.323
X35.329 Y12.623
X35.321 Y12.773
X35.293 Y12.923
X35.243 Y13.062
X35.167 Y13.222
X35.093 Y13.372
X35.047 Y13.447
X34.992 Y13.522
X34.877 Y13.643
X34.656 Y13.822
X34.577 Y13.882
X34.427 Y13.967
X34.277 Y14.023
X34.138 Y14.056
X34.097 Y14.061 F1016.
X33.354 Y14.109
X32.963 Y14.135 F1816.
X32.179 Y14.186 F1016.
X31.28 F1816.
X30.98 Y14.171
X30.702 Y14.06
X30.457 Y13.886
X30.25 Y13.669
X30.081 Y13.421
X29.95 Y13.151
X29.856 Y12.866
X29.799 Y12.572
X29.776 Y12.273
X29.785 Y11.973
X29.83 Y11.676
X29.852 Y11.596
X29.953 Y11.357
X30.112 Y11.151
X30.318 Y10.994
X30.559 Y10.895
X30.816 Y10.861
X31.824
G3 X32.124 Y11.241 I-0.011 J0.317 F1016.
G1 X32.077 Y11.471
X31.651 Y13.578 F1816.
X31.58 Y13.932 F1016.
G3 X31.28 Y14.186 I-0.311 J-0.063
G1 X30.98 F1816.
X30.68 Y14.18
X30.38 Y14.17
X30.081 Y14.148
X29.804 Y14.033
X29.56 Y13.858
X29.353 Y13.642
X29.182 Y13.395
X29.045 Y13.128
X28.941 Y12.847
X28.87 Y12.555
X28.833 Y12.258
X28.831 Y11.958
X28.867 Y11.66
X28.879 Y11.613
X28.978 Y11.369
X29.136 Y11.159
X29.344 Y10.997
X29.587 Y10.896
X29.848 Y10.861
X30.816
G3 X31.118 Y11.229 I-0.011 J0.317 F1016.
G1 X31.079 Y11.473
X30.744 Y13.567 F1816.
X30.69 Y13.903 F1016.
G3 X30.38 Y14.17 I-0.314 J-0.05
G1 X30.081 Y14.163 F1816.
X29.542 Y14.162
X29.242 Y14.146
X28.959 Y14.046
X28.707 Y13.884
X28.489 Y13.678
X28.304 Y13.441
X28.153 Y13.182
X28.034 Y12.907
X27.949 Y12.619
X27.896 Y12.324
X27.881 Y12.024
X27.904 Y11.725
X27.92 Y11.651
X28.011 Y11.399
X28.165 Y11.181
X28.371 Y11.011
X28.615 Y10.902
X28.879 Y10.861
X29.848
G3 X30.152 Y11.215 I-0.011 J0.317 F1016.
G1 X30.123 Y11.475
X29.885 Y13.55 F1816.
X29.847 Y13.881 F1016.
G3 X29.542 Y14.162 I-0.315 J-0.036
G1 X28.582 F1816.
X28.282 Y14.147
X28.003 Y14.036
X27.754 Y13.868
X27.538 Y13.66
X27.355 Y13.423
X27.205 Y13.163
X27.087 Y12.887
X27. Y12.6
X26.949 Y12.304
X26.934 Y12.005
X26.96 Y11.706
X26.965 Y11.686
X27.047 Y11.453
X27.185 Y11.247
X27.368 Y11.082
X27.587 Y10.966
X27.827 Y10.908
X27.982 Y10.89
X28.282 Y10.873
X28.879 Y10.861
G3 X29.189 Y11.215 I-0.005 J0.317 F1016.
G1 X29.161 Y11.469
X28.924 Y13.549 F1816.
X28.886 Y13.88 F1016.
G3 X28.582 Y14.162 I-0.315 J-0.036
G1 X28.282 F1816.
X27.982 Y14.159
X27.774 Y14.122
X27.383 Y14.029
X27.3 Y14.009
X27.233 Y13.993
X27.076 Y13.927
X27.019 Y13.901
X26.964 Y13.872
X26.911 Y13.839
G3 X27.08 Y13.263 I0.184 J-0.258 F1016.
G1 X27.134 Y13.265 F1816.
X27.188 Y13.277
X27.238 Y13.297
X27.439 Y13.398
X27.493 Y13.433
X27.539 Y13.477
G3 X27.233 Y13.993 I-0.243 J0.205 F1016.
G1 X27.083 Y13.939 F1816.
X26.984 Y13.887
X26.886 Y13.822
X26.783 Y13.738
X26.71 Y13.673
X26.497 Y13.462
X26.418 Y13.344
X26.395 Y13.304
X26.374 Y13.263
G3 X26.811 Y12.852 I0.29 J-0.13 F1016.
G1 X26.862 Y12.886 F1816.
X26.906 Y12.928
X27.156 Y13.224
X27.186 Y13.266
X27.209 Y13.313
X27.224 Y13.363
G3 X26.71 Y13.673 I-0.311 J0.066 F1016.
G1 X26.542 Y13.522 F1816.
X26.483 Y13.451
X26.41 Y13.337
X26.354 Y13.222
X26.228 Y12.923
X26.201 Y12.824
X26.184 Y12.726
X26.176 Y12.623
X26.184 Y12.439
X26.19 Y12.323
X26.205 Y12.173
X26.241 Y12.023
X26.303 Y11.873
X26.388 Y11.723
X26.483 Y11.561
X26.59 Y11.423
X26.686 Y11.329
X26.783 Y11.256
X26.985 Y11.124
X27.083 Y11.065
X27.233 Y11.
X27.383 Y10.961
X27.827 Y10.908
G3 X28.165 Y11.168 I0.025 J0.316 F1016.
G1 X28.17 Y11.224 Z-2.995
X28.156 Y11.279 Z-2.979
X28.143 Y11.33 Z-2.953
X28.131 Y11.376 Z-2.917
X28.105 Y11.41 Z-2.868
X28.085 Y11.436 Z-2.811
X28.072 Y11.452 Z-2.748
X28.068 Y11.457 Z-2.683
G0 Z5.
X31.987 Y61.564
Z2.5
G3 X34.17 Y59.483 Z2.335 I1.092 J-1.04 F1016.
X31.987 Y61.564 Z2.169 I-1.092 J1.04
X34.17 Y59.483 Z2.004 I1.092 J-1.04
X31.987 Y61.564 Z1.838 I-1.092 J1.04
X34.17 Y59.483 Z1.673 I1.092 J-1.04
X31.987 Y61.564 Z1.507 I-1.092 J1.04
X34.17 Y59.483 Z1.342 I1.092 J-1.04
X31.987 Y61.564 Z1.176 I-1.092 J1.04
X34.17 Y59.483 Z1.011 I1.092 J-1.04
X31.987 Y61.564 Z0.845 I-1.092 J1.04
X34.17 Y59.483 Z0.68 I1.092 J-1.04
X31.987 Y61.564 Z0.515 I-1.092 J1.04
X34.17 Y59.483 Z0.349 I1.092 J-1.04
X31.987 Y61.564 Z0.184 I-1.092 J1.04
X34.17 Y59.483 Z0.018 I1.092 J-1.04
X31.987 Y61.564 Z-0.147 I-1.092 J1.04
X34.17 Y59.483 Z-0.313 I1.092 J-1.04
X31.987 Y61.564 Z-0.478 I-1.092 J1.04
X34.17 Y59.483 Z-0.644 I1.092 J-1.04
X31.987 Y61.564 Z-0.809 I-1.092 J1.04
X34.17 Y59.483 Z-0.974 I1.092 J-1.04
X31.987 Y61.564 Z-1.14 I-1.092 J1.04
X34.17 Y59.483 Z-1.305 I1.092 J-1.04
X31.987 Y61.564 Z-1.471 I-1.092 J1.04
X34.17 Y59.483 Z-1.636 I1.092 J-1.04
X31.987 Y61.564 Z-1.802 I-1.092 J1.04
X34.17 Y59.483 Z-1.967 I1.092 J-1.04
X31.987 Y61.564 Z-2.133 I-1.092 J1.04
X34.17 Y59.483 Z-2.298 I1.092 J-1.04
X31.987 Y61.564 Z-2.464 I-1.092 J1.04
X34.17 Y59.483 Z-2.629 I1.092 J-1.04
X31.987 Y61.564 Z-2.794 I-1.092 J1.04
X34.17 Y59.483 Z-2.96 I1.092 J-1.04
X34.586 Y60.524 Z-3. I-1.092 J1.04
X31.57 I-1.508 J0.
X34.586 I1.508 J0.
G1 X34.634 Y61.423 F1816.
X34.6 Y61.636
X34.497 Y61.826
X34.338 Y61.971
X34.139 Y62.055
X33.678 Y62.162
X33.528 Y62.184
X33.378 Y62.186
X32.179
X31.879 Y62.171
X31.599 Y62.065
X31.35 Y61.898
X31.137 Y61.686
X30.965 Y61.441
X30.834 Y61.17
X30.746 Y60.884
X30.701 Y60.587
X30.697 Y60.287
X30.734 Y59.989
X30.81 Y59.699
X30.923 Y59.422
X30.954 Y59.367
X31.113 Y59.158
X31.321 Y58.997
X31.563 Y58.896
X31.824 Y58.861
X33.378
X33.528 Y58.864
X33.678 Y58.886
X34.277 Y59.024
X34.369 Y59.056
X34.46 Y59.096
X34.577 Y59.166
X34.877 Y59.404
X34.95 Y59.477
X35.011 Y59.55
X35.104 Y59.696
X35.248 Y59.996
X35.298 Y60.146
X35.324 Y60.296
X35.329 Y60.595
X35.325 Y60.745
X35.3 Y60.895
X35.25 Y61.045
X35.177 Y61.202
X35.105 Y61.348
X35.012 Y61.495
X34.952 Y61.569
X34.877 Y61.644
X34.69 Y61.795
X34.577 Y61.882
X34.427 Y61.967
X34.277 Y62.023
X34.139 Y62.055
X34.098 Y62.061 F1016.
X33.355 Y62.109
X32.963 Y62.135 F1816.
X32.179 Y62.186 F1016.
X31.28 F1816.
X30.98 Y62.171
X30.702 Y62.06
X30.457 Y61.886
X30.25 Y61.669
X30.081 Y61.421
X29.95 Y61.151
X29.856 Y60.866
X29.799 Y60.572
X29.776 Y60.273
X29.785 Y59.973
X29.83 Y59.676
X29.852 Y59.596
X29.953 Y59.357
X30.112 Y59.151
X30.318 Y58.994
X30.559 Y58.895
X30.816 Y58.861
X31.824
G3 X32.124 Y59.241 I-0.011 J0.317 F1016.
G1 X32.077 Y59.471
X31.651 Y61.578 F1816.
X31.58 Y61.932 F1016.
G3 X31.28 Y62.186 I-0.311 J-0.063
G1 X30.98 F1816.
X30.68 Y62.18
X30.38 Y62.17
X30.081 Y62.148
X29.804 Y62.033
X29.56 Y61.858
X29.353 Y61.642
X29.182 Y61.395
X29.045 Y61.128
X28.941 Y60.847
X28.87 Y60.555
X28.833 Y60.258
X28.831 Y59.958
X28.867 Y59.66
X28.879 Y59.613
X28.978 Y59.369
X29.136 Y59.159
X29.344 Y58.997
X29.587 Y58.896
X29.848 Y58.861
X30.816
G3 X31.118 Y59.229 I-0.011 J0.317 F1016.
G1 X31.079 Y59.473
X30.744 Y61.567 F1816.
X30.69 Y61.903 F1016.
G3 X30.38 Y62.17 I-0.314 J-0.05
G1 X30.081 Y62.163 F1816.
X29.542 Y62.162
X29.242 Y62.146
X28.959 Y62.046
X28.707 Y61.884
X28.489 Y61.678
X28.304 Y61.441
X28.153 Y61.182
X28.034 Y60.907
X27.949 Y60.619
X27.896 Y60.324
X27.881 Y60.024
X27.904 Y59.725
X27.92 Y59.651
X28.011 Y59.399
X28.165 Y59.181
X28.371 Y59.011
X28.615 Y58.902
X28.879 Y58.861
X29.848
G3 X30.152 Y59.215 I-0.011 J0.317 F1016.
G1 X30.123 Y59.475
X29.885 Y61.55 F1816.
X29.847 Y61.881 F1016.
G3 X29.542 Y62.162 I-0.315 J-0.036
G1 X28.582 F1816.
X28.282 Y62.147
X28.003 Y62.036
X27.754 Y61.868
X27.538 Y61.66
X27.355 Y61.423
X27.205 Y61.163
X27.087 Y60.887
X27. Y60.6
X26.949 Y60.304
X26.934 Y60.005
X26.96 Y59.706
X26.965 Y59.686
X27.047 Y59.453
X27.185 Y59.247
X27.368 Y59.082
X27.587 Y58.966
X27.827 Y58.908
X27.982 Y58.89
X28.282 Y58.873
X28.879 Y58.861
G3 X29.189 Y59.215 I-0.005 J0.317 F1016.
G1 X29.161 Y59.469
X28.924 Y61.549 F1816.
X28.886 Y61.88 F1016.
G3 X28.582 Y62.162 I-0.315 J-0.036
G1 X28.282 F1816.
X27.982 Y62.159
X27.659 Y62.095
X27.383 Y62.029
X27.3 Y62.009
X27.233 Y61.993
X27.084 Y61.93
X27.017 Y61.899
X26.953 Y61.864
X26.891 Y61.824
G3 X27.079 Y61.254 I0.193 J-0.252 F1016.
G1 X27.131 Y61.257 F1816.
X27.182 Y61.269
X27.231 Y61.29
X27.443 Y61.4
X27.495 Y61.434
X27.539 Y61.477
G3 X27.233 Y61.993 I-0.243 J0.205 F1016.
G1 X27.083 Y61.939 F1816.
X26.967 Y61.877
X26.851 Y61.795
X26.783 Y61.738
X26.739 Y61.697
X26.528 Y61.484
X26.438 Y61.358
X26.395 Y61.293
X26.358 Y61.225
X26.325 Y61.154
G3 X26.79 Y60.774 I0.298 J-0.11 F1016.
G1 X26.835 Y60.808 F1816.
X26.874 Y60.849
X27.195 Y61.26
X27.222 Y61.302
X27.243 Y61.346
X27.256 Y61.394
G3 X26.739 Y61.697 I-0.311 J0.062 F1016.
G1 X26.518 Y61.495 F1816.
X26.483 Y61.452
X26.401 Y61.323
X26.342 Y61.195
X26.22 Y60.895
X26.198 Y60.808
X26.184 Y60.721
X26.176 Y60.595
X26.192 Y60.296
X26.21 Y60.146
X26.25 Y59.996
X26.317 Y59.846
X26.483 Y59.561
X26.543 Y59.479
X26.616 Y59.396
X26.699 Y59.318
X26.783 Y59.256
X27.028 Y59.096
X27.083 Y59.065
X27.233 Y59.
X27.383 Y58.961
X27.827 Y58.908
G3 X28.165 Y59.168 I0.025 J0.316 F1016.
G1 X28.17 Y59.224 Z-2.995
X28.156 Y59.279 Z-2.979
X28.143 Y59.33 Z-2.953
X28.131 Y59.376 Z-2.917
X28.105 Y59.41 Z-2.868
X28.085 Y59.436 Z-2.811
X28.072 Y59.452 Z-2.748
X28.068 Y59.457 Z-2.683
G0 Z5.
X31.987 Y45.564
Z2.5
G3 X34.17 Y43.483 Z2.335 I1.092 J-1.04 F1016.
X31.987 Y45.564 Z2.169 I-1.092 J1.04
X34.17 Y43.483 Z2.004 I1.092 J-1.04
X31.987 Y45.564 Z1.838 I-1.092 J1.04
X34.17 Y43.483 Z1.673 I1.092 J-1.04
X31.987 Y45.564 Z1.507 I-1.092 J1.04
X34.17 Y43.483 Z1.342 I1.092 J-1.04
X31.987 Y45.564 Z1.176 I-1.092 J1.04
X34.17 Y43.483 Z1.011 I1.092 J-1.04
X31.987 Y45.564 Z0.845 I-1.092 J1.04
X34.17 Y43.483 Z0.68 I1.092 J-1.04
X31.987 Y45.564 Z0.515 I-1.092 J1.04
X34.17 Y43.483 Z0.349 I1.092 J-1.04
X31.987 Y45.564 Z0.184 I-1.092 J1.04
X34.17 Y43.483 Z0.018 I1.092 J-1.04
X31.987 Y45.564 Z-0.147 I-1.092 J1.04
X34.17 Y43.483 Z-0.313 I1.092 J-1.04
X31.987 Y45.564 Z-0.478 I-1.092 J1.04
X34.17 Y43.483 Z-0.644 I1.092 J-1.04
X31.987 Y45.564 Z-0.809 I-1.092 J1.04
X34.17 Y43.483 Z-0.974 I1.092 J-1.04
X31.987 Y45.564 Z-1.14 I-1.092 J1.04
X34.17 Y43.483 Z-1.305 I1.092 J-1.04
X31.987 Y45.564 Z-1.471 I-1.092 J1.04
X34.17 Y43.483 Z-1.636 I1.092 J-1.04
X31.987 Y45.564 Z-1.802 I-1.092 J1.04
X34.17 Y43.483 Z-1.967 I1.092 J-1.04
X31.987 Y45.564 Z-2.133 I-1.092 J1.04
X34.17 Y43.483 Z-2.298 I1.092 J-1.04
X31.987 Y45.564 Z-2.464 I-1.092 J1.04
X34.17 Y43.483 Z-2.629 I1.092 J-1.04
X31.987 Y45.564 Z-2.794 I-1.092 J1.04
X34.17 Y43.483 Z-2.96 I1.092 J-1.04
X34.586 Y44.524 Z-3. I-1.092 J1.04
X31.57 I-1.508 J0.
X34.586 I1.508 J0.
G1 X34.634 Y45.423 F1816.
X34.6 Y45.637
X34.497 Y45.827
X34.337 Y45.972
X34.138 Y46.056
X33.678 Y46.162
X33.528 Y46.184
X33.378 Y46.186
X32.179
X31.879 Y46.171
X31.599 Y46.065
X31.35 Y45.898
X31.137 Y45.686
X30.965 Y45.441
X30.834 Y45.17
X30.746 Y44.884
X30.701 Y44.587
X30.697 Y44.287
X30.734 Y43.989
X30.81 Y43.699
X30.923 Y43.422
X30.954 Y43.367
X31.113 Y43.158
X31.321 Y42.997
X31.563 Y42.896
X31.824 Y42.861
X33.378
X33.528 Y42.864
X33.678 Y42.886
X34.277 Y43.024
X34.427 Y43.081
X34.577 Y43.166
X34.631 Y43.205
X34.766 Y43.315
X34.877 Y43.405
X34.974 Y43.505
X35.033 Y43.58
X35.081 Y43.655
X35.177 Y43.846
X35.287 Y44.105
X35.32 Y44.255
X35.329 Y44.405
X35.328 Y44.704
X35.31 Y44.854
X35.267 Y45.004
X35.177 Y45.202
X35.127 Y45.304
X35.043 Y45.454
X34.986 Y45.529
X34.918 Y45.604
X34.877 Y45.643
X34.577 Y45.882
X34.544 Y45.904
X34.411 Y45.974
X34.277 Y46.023
X34.138 Y46.056
X34.097 Y46.061 F1016.
X33.354 Y46.109
X32.963 Y46.135 F1816.
X32.179 Y46.186 F1016.
X31.28 F1816.
X30.98 Y46.171
X30.702 Y46.06
X30.457 Y45.886
X30.25 Y45.669
X30.081 Y45.421
X29.95 Y45.151
X29.856 Y44.866
X29.799 Y44.572
X29.776 Y44.273
X29.785 Y43.973
X29.83 Y43.676
X29.852 Y43.596
X29.953 Y43.357
X30.112 Y43.151
X30.318 Y42.994
X30.559 Y42.895
X30.816 Y42.861
X31.824
G3 X32.124 Y43.241 I-0.011 J0.317 F1016.
G1 X32.077 Y43.471
X31.651 Y45.578 F1816.
X31.58 Y45.932 F1016.
G3 X31.28 Y46.186 I-0.311 J-0.063
G1 X30.98 F1816.
X30.68 Y46.18
X30.38 Y46.17
X30.081 Y46.148
X29.804 Y46.033
X29.56 Y45.858
X29.353 Y45.642
X29.182 Y45.395
X29.045 Y45.128
X28.941 Y44.847
X28.87 Y44.555
X28.833 Y44.258
X28.831 Y43.958
X28.867 Y43.66
X28.879 Y43.613
X28.978 Y43.369
X29.136 Y43.159
X29.344 Y42.997
X29.587 Y42.896
X29.848 Y42.861
X30.816
G3 X31.118 Y43.229 I-0.011 J0.317 F1016.
G1 X31.079 Y43.473
X30.744 Y45.567 F1816.
X30.69 Y45.903 F1016.
G3 X30.38 Y46.17 I-0.314 J-0.05
G1 X30.081 Y46.163 F1816.
X29.542 Y46.162
X29.242 Y46.146
X28.959 Y46.046
X28.707 Y45.884
X28.489 Y45.678
X28.304 Y45.441
X28.153 Y45.182
X28.034 Y44.907
X27.949 Y44.619
X27.896 Y44.324
X27.881 Y44.024
X27.904 Y43.725
X27.92 Y43.651
X28.011 Y43.399
X28.165 Y43.181
X28.371 Y43.011
X28.615 Y42.902
X28.879 Y42.861
X29.848
G3 X30.152 Y43.215 I-0.011 J0.317 F1016.
G1 X30.123 Y43.475
X29.885 Y45.55 F1816.
X29.847 Y45.881 F1016.
G3 X29.542 Y46.162 I-0.315 J-0.036
G1 X28.582 F1816.
X28.282 Y46.147
X28.003 Y46.036
X27.754 Y45.868
X27.538 Y45.66
X27.355 Y45.423
X27.205 Y45.163
X27.087 Y44.887
X27. Y44.6
X26.949 Y44.304
X26.934 Y44.005
X26.96 Y43.706
X26.965 Y43.686
X27.047 Y43.453
X27.185 Y43.247
X27.368 Y43.082
X27.587 Y42.966
X27.827 Y42.908
X27.982 Y42.89
X28.282 Y42.873
X28.879 Y42.861
G3 X29.189 Y43.215 I-0.005 J0.317 F1016.
G1 X29.161 Y43.469
X28.924 Y45.549 F1816.
X28.886 Y45.88 F1016.
G3 X28.582 Y46.162 I-0.315 J-0.036
G1 X28.282 F1816.
X27.982 Y46.159
X27.682 Y46.1
X27.383 Y46.029
X27.3 Y46.009
X27.233 Y45.993
X27.075 Y45.927
X27.026 Y45.904
X26.977 Y45.879
X26.93 Y45.851
G3 X27.085 Y45.272 I0.178 J-0.263 F1016.
G1 X27.142 Y45.273 F1816.
X27.197 Y45.284
X27.249 Y45.304
X27.437 Y45.397
X27.492 Y45.432
X27.539 Y45.477
G3 X27.233 Y45.993 I-0.243 J0.205 F1016.
G1 X27.083 Y45.939 F1816.
X27.013 Y45.904
X26.898 Y45.831
X26.835 Y45.78
X26.783 Y45.738
X26.564 Y45.533
X26.464 Y45.401
X26.419 Y45.337
X26.38 Y45.27
X26.346 Y45.199
G3 X26.8 Y44.807 I0.295 J-0.117 F1016.
G1 X26.846 Y44.84 F1816.
X26.885 Y44.879
X27.219 Y45.282
X27.257 Y45.34
X27.282 Y45.404
G3 X26.783 Y45.738 I-0.307 J0.08 F1016.
G1 X26.625 Y45.604 F1816.
X26.548 Y45.527
X26.483 Y45.45
X26.392 Y45.304
X26.26 Y45.004
X26.211 Y44.862
X26.184 Y44.72
X26.182 Y44.704
X26.184 Y44.439
X26.186 Y44.405
X26.218 Y44.105
X26.265 Y43.955
X26.34 Y43.805
X26.483 Y43.56
X26.521 Y43.505
X26.581 Y43.432
X26.652 Y43.36
X26.783 Y43.256
X26.861 Y43.205
X27.083 Y43.065
X27.233 Y43.
X27.383 Y42.961
X27.827 Y42.908
G3 X28.165 Y43.168 I0.025 J0.316 F1016.
G1 X28.17 Y43.224 Z-2.995
X28.156 Y43.279 Z-2.979
X28.143 Y43.33 Z-2.953
X28.131 Y43.376 Z-2.917
X28.105 Y43.41 Z-2.868
X28.085 Y43.436 Z-2.811
X28.072 Y43.452 Z-2.748
X28.068 Y43.457 Z-2.683
G0 Z5.
X31.987 Y93.564
Z2.5
G3 X34.17 Y91.483 Z2.335 I1.092 J-1.04 F1016.
X31.987 Y93.564 Z2.169 I-1.092 J1.04
X34.17 Y91.483 Z2.004 I1.092 J-1.04
X31.987 Y93.564 Z1.838 I-1.092 J1.04
X34.17 Y91.483 Z1.673 I1.092 J-1.04
X31.987 Y93.564 Z1.507 I-1.092 J1.04
X34.17 Y91.483 Z1.342 I1.092 J-1.04
X31.987 Y93.564 Z1.176 I-1.092 J1.04
X34.17 Y91.483 Z1.011 I1.092 J-1.04
X31.987 Y93.564 Z0.845 I-1.092 J1.04
X34.17 Y91.483 Z0.68 I1.092 J-1.04
X31.987 Y93.564 Z0.515 I-1.092 J1.04
X34.17 Y91.483 Z0.349 I1.092 J-1.04
X31.987 Y93.564 Z0.184 I-1.092 J1.04
X34.17 Y91.483 Z0.018 I1.092 J-1.04
X31.987 Y93.564 Z-0.147 I-1.092 J1.04
X34.17 Y91.483 Z-0.313 I1.092 J-1.04
X31.987 Y93.564 Z-0.478 I-1.092 J1.04
X34.17 Y91.483 Z-0.644 I1.092 J-1.04
X31.987 Y93.564 Z-0.809 I-1.092 J1.04
X34.17 Y91.483 Z-0.974 I1.092 J-1.04
X31.987 Y93.564 Z-1.14 I-1.092 J1.04
X34.17 Y91.483 Z-1.305 I1.092 J-1.04
X31.987 Y93.564 Z-1.471 I-1.092 J1.04
X34.17 Y91.483 Z-1.636 I1.092 J-1.04
X31.987 Y93.564 Z-1.802 I-1.092 J1.04
X34.17 Y91.483 Z-1.967 I1.092 J-1.04
X31.987 Y93.564 Z-2.133 I-1.092 J1.04
X34.17 Y91.483 Z-2.298 I1.092 J-1.04
X31.987 Y93.564 Z-2.464 I-1.092 J1.04
X34.17 Y91.483 Z-2.629 I1.092 J-1.04
X31.987 Y93.564 Z-2.794 I-1.092 J1.04
X34.17 Y91.483 Z-2.96 I1.092 J-1.04
X34.586 Y92.524 Z-3. I-1.092 J1.04
X31.57 I-1.508 J0.
X34.586 I1.508 J0.
G1 X34.634 Y93.423 F1816.
X34.6 Y93.636
X34.497 Y93.826
X34.338 Y93.971
X34.139 Y94.055
X33.678 Y94.162
X33.597 Y94.176
X33.378 Y94.186
X32.179
X31.879 Y94.171
X31.599 Y94.065
X31.35 Y93.898
X31.137 Y93.686
X30.965 Y93.441
X30.834 Y93.17
X30.746 Y92.884
X30.701 Y92.587
X30.697 Y92.287
X30.734 Y91.989
X30.81 Y91.699
X30.923 Y91.422
X30.954 Y91.367
X31.113 Y91.158
X31.321 Y90.997
X31.563 Y90.896
X31.824 Y90.861
X33.378
X33.509 Y90.863
X33.64 Y90.878
X33.978 Y90.954
X34.277 Y91.024
X34.427 Y91.08
X34.577 Y91.165
X34.595 Y91.178
X34.75 Y91.302
X34.877 Y91.403
X34.952 Y91.478
X35.014 Y91.553
X35.065 Y91.628
X35.144 Y91.778
X35.177 Y91.846
X35.278 Y92.077
X35.315 Y92.227
X35.329 Y92.377
Y92.677
X35.314 Y92.827
X35.276 Y92.977
X35.177 Y93.202
X35.141 Y93.277
X35.061 Y93.427
X35.009 Y93.502
X34.945 Y93.577
X34.877 Y93.643
X34.577 Y93.882
X34.427 Y93.967
X34.277 Y94.023
X34.139 Y94.055
X34.098 Y94.061 F1016.
X33.356 Y94.109
X32.963 Y94.135 F1816.
X32.179 Y94.186 F1016.
X31.28 F1816.
X30.98 Y94.171
X30.702 Y94.06
X30.457 Y93.886
X30.25 Y93.669
X30.081 Y93.421
X29.95 Y93.151
X29.856 Y92.866
X29.799 Y92.572
X29.776 Y92.273
X29.785 Y91.973
X29.83 Y91.676
X29.852 Y91.596
X29.953 Y91.357
X30.112 Y91.151
X30.318 Y90.994
X30.559 Y90.895
X30.816 Y90.861
X31.824
G3 X32.124 Y91.241 I-0.011 J0.317 F1016.
G1 X32.077 Y91.471
X31.651 Y93.578 F1816.
X31.58 Y93.932 F1016.
G3 X31.28 Y94.186 I-0.311 J-0.063
G1 X30.98 F1816.
X30.68 Y94.18
X30.38 Y94.17
X30.081 Y94.148
X29.804 Y94.033
X29.56 Y93.858
X29.353 Y93.642
X29.182 Y93.395
X29.045 Y93.128
X28.941 Y92.847
X28.87 Y92.555
X28.833 Y92.258
X28.831 Y91.958
X28.867 Y91.66
X28.879 Y91.613
X28.978 Y91.369
X29.136 Y91.159
X29.344 Y90.997
X29.587 Y90.896
X29.848 Y90.861
X30.816
G3 X31.118 Y91.229 I-0.011 J0.317 F1016.
G1 X31.079 Y91.473
X30.744 Y93.566 F1816.
X30.69 Y93.903 F1016.
G3 X30.38 Y94.17 I-0.314 J-0.05
G1 X30.081 Y94.163 F1816.
X29.542 Y94.162
X29.242 Y94.146
X28.959 Y94.046
X28.707 Y93.884
X28.489 Y93.678
X28.304 Y93.441
X28.153 Y93.182
X28.034 Y92.907
X27.949 Y92.619
X27.896 Y92.324
X27.881 Y92.024
X27.904 Y91.725
X27.92 Y91.651
X28.011 Y91.399
X28.165 Y91.181
X28.371 Y91.011
X28.615 Y90.902
X28.879 Y90.861
X29.848
G3 X30.152 Y91.215 I-0.011 J0.317 F1016.
G1 X30.123 Y91.475
X29.885 Y93.55 F1816.
X29.847 Y93.881 F1016.
G3 X29.542 Y94.162 I-0.315 J-0.036
G1 X28.582 F1816.
X28.282 Y94.147
X28.003 Y94.036
X27.754 Y93.868
X27.538 Y93.66
X27.355 Y93.423
X27.205 Y93.163
X27.087 Y92.887
X27. Y92.6
X26.949 Y92.304
X26.934 Y92.005
X26.96 Y91.706
X26.965 Y91.686
X27.047 Y91.453
X27.185 Y91.247
X27.368 Y91.082
X27.587 Y90.966
X27.827 Y90.908
X28.1 Y90.878
X28.879 Y90.861
G3 X29.189 Y91.215 I-0.005 J0.317 F1016.
G1 X29.161 Y91.469
X28.924 Y93.549 F1816.
X28.886 Y93.88 F1016.
G3 X28.582 Y94.162 I-0.315 J-0.036
G1 X28.282 F1816.
X27.982 Y94.159
X27.682 Y94.1
X27.383 Y94.029
X27.3 Y94.009
X27.233 Y93.993
X27.096 Y93.935
X27.02 Y93.9
X26.947 Y93.858
X26.878 Y93.81
G3 X27.084 Y93.246 I0.201 J-0.246 F1016.
G1 X27.134 Y93.251 F1816.
X27.184 Y93.264
X27.23 Y93.285
X27.448 Y93.403
X27.497 Y93.436
X27.539 Y93.477
G3 X27.233 Y93.993 I-0.243 J0.205 F1016.
G1 X27.083 Y93.939 F1816.
X26.966 Y93.876
X26.865 Y93.8
X26.82 Y93.766
X26.783 Y93.738
X26.565 Y93.532
X26.46 Y93.394
X26.414 Y93.328
X26.374 Y93.259
X26.339 Y93.186
G3 X26.795 Y92.797 I0.296 J-0.116 F1016.
G1 X26.842 Y92.83 F1816.
X26.881 Y92.87
X27.212 Y93.278
X27.247 Y93.33
X27.27 Y93.388
G3 X26.783 Y93.738 I-0.304 J0.09 F1016.
G1 X26.594 Y93.577 F1816.
X26.483 Y93.451
X26.425 Y93.364
X26.378 Y93.277
X26.249 Y92.977
X26.208 Y92.85
X26.184 Y92.723
X26.179 Y92.677
X26.184 Y92.439
X26.197 Y92.227
X26.225 Y92.077
X26.277 Y91.927
X26.356 Y91.778
X26.483 Y91.561
X26.544 Y91.478
X26.664 Y91.349
X26.783 Y91.256
X26.903 Y91.178
X27.083 Y91.065
X27.233 Y91.
X27.383 Y90.961
X27.827 Y90.908
G3 X28.165 Y91.168 I0.025 J0.316 F1016.
G1 X28.17 Y91.224 Z-2.995
X28.156 Y91.279 Z-2.979
X28.143 Y91.33 Z-2.953
X28.131 Y91.376 Z-2.917
X28.105 Y91.41 Z-2.868
X28.085 Y91.436 Z-2.811
X28.072 Y91.452 Z-2.748
X28.068 Y91.457 Z-2.683
G0 Z5.
X31.987 Y29.564
Z2.5
G3 X34.17 Y27.483 Z2.335 I1.092 J-1.04 F1016.
X31.987 Y29.564 Z2.169 I-1.092 J1.04
X34.17 Y27.483 Z2.004 I1.092 J-1.04
X31.987 Y29.564 Z1.838 I-1.092 J1.04
X34.17 Y27.483 Z1.673 I1.092 J-1.04
X31.987 Y29.564 Z1.507 I-1.092 J1.04
X34.17 Y27.483 Z1.342 I1.092 J-1.04
X31.987 Y29.564 Z1.176 I-1.092 J1.04
X34.17 Y27.483 Z1.011 I1.092 J-1.04
X31.987 Y29.564 Z0.845 I-1.092 J1.04
X34.17 Y27.483 Z0.68 I1.092 J-1.04
X31.987 Y29.564 Z0.515 I-1.092 J1.04
X34.17 Y27.483 Z0.349 I1.092 J-1.04
X31.987 Y29.564 Z0.184 I-1.092 J1.04
X34.17 Y27.483 Z0.018 I1.092 J-1.04
X31.987 Y29.564 Z-0.147 I-1.092 J1.04
X34.17 Y27.483 Z-0.313 I1.092 J-1.04
X31.987 Y29.564 Z-0.478 I-1.092 J1.04
X34.17 Y27.483 Z-0.644 I1.092 J-1.04
X31.987 Y29.564 Z-0.809 I-1.092 J1.04
X34.17 Y27.483 Z-0.974 I1.092 J-1.04
X31.987 Y29.564 Z-1.14 I-1.092 J1.04
X34.17 Y27.483 Z-1.305 I1.092 J-1.04
X31.987 Y29.564 Z-1.471 I-1.092 J1.04
X34.17 Y27.483 Z-1.636 I1.092 J-1.04
X31.987 Y29.564 Z-1.802 I-1.092 J1.04
X34.17 Y27.483 Z-1.967 I1.092 J-1.04
X31.987 Y29.564 Z-2.133 I-1.092 J1.04
X34.17 Y27.483 Z-2.298 I1.092 J-1.04
X31.987 Y29.564 Z-2.464 I-1.092 J1.04
X34.17 Y27.483 Z-2.629 I1.092 J-1.04
X31.987 Y29.564 Z-2.794 I-1.092 J1.04
X34.17 Y27.483 Z-2.96 I1.092 J-1.04
X34.586 Y28.524 Z-3. I-1.092 J1.04
X31.57 I-1.508 J0.
X34.586 I1.508 J0.
G1 X34.634 Y29.423 F1816.
X34.6 Y29.637
X34.497 Y29.827
X34.337 Y29.972
X34.138 Y30.056
X33.678 Y30.162
X33.528 Y30.184
X33.378 Y30.186
X32.179
X31.879 Y30.171
X31.599 Y30.065
X31.35 Y29.898
X31.137 Y29.686
X30.965 Y29.441
X30.834 Y29.17
X30.746 Y28.884
X30.701 Y28.587
X30.697 Y28.287
X30.734 Y27.989
X30.81 Y27.699
X30.923 Y27.422
X30.954 Y27.367
X31.113 Y27.158
X31.321 Y26.997
X31.563 Y26.896
X31.824 Y26.861
X33.378
X33.528 Y26.864
X33.678 Y26.886
X34.241 Y27.015
X34.277 Y27.024
X34.427 Y27.081
X34.577 Y27.166
X34.768 Y27.314
X34.877 Y27.404
X34.978 Y27.509
X35.056 Y27.614
X35.177 Y27.846
X35.21 Y27.914
X35.274 Y28.064
X35.314 Y28.214
X35.329 Y28.364
Y28.514
X35.317 Y28.814
X35.281 Y28.963
X35.219 Y29.113
X35.177 Y29.202
X35.069 Y29.413
X34.987 Y29.528
X34.877 Y29.643
X34.793 Y29.713
X34.577 Y29.882
X34.444 Y29.959
X34.31 Y30.013
X34.277 Y30.023
X34.138 Y30.056
X34.097 Y30.061 F1016.
X33.355 Y30.109
X32.963 Y30.135 F1816.
X32.179 Y30.186 F1016.
X31.28 F1816.
X30.98 Y30.171
X30.702 Y30.06
X30.457 Y29.886
X30.25 Y29.669
X30.081 Y29.421
X29.95 Y29.151
X29.856 Y28.866
X29.799 Y28.572
X29.776 Y28.273
X29.785 Y27.973
X29.83 Y27.676
X29.852 Y27.596
X29.953 Y27.357
X30.112 Y27.151
X30.318 Y26.994
X30.559 Y26.895
X30.816 Y26.861
X31.824
G3 X32.124 Y27.241 I-0.011 J0.317 F1016.
G1 X32.077 Y27.471
X31.651 Y29.578 F1816.
X31.58 Y29.932 F1016.
G3 X31.28 Y30.186 I-0.311 J-0.063
G1 X30.98 F1816.
X30.68 Y30.18
X30.38 Y30.17
X30.081 Y30.148
X29.804 Y30.033
X29.56 Y29.858
X29.353 Y29.642
X29.182 Y29.395
X29.045 Y29.128
X28.941 Y28.847
X28.87 Y28.555
X28.833 Y28.258
X28.831 Y27.958
X28.867 Y27.66
X28.879 Y27.613
X28.978 Y27.369
X29.136 Y27.159
X29.344 Y26.997
X29.587 Y26.896
X29.848 Y26.861
X30.816
G3 X31.118 Y27.229 I-0.011 J0.317 F1016.
G1 X31.079 Y27.473
X30.744 Y29.566 F1816.
X30.69 Y29.903 F1016.
G3 X30.38 Y30.17 I-0.314 J-0.05
G1 X30.081 Y30.163 F1816.
X29.542 Y30.162
X29.242 Y30.146
X28.959 Y30.046
X28.707 Y29.884
X28.489 Y29.678
X28.304 Y29.441
X28.153 Y29.182
X28.034 Y28.907
X27.949 Y28.619
X27.896 Y28.324
X27.881 Y28.024
X27.904 Y27.725
X27.92 Y27.651
X28.011 Y27.399
X28.165 Y27.181
X28.371 Y27.011
X28.615 Y26.902
X28.879 Y26.861
X29.848
G3 X30.152 Y27.215 I-0.011 J0.317 F1016.
G1 X30.123 Y27.475
X29.885 Y29.55 F1816.
X29.847 Y29.881 F1016.
G3 X29.542 Y30.162 I-0.315 J-0.036
G1 X28.582 F1816.
X28.282 Y30.147
X28.003 Y30.036
X27.754 Y29.868
X27.538 Y29.66
X27.355 Y29.423
X27.205 Y29.163
X27.087 Y28.887
X27. Y28.6
X26.949 Y28.304
X26.934 Y28.005
X26.96 Y27.706
X26.965 Y27.686
X27.047 Y27.453
X27.185 Y27.247
X27.368 Y27.082
X27.587 Y26.966
X27.827 Y26.908
X27.982 Y26.89
X28.282 Y26.873
X28.879 Y26.861
G3 X29.189 Y27.215 I-0.005 J0.317 F1016.
G1 X29.161 Y27.469
X28.924 Y29.549 F1816.
X28.886 Y29.88 F1016.
G3 X28.582 Y30.162 I-0.315 J-0.036
G1 X28.282 F1816.
X27.982 Y30.158
X27.682 Y30.1
X27.383 Y30.029
X27.315 Y30.013
X27.251 Y29.996
X27.149 Y29.963
X27.129 Y29.956
G3 X27.17 Y29.357 I0.124 J-0.292 F1016.
G1 X27.232 Y29.347 F1816.
X27.295 Y29.349
X27.356 Y29.363
X27.422 Y29.386
X27.476 Y29.41
X27.525 Y29.444
X27.566 Y29.486
G3 X27.251 Y29.996 I-0.246 J0.2 F1016.
G1 X27.199 Y29.983 F1816.
X27.083 Y29.938
X27. Y29.893
X26.933 Y29.856
X26.707 Y29.659
X26.502 Y29.439
X26.41 Y29.305
X26.375 Y29.251
X26.344 Y29.194
X26.317 Y29.136
G3 X26.773 Y28.747 I0.296 J-0.116 F1016.
G1 X26.817 Y28.778 F1816.
X26.856 Y28.816
X27.319 Y29.368
X27.344 Y29.402
X27.364 Y29.438
G3 X26.933 Y29.856 I-0.288 J0.134 F1016.
G1 X26.783 Y29.738 F1816.
X26.618 Y29.599
X26.544 Y29.525
X26.483 Y29.452
X26.456 Y29.413
X26.372 Y29.263
X26.244 Y28.963
X26.199 Y28.814
X26.184 Y28.723
X26.176 Y28.618
X26.179 Y28.514
X26.199 Y28.214
X26.228 Y28.064
X26.283 Y27.914
X26.451 Y27.614
X26.483 Y27.56
X26.577 Y27.437
X26.64 Y27.37
X26.704 Y27.314
X26.783 Y27.256
X27.083 Y27.065
X27.194 Y27.015
X27.288 Y26.983
X27.383 Y26.961
X27.827 Y26.908
G3 X28.165 Y27.168 I0.025 J0.316 F1016.
G1 X28.17 Y27.224 Z-2.995
X28.156 Y27.279 Z-2.979
X28.143 Y27.33 Z-2.953
X28.131 Y27.376 Z-2.917
X28.105 Y27.41 Z-2.868
X28.085 Y27.436 Z-2.811
X28.072 Y27.452 Z-2.748
X28.068 Y27.457 Z-2.683
G0 Z5.
X31.987 Y77.564
Z2.5
G3 X34.17 Y75.483 Z2.335 I1.092 J-1.04 F1016.
X31.987 Y77.564 Z2.169 I-1.092 J1.04
X34.17 Y75.483 Z2.004 I1.092 J-1.04
X31.987 Y77.564 Z1.838 I-1.092 J1.04
X34.17 Y75.483 Z1.673 I1.092 J-1.04
X31.987 Y77.564 Z1.507 I-1.092 J1.04
X34.17 Y75.483 Z1.342 I1.092 J-1.04
X31.987 Y77.564 Z1.176 I-1.092 J1.04
X34.17 Y75.483 Z1.011 I1.092 J-1.04
X31.987 Y77.564 Z0.845 I-1.092 J1.04
X34.17 Y75.483 Z0.68 I1.092 J-1.04
X31.987 Y77.564 Z0.515 I-1.092 J1.04
X34.17 Y75.483 Z0.349 I1.092 J-1.04
X31.987 Y77.564 Z0.184 I-1.092 J1.04
X34.17 Y75.483 Z0.018 I1.092 J-1.04
X31.987 Y77.564 Z-0.147 I-1.092 J1.04
X34.17 Y75.483 Z-0.313 I1.092 J-1.04
X31.987 Y77.564 Z-0.478 I-1.092 J1.04
X34.17 Y75.483 Z-0.644 I1.092 J-1.04
X31.987 Y77.564 Z-0.809 I-1.092 J1.04
X34.17 Y75.483 Z-0.974 I1.092 J-1.04
X31.987 Y77.564 Z-1.14 I-1.092 J1.04
X34.17 Y75.483 Z-1.305 I1.092 J-1.04
X31.987 Y77.564 Z-1.471 I-1.092 J1.04
X34.17 Y75.483 Z-1.636 I1.092 J-1.04
X31.987 Y77.564 Z-1.802 I-1.092 J1.04
X34.17 Y75.483 Z-1.967 I1.092 J-1.04
X31.987 Y77.564 Z-2.133 I-1.092 J1.04
X34.17 Y75.483 Z-2.298 I1.092 J-1.04
X31.987 Y77.564 Z-2.464 I-1.092 J1.04
X34.17 Y75.483 Z-2.629 I1.092 J-1.04
X31.987 Y77.564 Z-2.794 I-1.092 J1.04
X34.17 Y75.483 Z-2.96 I1.092 J-1.04
X34.586 Y76.524 Z-3. I-1.092 J1.04
X31.57 I-1.508 J0.
X34.586 I1.508 J0.
G1 X34.634 Y77.423 F1816.
X34.6 Y77.637
X34.497 Y77.827
X34.337 Y77.972
X34.138 Y78.056
X33.678 Y78.162
X33.528 Y78.184
X33.378 Y78.186
X32.179
X31.879 Y78.171
X31.599 Y78.065
X31.35 Y77.898
X31.137 Y77.686
X30.965 Y77.441
X30.834 Y77.17
X30.746 Y76.884
X30.701 Y76.587
X30.697 Y76.287
X30.734 Y75.989
X30.81 Y75.699
X30.923 Y75.422
X30.954 Y75.367
X31.113 Y75.158
X31.321 Y74.997
X31.563 Y74.896
X31.824 Y74.861
X33.378
X33.528 Y74.864
X33.678 Y74.886
X34.277 Y75.024
X34.427 Y75.08
X34.577 Y75.166
X34.733 Y75.287
X34.877 Y75.405
X34.966 Y75.496
X35.038 Y75.587
X35.177 Y75.846
X35.265 Y76.037
X35.308 Y76.186
X35.328 Y76.336
X35.329 Y76.486
X35.32 Y76.786
X35.288 Y76.936
X35.232 Y77.086
X35.177 Y77.202
X35.085 Y77.386
X34.998 Y77.514
X34.877 Y77.643
X34.827 Y77.686
X34.577 Y77.882
X34.481 Y77.94
X34.384 Y77.985
X34.277 Y78.023
X34.138 Y78.056
X34.097 Y78.061 F1016.
X33.354 Y78.109
X32.963 Y78.135 F1816.
X32.179 Y78.186 F1016.
X31.28 F1816.
X30.98 Y78.171
X30.702 Y78.06
X30.457 Y77.886
X30.25 Y77.669
X30.081 Y77.421
X29.95 Y77.151
X29.856 Y76.866
X29.799 Y76.572
X29.776 Y76.273
X29.785 Y75.973
X29.83 Y75.676
X29.852 Y75.596
X29.953 Y75.357
X30.112 Y75.151
X30.318 Y74.994
X30.559 Y74.895
X30.816 Y74.861
X31.824
G3 X32.124 Y75.241 I-0.011 J0.317 F1016.
G1 X32.077 Y75.471
X31.651 Y77.578 F1816.
X31.58 Y77.932 F1016.
G3 X31.28 Y78.186 I-0.311 J-0.063
G1 X30.98 F1816.
X30.68 Y78.18
X30.38 Y78.17
X30.081 Y78.148
X29.804 Y78.033
X29.56 Y77.858
X29.353 Y77.642
X29.182 Y77.395
X29.045 Y77.128
X28.941 Y76.847
X28.87 Y76.555
X28.833 Y76.258
X28.831 Y75.958
X28.867 Y75.66
X28.879 Y75.613
X28.978 Y75.369
X29.136 Y75.159
X29.344 Y74.997
X29.587 Y74.896
X29.848 Y74.861
X30.816
G3 X31.118 Y75.229 I-0.011 J0.317 F1016.
G1 X31.079 Y75.473
X30.744 Y77.566 F1816.
X30.69 Y77.903 F1016.
G3 X30.38 Y78.17 I-0.314 J-0.05
G1 X30.081 Y78.163 F1816.
X29.542 Y78.162
X29.242 Y78.146
X28.959 Y78.046
X28.707 Y77.884
X28.489 Y77.678
X28.304 Y77.441
X28.153 Y77.182
X28.034 Y76.907
X27.949 Y76.619
X27.896 Y76.324
X27.881 Y76.024
X27.904 Y75.725
X27.92 Y75.651
X28.011 Y75.399
X28.165 Y75.181
X28.371 Y75.011
X28.615 Y74.902
X28.879 Y74.861
X29.848
G3 X30.152 Y75.215 I-0.011 J0.317 F1016.
G1 X30.123 Y75.475
X29.885 Y77.55 F1816.
X29.847 Y77.881 F1016.
G3 X29.542 Y78.162 I-0.315 J-0.036
G1 X28.582 F1816.
X28.282 Y78.147
X28.003 Y78.036
X27.754 Y77.868
X27.538 Y77.66
X27.355 Y77.423
X27.205 Y77.163
X27.087 Y76.887
X27. Y76.6
X26.949 Y76.304
X26.934 Y76.005
X26.96 Y75.706
X26.965 Y75.686
X27.047 Y75.453
X27.185 Y75.247
X27.368 Y75.082
X27.587 Y74.966
X27.827 Y74.908
X27.982 Y74.89
X28.282 Y74.873
X28.879 Y74.861
G3 X29.189 Y75.215 I-0.005 J0.317 F1016.
G1 X29.161 Y75.469
X28.924 Y77.549 F1816.
X28.886 Y77.88 F1016.
G3 X28.582 Y78.162 I-0.315 J-0.036
G1 X28.282 F1816.
X27.982 Y78.159
X27.682 Y78.1
X27.383 Y78.029
X27.286 Y78.005
X27.207 Y77.985
X27.037 Y77.911
X26.98 Y77.882
G3 X27.104 Y77.295 I0.164 J-0.272 F1016.
G1 X27.166 Y77.293 F1816.
X27.228 Y77.304
X27.287 Y77.326
X27.416 Y77.391
X27.47 Y77.426
X27.517 Y77.472
G3 X27.207 Y77.985 I-0.244 J0.203 F1016.
G1 X27.083 Y77.939 F1816.
X26.933 Y77.856
X26.851 Y77.791
X26.783 Y77.738
X26.563 Y77.534
X26.476 Y77.419
X26.438 Y77.364
X26.403 Y77.306
X26.371 Y77.246
G3 X26.813 Y76.84 I0.291 J-0.126 F1016.
G1 X26.862 Y76.873 F1816.
X26.905 Y76.914
X27.212 Y77.276
X27.251 Y77.332
X27.276 Y77.396
G3 X26.783 Y77.738 I-0.306 J0.085 F1016.
G1 X26.602 Y77.583 F1816.
X26.483 Y77.451
X26.438 Y77.386
X26.295 Y77.086
X26.234 Y76.936
X26.195 Y76.786
X26.184 Y76.716
X26.176 Y76.601
X26.184 Y76.439
X26.203 Y76.186
X26.237 Y76.037
X26.297 Y75.887
X26.467 Y75.587
X26.483 Y75.561
X26.59 Y75.424
X26.665 Y75.349
X26.739 Y75.287
X26.783 Y75.256
X27.083 Y75.066
X27.178 Y75.021
X27.274 Y74.987
X27.383 Y74.961
X27.827 Y74.908
G3 X28.165 Y75.168 I0.025 J0.316 F1016.
G1 X28.17 Y75.224 Z-2.995
X28.156 Y75.279 Z-2.979
X28.143 Y75.33 Z-2.953
X28.131 Y75.376 Z-2.917
X28.105 Y75.41 Z-2.868
X28.085 Y75.436 Z-2.811
X28.072 Y75.452 Z-2.748
X28.068 Y75.457 Z-2.683
G0 Z5.
X47.875 Y13.564
Z2.5
G3 X50.058 Y11.483 Z2.335 I1.092 J-1.04 F1016.
X47.875 Y13.564 Z2.169 I-1.092 J1.04
X50.058 Y11.483 Z2.004 I1.092 J-1.04
X47.875 Y13.564 Z1.838 I-1.092 J1.04
X50.058 Y11.483 Z1.673 I1.092 J-1.04
X47.875 Y13.564 Z1.507 I-1.092 J1.04
X50.058 Y11.483 Z1.342 I1.092 J-1.04
X47.875 Y13.564 Z1.176 I-1.092 J1.04
X50.058 Y11.483 Z1.011 I1.092 J-1.04
X47.875 Y13.564 Z0.845 I-1.092 J1.04
X50.058 Y11.483 Z0.68 I1.092 J-1.04
X47.875 Y13.564 Z0.515 I-1.092 J1.04
X50.058 Y11.483 Z0.349 I1.092 J-1.04
X47.875 Y13.564 Z0.184 I-1.092 J1.04
X50.058 Y11.483 Z0.018 I1.092 J-1.04
X47.875 Y13.564 Z-0.147 I-1.092 J1.04
X50.058 Y11.483 Z-0.313 I1.092 J-1.04
X47.875 Y13.564 Z-0.478 I-1.092 J1.04
X50.058 Y11.483 Z-0.644 I1.092 J-1.04
X47.875 Y13.564 Z-0.809 I-1.092 J1.04
X50.058 Y11.483 Z-0.974 I1.092 J-1.04
X47.875 Y13.564 Z-1.14 I-1.092 J1.04
X50.058 Y11.483 Z-1.305 I1.092 J-1.04
X47.875 Y13.564 Z-1.471 I-1.092 J1.04
X50.058 Y11.483 Z-1.636 I1.092 J-1.04
X47.875 Y13.564 Z-1.802 I-1.092 J1.04
X50.058 Y11.483 Z-1.967 I1.092 J-1.04
X47.875 Y13.564 Z-2.133 I-1.092 J1.04
X50.058 Y11.483 Z-2.298 I1.092 J-1.04
X47.875 Y13.564 Z-2.464 I-1.092 J1.04
X50.058 Y11.483 Z-2.629 I1.092 J-1.04
X47.875 Y13.564 Z-2.794 I-1.092 J1.04
X50.058 Y11.483 Z-2.96 I1.092 J-1.04
X50.475 Y12.524 Z-3. I-1.092 J1.04
X47.458 I-1.508 J0.
X50.475 I1.508 J0.
G1 X50.522 Y13.423 F1816.
X50.499 Y13.605
X50.429 Y13.773
X50.316 Y13.916
X50.168 Y14.024
X49.997 Y14.089
X49.851 Y14.122
X49.566 Y14.18
X49.266 Y14.186
X48.067
X47.768 Y14.171
X47.487 Y14.065
X47.238 Y13.898
X47.025 Y13.686
X46.853 Y13.441
X46.722 Y13.17
X46.634 Y12.884
X46.589 Y12.587
X46.585 Y12.287
X46.622 Y11.989
X46.698 Y11.699
X46.812 Y11.422
X46.843 Y11.367
X47.001 Y11.158
X47.209 Y10.997
X47.451 Y10.896
X47.712 Y10.861
X49.266
X49.566 Y10.868
X49.866 Y10.929
X50.166 Y10.997
X50.248 Y11.019
X50.315 Y11.036
X50.45 Y11.101
X50.505 Y11.13
X50.558 Y11.162
X50.609 Y11.197
G3 X50.411 Y11.763 I-0.197 J0.249 F1016.
G1 X50.354 Y11.758 F1816.
X50.299 Y11.743
X50.248 Y11.718
X50.083 Y11.618
X50.039 Y11.586
X50.001 Y11.547
G3 X50.315 Y11.036 I0.246 J-0.201 F1016.
G1 X50.465 Y11.099 F1816.
X50.51 Y11.124
X50.641 Y11.22
X50.709 Y11.271
X50.765 Y11.312
X50.912 Y11.449
X50.96 Y11.496
X51.005 Y11.547
X51.046 Y11.6
G3 X50.682 Y12.078 I-0.265 J0.175 F1016.
G1 X50.635 Y12.058 F1816.
X50.592 Y12.031
X50.553 Y11.997
X50.358 Y11.795
X50.326 Y11.757
X50.301 Y11.714
X50.282 Y11.668
G3 X50.765 Y11.312 I0.303 J-0.094 F1016.
G1 X50.898 Y11.423 F1816.
X50.992 Y11.525
X51.065 Y11.627
X51.118 Y11.723
X51.259 Y12.023
X51.305 Y12.173
X51.327 Y12.323
X51.329 Y12.623
X51.323 Y12.773
X51.293 Y12.923
X51.239 Y13.072
X51.167 Y13.222
X51.065 Y13.421
X50.993 Y13.522
X50.879 Y13.641
X50.765 Y13.735
X50.656 Y13.822
X50.561 Y13.893
X50.465 Y13.948
X50.315 Y14.011
X50.166 Y14.05
X49.997 Y14.089
X49.953 Y14.094 F1016.
X49.213 Y14.13
X48.852 Y14.148 F1816.
X48.067 Y14.186 F1016.
X47.168 F1816.
X46.868 Y14.171
X46.59 Y14.06
X46.345 Y13.886
X46.138 Y13.669
X45.969 Y13.421
X45.838 Y13.151
X45.744 Y12.866
X45.687 Y12.572
X45.664 Y12.273
X45.673 Y11.973
X45.718 Y11.676
X45.74 Y11.596
X45.841 Y11.357
X46. Y11.151
X46.207 Y10.994
X46.447 Y10.895
X46.704 Y10.861
X47.712
G3 X48.012 Y11.241 I-0.011 J0.317 F1016.
G1 X47.966 Y11.471
X47.54 Y13.578 F1816.
X47.468 Y13.932 F1016.
G3 X47.168 Y14.186 I-0.311 J-0.063
G1 X46.568 F1816.
X46.268 Y14.178
X45.97 Y14.152
X45.693 Y14.037
X45.449 Y13.862
X45.242 Y13.645
X45.07 Y13.399
X44.934 Y13.132
X44.83 Y12.85
X44.758 Y12.559
X44.721 Y12.261
X44.718 Y11.961
X44.754 Y11.663
X44.767 Y11.615
X44.865 Y11.37
X45.024 Y11.159
X45.232 Y10.998
X45.475 Y10.896
X45.736 Y10.861
X46.704
G3 X47.007 Y11.228 I-0.011 J0.317 F1016.
G1 X46.968 Y11.473
X46.633 Y13.575 F1816.
X46.58 Y13.91 F1016.
G3 X46.268 Y14.178 I-0.314 J-0.05
G1 X45.969 Y14.167 F1816.
X45.669 Y14.162
X45.43
X45.13 Y14.147
X44.847 Y14.047
X44.595 Y13.885
X44.376 Y13.679
X44.192 Y13.443
X44.041 Y13.183
X43.922 Y12.908
X43.836 Y12.62
X43.784 Y12.325
X43.768 Y12.026
X43.791 Y11.726
X43.808 Y11.651
X43.9 Y11.396
X44.057 Y11.176
X44.268 Y11.005
X44.517 Y10.898
X44.785 Y10.861
X45.736
G3 X46.04 Y11.215 I-0.011 J0.317 F1016.
G1 X46.011 Y11.475
X45.772 Y13.549 F1816.
X45.734 Y13.881 F1016.
G3 X45.43 Y14.162 I-0.315 J-0.036
G1 X44.47 F1816.
X44.17 Y14.147
X43.891 Y14.036
X43.642 Y13.869
X43.426 Y13.661
X43.243 Y13.423
X43.093 Y13.164
X42.975 Y12.888
X42.888 Y12.601
X42.837 Y12.305
X42.822 Y12.005
X42.849 Y11.702
X42.933 Y11.466
X43.074 Y11.258
X43.261 Y11.092
X43.485 Y10.977
X43.729 Y10.922
X43.87 Y10.908
X44.17 Y10.883
X44.47 Y10.861
X44.785
G3 X45.089 Y11.216 I-0.011 J0.317 F1016.
G1 X45.059 Y11.474
X44.813 Y13.549 F1816.
X44.774 Y13.882 F1016.
G3 X44.47 Y14.162 I-0.315 J-0.037
G1 X44.02 Y14.161 F1816.
X43.87 Y14.143
X43.571 Y14.074
X43.271 Y14.002
X43.121 Y13.955
X42.971 Y13.88
X42.885 Y13.822
X42.671 Y13.644
X42.542 Y13.522
X42.443 Y13.392
X42.371 Y13.262
X42.228 Y12.923
X42.19 Y12.773
X42.176 Y12.623
X42.19 Y12.323
X42.205 Y12.173
X42.241 Y12.023
X42.296 Y11.887
X42.388 Y11.723
X42.475 Y11.573
X42.59 Y11.423
X42.671 Y11.342
X42.985 Y11.124
X43.128 Y11.043
X43.271 Y10.988
X43.421 Y10.955
X43.571 Y10.937
X43.729 Y10.922
G3 X44.062 Y11.189 I0.02 J0.317 F1016.
G1 X44.066 Y11.239 Z-2.996
X44.052 Y11.293 Z-2.981
X44.039 Y11.345 Z-2.956
X44.028 Y11.39 Z-2.922
X43.999 Y11.426 Z-2.872
X43.978 Y11.453 Z-2.814
X43.965 Y11.47 Z-2.75
X43.96 Y11.475 Z-2.683
G0 Z5.
X47.875 Y61.564
Z2.5
G3 X50.058 Y59.483 Z2.335 I1.092 J-1.04 F1016.
X47.875 Y61.564 Z2.169 I-1.092 J1.04
X50.058 Y59.483 Z2.004 I1.092 J-1.04
X47.875 Y61.564 Z1.838 I-1.092 J1.04
X50.058 Y59.483 Z1.673 I1.092 J-1.04
X47.875 Y61.564 Z1.507 I-1.092 J1.04
X50.058 Y59.483 Z1.342 I1.092 J-1.04
X47.875 Y61.564 Z1.176 I-1.092 J1.04
X50.058 Y59.483 Z1.011 I1.092 J-1.04
X47.875 Y61.564 Z0.845 I-1.092 J1.04
X50.058 Y59.483 Z0.68 I1.092 J-1.04
X47.875 Y61.564 Z0.515 I-1.092 J1.04
X50.058 Y59.483 Z0.349 I1.092 J-1.04
X47.875 Y61.564 Z0.184 I-1.092 J1.04
X50.058 Y59.483 Z0.018 I1.092 J-1.04
X47.875 Y61.564 Z-0.147 I-1.092 J1.04
X50.058 Y59.483 Z-0.313 I1.092 J-1.04
X47.875 Y61.564 Z-0.478 I-1.092 J1.04
X50.058 Y59.483 Z-0.644 I1.092 J-1.04
X47.875 Y61.564 Z-0.809 I-1.092 J1.04
X50.058 Y59.483 Z-0.974 I1.092 J-1.04
X47.875 Y61.564 Z-1.14 I-1.092 J1.04
X50.058 Y59.483 Z-1.305 I1.092 J-1.04
X47.875 Y61.564 Z-1.471 I-1.092 J1.04
X50.058 Y59.483 Z-1.636 I1.092 J-1.04
X47.875 Y61.564 Z-1.802 I-1.092 J1.04
X50.058 Y59.483 Z-1.967 I1.092 J-1.04
X47.875 Y61.564 Z-2.133 I-1.092 J1.04
X50.058 Y59.483 Z-2.298 I1.092 J-1.04
X47.875 Y61.564 Z-2.464 I-1.092 J1.04
X50.058 Y59.483 Z-2.629 I1.092 J-1.04
X47.875 Y61.564 Z-2.794 I-1.092 J1.04
X50.058 Y59.483 Z-2.96 I1.092 J-1.04
X50.475 Y60.524 Z-3. I-1.092 J1.04
X47.458 I-1.508 J0.
X50.475 I1.508 J0.
G1 X50.522 Y61.423 F1816.
X50.499 Y61.605
X50.429 Y61.773
X50.316 Y61.916
X50.168 Y62.024
X49.997 Y62.089
X49.866 Y62.119
X49.566 Y62.18
X49.266 Y62.186
X48.067
X47.768 Y62.171
X47.487 Y62.065
X47.238 Y61.898
X47.025 Y61.686
X46.853 Y61.441
X46.722 Y61.17
X46.634 Y60.884
X46.589 Y60.587
X46.585 Y60.287
X46.622 Y59.989
X46.698 Y59.699
X46.812 Y59.422
X46.843 Y59.367
X47.001 Y59.158
X47.209 Y58.997
X47.451 Y58.896
X47.712 Y58.861
X49.266
X49.566 Y58.868
X49.866 Y58.929
X50.166 Y58.997
X50.246 Y59.018
X50.312 Y59.035
X50.478 Y59.114
X50.525 Y59.138
X50.571 Y59.164
X50.615 Y59.193
G3 X50.436 Y59.766 I-0.189 J0.255 F1016.
G1 X50.378 Y59.762 F1816.
X50.323 Y59.748
X50.27 Y59.725
X50.088 Y59.622
X50.039 Y59.588
X49.998 Y59.546
G3 X50.312 Y59.035 I0.246 J-0.201 F1016.
G1 X50.465 Y59.099 F1816.
X50.54 Y59.142
X50.615 Y59.193
X50.661 Y59.229
X50.718 Y59.275
X50.943 Y59.473
X51.109 Y59.723
X51.243 Y59.991
X51.273 Y60.069
G3 X50.787 Y60.421 I-0.304 J0.092 F1016.
G1 X50.744 Y60.385 F1816.
X50.708 Y60.343
X50.269 Y59.712
X50.242 Y59.665
X50.223 Y59.614
G3 X50.718 Y59.275 I0.306 J-0.084 F1016.
G1 X50.868 Y59.396 F1816.
X50.981 Y59.511
X51.065 Y59.627
X51.104 Y59.696
X51.247 Y59.996
X51.299 Y60.146
X51.325 Y60.296
X51.329 Y60.595
X51.325 Y60.745
X51.3 Y60.895
X51.251 Y61.045
X51.18 Y61.195
X51.065 Y61.42
X51.014 Y61.495
X50.889 Y61.632
X50.765 Y61.735
X50.69 Y61.795
X50.578 Y61.881
X50.465 Y61.948
X50.315 Y62.011
X50.166 Y62.05
X49.997 Y62.089
X49.953 Y62.094 F1016.
X49.213 Y62.13
X48.852 Y62.148 F1816.
X48.067 Y62.186 F1016.
X47.168 F1816.
X46.868 Y62.171
X46.59 Y62.06
X46.345 Y61.886
X46.138 Y61.669
X45.969 Y61.421
X45.838 Y61.151
X45.744 Y60.866
X45.687 Y60.572
X45.664 Y60.273
X45.673 Y59.973
X45.718 Y59.676
X45.74 Y59.596
X45.841 Y59.357
X46. Y59.151
X46.207 Y58.994
X46.447 Y58.895
X46.704 Y58.861
X47.712
G3 X48.012 Y59.241 I-0.011 J0.317 F1016.
G1 X47.966 Y59.471
X47.54 Y61.578 F1816.
X47.468 Y61.932 F1016.
G3 X47.168 Y62.186 I-0.311 J-0.063
G1 X46.568 F1816.
X46.268 Y62.178
X45.97 Y62.152
X45.693 Y62.037
X45.449 Y61.862
X45.242 Y61.645
X45.07 Y61.399
X44.934 Y61.132
X44.83 Y60.85
X44.758 Y60.559
X44.721 Y60.261
X44.718 Y59.961
X44.754 Y59.663
X44.767 Y59.615
X44.865 Y59.37
X45.024 Y59.159
X45.232 Y58.998
X45.475 Y58.896
X45.736 Y58.861
X46.704
G3 X47.007 Y59.228 I-0.011 J0.317 F1016.
G1 X46.968 Y59.473
X46.633 Y61.575 F1816.
X46.58 Y61.91 F1016.
G3 X46.268 Y62.178 I-0.314 J-0.05
G1 X45.969 Y62.167 F1816.
X45.669 Y62.162
X45.43
X45.13 Y62.147
X44.847 Y62.047
X44.595 Y61.885
X44.376 Y61.679
X44.192 Y61.443
X44.041 Y61.183
X43.922 Y60.908
X43.836 Y60.62
X43.784 Y60.325
X43.768 Y60.026
X43.791 Y59.726
X43.808 Y59.651
X43.9 Y59.396
X44.057 Y59.176
X44.268 Y59.005
X44.517 Y58.898
X44.785 Y58.861
X45.736
G3 X46.04 Y59.215 I-0.011 J0.317 F1016.
G1 X46.011 Y59.475
X45.772 Y61.549 F1816.
X45.734 Y61.881 F1016.
G3 X45.43 Y62.162 I-0.315 J-0.036
G1 X44.47 F1816.
X44.17 Y62.147
X43.891 Y62.036
X43.642 Y61.869
X43.426 Y61.661
X43.243 Y61.423
X43.093 Y61.164
X42.975 Y60.888
X42.888 Y60.601
X42.837 Y60.305
X42.822 Y60.005
X42.849 Y59.702
X42.933 Y59.466
X43.074 Y59.258
X43.261 Y59.092
X43.485 Y58.977
X43.729 Y58.922
X43.87 Y58.908
X44.17 Y58.883
X44.47 Y58.861
X44.785
G3 X45.089 Y59.216 I-0.011 J0.317 F1016.
G1 X45.059 Y59.474
X44.813 Y61.549 F1816.
X44.774 Y61.882 F1016.
G3 X44.47 Y62.162 I-0.315 J-0.037
G1 X44.02 Y62.161 F1816.
X43.87 Y62.143
X43.271 Y62.002
X43.121 Y61.955
X42.971 Y61.88
X42.851 Y61.795
X42.671 Y61.644
X42.518 Y61.495
X42.433 Y61.379
X42.371 Y61.263
X42.342 Y61.195
X42.22 Y60.895
X42.187 Y60.745
X42.176 Y60.595
X42.192 Y60.296
X42.21 Y60.146
X42.25 Y59.996
X42.302 Y59.874
X42.403 Y59.696
X42.493 Y59.546
X42.548 Y59.471
X42.615 Y59.396
X42.671 Y59.342
X42.971 Y59.133
X43.028 Y59.096
X43.149 Y59.032
X43.271 Y58.988
X43.571 Y58.937
X43.729 Y58.922
G3 X44.062 Y59.189 I0.02 J0.317 F1016.
G1 X44.066 Y59.239 Z-2.996
X44.052 Y59.293 Z-2.981
X44.039 Y59.345 Z-2.956
X44.028 Y59.39 Z-2.922
X43.999 Y59.426 Z-2.872
X43.978 Y59.453 Z-2.814
X43.965 Y59.47 Z-2.75
X43.96 Y59.475 Z-2.683
G0 Z5.
X47.875 Y29.564
Z2.5
G3 X50.058 Y27.483 Z2.335 I1.092 J-1.04 F1016.
X47.875 Y29.564 Z2.169 I-1.092 J1.04
X50.058 Y27.483 Z2.004 I1.092 J-1.04
X47.875 Y29.564 Z1.838 I-1.092 J1.04
X50.058 Y27.483 Z1.673 I1.092 J-1.04
X47.875 Y29.564 Z1.507 I-1.092 J1.04
X50.058 Y27.483 Z1.342 I1.092 J-1.04
X47.875 Y29.564 Z1.176 I-1.092 J1.04
X50.058 Y27.483 Z1.011 I1.092 J-1.04
X47.875 Y29.564 Z0.845 I-1.092 J1.04
X50.058 Y27.483 Z0.68 I1.092 J-1.04
X47.875 Y29.564 Z0.515 I-1.092 J1.04
X50.058 Y27.483 Z0.349 I1.092 J-1.04
X47.875 Y29.564 Z0.184 I-1.092 J1.04
X50.058 Y27.483 Z0.018 I1.092 J-1.04
X47.875 Y29.564 Z-0.147 I-1.092 J1.04
X50.058 Y27.483 Z-0.313 I1.092 J-1.04
X47.875 Y29.564 Z-0.478 I-1.092 J1.04
X50.058 Y27.483 Z-0.644 I1.092 J-1.04
X47.875 Y29.564 Z-0.809 I-1.092 J1.04
X50.058 Y27.483 Z-0.974 I1.092 J-1.04
X47.875 Y29.564 Z-1.14 I-1.092 J1.04
X50.058 Y27.483 Z-1.305 I1.092 J-1.04
X47.875 Y29.564 Z-1.471 I-1.092 J1.04
X50.058 Y27.483 Z-1.636 I1.092 J-1.04
X47.875 Y29.564 Z-1.802 I-1.092 J1.04
X50.058 Y27.483 Z-1.967 I1.092 J-1.04
X47.875 Y29.564 Z-2.133 I-1.092 J1.04
X50.058 Y27.483 Z-2.298 I1.092 J-1.04
X47.875 Y29.564 Z-2.464 I-1.092 J1.04
X50.058 Y27.483 Z-2.629 I1.092 J-1.04
X47.875 Y29.564 Z-2.794 I-1.092 J1.04
X50.058 Y27.483 Z-2.96 I1.092 J-1.04
X50.475 Y28.524 Z-3. I-1.092 J1.04
X47.458 I-1.508 J0.
X50.475 I1.508 J0.
G1 X50.522 Y29.423 F1816.
X50.499 Y29.605
X50.429 Y29.773
X50.316 Y29.916
X50.168 Y30.024
X49.997 Y30.089
X49.866 Y30.119
X49.566 Y30.18
X49.266 Y30.186
X48.067
X47.768 Y30.171
X47.487 Y30.065
X47.238 Y29.898
X47.025 Y29.686
X46.853 Y29.441
X46.722 Y29.17
X46.634 Y28.884
X46.589 Y28.587
X46.585 Y28.287
X46.622 Y27.989
X46.698 Y27.699
X46.812 Y27.422
X46.843 Y27.367
X47.001 Y27.158
X47.209 Y26.997
X47.451 Y26.896
X47.712 Y26.861
X49.266
X49.566 Y26.868
X49.866 Y26.929
X50.166 Y26.997
X50.24 Y27.015
X50.302 Y27.034
X50.423 Y27.081
G3 X50.355 Y27.677 I-0.137 J0.286 F1016.
G1 X50.293 Y27.685 F1816.
X50.23 Y27.68
X50.169 Y27.663
X50.1 Y27.635
X50.046 Y27.608
X49.999 Y27.572
X49.96 Y27.527
G3 X50.302 Y27.034 I0.257 J-0.187 F1016.
G1 X50.353 Y27.05 F1816.
X50.465 Y27.1
X50.54 Y27.142
X50.615 Y27.193
X50.841 Y27.391
X51.028 Y27.626
X51.178 Y27.886
X51.237 Y28.019
X51.279 Y28.132
X51.307 Y28.249
X51.321 Y28.368
G3 X50.759 Y28.577 I-0.317 J0.007 F1016.
G1 X50.733 Y28.541 F1816.
X50.174 Y27.627
X50.145 Y27.566
G3 X50.615 Y27.193 I0.3 J-0.105 F1016.
G1 X50.768 Y27.314 F1816.
X50.939 Y27.464
X51.055 Y27.614
X51.065 Y27.629
X51.21 Y27.914
X51.274 Y28.064
X51.313 Y28.214
X51.329 Y28.514
X51.317 Y28.814
X51.28 Y28.963
X51.219 Y29.113
X51.065 Y29.42
X50.953 Y29.566
X50.793 Y29.713
X50.615 Y29.854
X50.54 Y29.906
X50.465 Y29.948
X50.31 Y30.013
X50.166 Y30.05
X49.997 Y30.089
X49.953 Y30.094 F1016.
X49.213 Y30.13
X48.852 Y30.148 F1816.
X48.067 Y30.186 F1016.
X47.168 F1816.
X46.868 Y30.171
X46.59 Y30.06
X46.345 Y29.886
X46.138 Y29.669
X45.969 Y29.421
X45.838 Y29.151
X45.744 Y28.866
X45.687 Y28.572
X45.664 Y28.273
X45.673 Y27.973
X45.718 Y27.676
X45.74 Y27.596
X45.841 Y27.357
X46. Y27.151
X46.207 Y26.994
X46.447 Y26.895
X46.704 Y26.861
X47.712
G3 X48.012 Y27.241 I-0.011 J0.317 F1016.
G1 X47.966 Y27.471
X47.54 Y29.578 F1816.
X47.468 Y29.932 F1016.
G3 X47.168 Y30.186 I-0.311 J-0.063
G1 X46.568 F1816.
X46.268 Y30.178
X45.97 Y30.152
X45.693 Y30.037
X45.449 Y29.862
X45.242 Y29.645
X45.07 Y29.399
X44.934 Y29.132
X44.83 Y28.85
X44.758 Y28.559
X44.721 Y28.261
X44.718 Y27.961
X44.754 Y27.663
X44.767 Y27.615
X44.865 Y27.37
X45.024 Y27.159
X45.232 Y26.998
X45.475 Y26.896
X45.736 Y26.861
X46.704
G3 X47.007 Y27.228 I-0.011 J0.317 F1016.
G1 X46.968 Y27.473
X46.633 Y29.575 F1816.
X46.58 Y29.91 F1016.
G3 X46.268 Y30.178 I-0.314 J-0.05
G1 X45.969 Y30.167 F1816.
X45.669 Y30.162
X45.43
X45.13 Y30.147
X44.847 Y30.047
X44.595 Y29.885
X44.376 Y29.679
X44.192 Y29.443
X44.041 Y29.183
X43.922 Y28.908
X43.836 Y28.62
X43.784 Y28.325
X43.768 Y28.026
X43.791 Y27.726
X43.808 Y27.651
X43.9 Y27.396
X44.057 Y27.176
X44.268 Y27.005
X44.517 Y26.898
X44.785 Y26.861
X45.736
G3 X46.04 Y27.215 I-0.011 J0.317 F1016.
G1 X46.011 Y27.475
X45.772 Y29.549 F1816.
X45.734 Y29.881 F1016.
G3 X45.43 Y30.162 I-0.315 J-0.036
G1 X44.47 F1816.
X44.17 Y30.147
X43.891 Y30.036
X43.642 Y29.869
X43.426 Y29.661
X43.243 Y29.423
X43.093 Y29.164
X42.975 Y28.888
X42.888 Y28.601
X42.837 Y28.305
X42.822 Y28.005
X42.849 Y27.702
X42.933 Y27.466
X43.074 Y27.258
X43.261 Y27.092
X43.485 Y26.977
X43.729 Y26.922
X43.87 Y26.908
X44.17 Y26.883
X44.47 Y26.861
X44.785
G3 X45.089 Y27.216 I-0.011 J0.317 F1016.
G1 X45.059 Y27.474
X44.813 Y29.549 F1816.
X44.774 Y29.882 F1016.
G3 X44.47 Y30.162 I-0.315 J-0.037
G1 X44.02 Y30.161 F1816.
X43.87 Y30.143
X43.271 Y30.002
X43.121 Y29.955
X42.971 Y29.88
X42.753 Y29.713
X42.671 Y29.644
X42.549 Y29.529
X42.458 Y29.413
X42.371 Y29.262
X42.244 Y28.963
X42.199 Y28.814
X42.178 Y28.664
X42.179 Y28.514
X42.199 Y28.214
X42.228 Y28.064
X42.283 Y27.914
X42.371 Y27.751
X42.451 Y27.614
X42.541 Y27.478
X42.6 Y27.41
X42.671 Y27.342
X42.705 Y27.314
X42.971 Y27.133
X43.083 Y27.065
X43.194 Y27.015
X43.271 Y26.989
X43.571 Y26.937
X43.729 Y26.922
G3 X44.062 Y27.189 I0.02 J0.317 F1016.
G1 X44.066 Y27.239 Z-2.996
X44.052 Y27.293 Z-2.981
X44.039 Y27.345 Z-2.956
X44.028 Y27.39 Z-2.922
X43.999 Y27.426 Z-2.872
X43.978 Y27.453 Z-2.814
X43.965 Y27.47 Z-2.75
X43.96 Y27.475 Z-2.683
G0 Z5.
X47.875 Y45.564
Z2.5
G3 X50.058 Y43.483 Z2.335 I1.092 J-1.04 F1016.
X47.875 Y45.564 Z2.169 I-1.092 J1.04
X50.058 Y43.483 Z2.004 I1.092 J-1.04
X47.875 Y45.564 Z1.838 I-1.092 J1.04
X50.058 Y43.483 Z1.673 I1.092 J-1.04
X47.875 Y45.564 Z1.507 I-1.092 J1.04
X50.058 Y43.483 Z1.342 I1.092 J-1.04
X47.875 Y45.564 Z1.176 I-1.092 J1.04
X50.058 Y43.483 Z1.011 I1.092 J-1.04
X47.875 Y45.564 Z0.845 I-1.092 J1.04
X50.058 Y43.483 Z0.68 I1.092 J-1.04
X47.875 Y45.564 Z0.515 I-1.092 J1.04
X50.058 Y43.483 Z0.349 I1.092 J-1.04
X47.875 Y45.564 Z0.184 I-1.092 J1.04
X50.058 Y43.483 Z0.018 I1.092 J-1.04
X47.875 Y45.564 Z-0.147 I-1.092 J1.04
X50.058 Y43.483 Z-0.313 I1.092 J-1.04
X47.875 Y45.564 Z-0.478 I-1.092 J1.04
X50.058 Y43.483 Z-0.644 I1.092 J-1.04
X47.875 Y45.564 Z-0.809 I-1.092 J1.04
X50.058 Y43.483 Z-0.974 I1.092 J-1.04
X47.875 Y45.564 Z-1.14 I-1.092 J1.04
X50.058 Y43.483 Z-1.305 I1.092 J-1.04
X47.875 Y45.564 Z-1.471 I-1.092 J1.04
X50.058 Y43.483 Z-1.636 I1.092 J-1.04
X47.875 Y45.564 Z-1.802 I-1.092 J1.04
X50.058 Y43.483 Z-1.967 I1.092 J-1.04
X47.875 Y45.564 Z-2.133 I-1.092 J1.04
X50.058 Y43.483 Z-2.298 I1.092 J-1.04
X47.875 Y45.564 Z-2.464 I-1.092 J1.04
X50.058 Y43.483 Z-2.629 I1.092 J-1.04
X47.875 Y45.564 Z-2.794 I-1.092 J1.04
X50.058 Y43.483 Z-2.96 I1.092 J-1.04
X50.475 Y44.524 Z-3. I-1.092 J1.04
X47.458 I-1.508 J0.
X50.475 I1.508 J0.
G1 X50.522 Y45.423 F1816.
X50.499 Y45.605
X50.429 Y45.773
X50.316 Y45.916
X50.168 Y46.024
X49.997 Y46.089
X49.866 Y46.119
X49.566 Y46.18
X49.266 Y46.186
X48.067
X47.768 Y46.171
X47.487 Y46.065
X47.238 Y45.898
X47.025 Y45.686
X46.853 Y45.441
X46.722 Y45.17
X46.634 Y44.884
X46.589 Y44.587
X46.585 Y44.287
X46.622 Y43.989
X46.698 Y43.699
X46.812 Y43.422
X46.843 Y43.367
X47.001 Y43.158
X47.209 Y42.997
X47.451 Y42.896
X47.712 Y42.861
X49.266
X49.566 Y42.868
X49.763 Y42.905
X50.166 Y42.997
X50.248 Y43.019
X50.315 Y43.036
X50.482 Y43.116
X50.531 Y43.142
X50.578 Y43.17
X50.624 Y43.201
G3 X50.438 Y43.771 I-0.192 J0.253 F1016.
G1 X50.381 Y43.767 F1816.
X50.325 Y43.752
X50.274 Y43.728
X50.088 Y43.621
X50.04 Y43.588
X50. Y43.547
G3 X50.315 Y43.036 I0.246 J-0.2 F1016.
G1 X50.465 Y43.1 F1816.
X50.548 Y43.147
X50.631 Y43.205
X50.705 Y43.264
X50.765 Y43.312
X50.948 Y43.478
X50.964 Y43.494
G3 X50.676 Y44.02 I-0.235 J0.213 F1016.
G1 X50.617 Y44.004 F1816.
X50.562 Y43.978
X50.514 Y43.941
X50.361 Y43.801
X50.321 Y43.757
X50.29 Y43.706
X50.27 Y43.65
G3 X50.765 Y43.312 I0.306 J-0.083 F1016.
G1 X50.87 Y43.397 F1816.
X50.974 Y43.505
X51.065 Y43.628
X51.157 Y43.805
X51.286 Y44.105
X51.32 Y44.255
X51.329 Y44.405
X51.328 Y44.704
X51.308 Y44.854
X51.267 Y45.004
X51.127 Y45.304
X51.065 Y45.418
X51. Y45.511
X50.919 Y45.604
X50.765 Y45.735
X50.544 Y45.904
X50.465 Y45.949
X50.315 Y46.012
X50.166 Y46.05
X49.997 Y46.089
X49.953 Y46.094 F1016.
X49.213 Y46.13
X48.852 Y46.148 F1816.
X48.067 Y46.186 F1016.
X47.168 F1816.
X46.868 Y46.171
X46.59 Y46.06
X46.345 Y45.886
X46.138 Y45.669
X45.969 Y45.421
X45.838 Y45.151
X45.744 Y44.866
X45.687 Y44.572
X45.664 Y44.273
X45.673 Y43.973
X45.718 Y43.676
X45.74 Y43.596
X45.841 Y43.357
X46. Y43.151
X46.207 Y42.994
X46.447 Y42.895
X46.704 Y42.861
X47.712
G3 X48.012 Y43.241 I-0.011 J0.317 F1016.
G1 X47.966 Y43.471
X47.54 Y45.578 F1816.
X47.468 Y45.932 F1016.
G3 X47.168 Y46.186 I-0.311 J-0.063
G1 X46.568 F1816.
X46.268 Y46.178
X45.97 Y46.152
X45.693 Y46.037
X45.449 Y45.862
X45.242 Y45.645
X45.07 Y45.399
X44.934 Y45.132
X44.83 Y44.85
X44.758 Y44.559
X44.721 Y44.261
X44.718 Y43.961
X44.754 Y43.663
X44.767 Y43.615
X44.865 Y43.37
X45.024 Y43.159
X45.232 Y42.998
X45.475 Y42.896
X45.736 Y42.861
X46.704
G3 X47.007 Y43.228 I-0.011 J0.317 F1016.
G1 X46.968 Y43.473
X46.633 Y45.575 F1816.
X46.58 Y45.91 F1016.
G3 X46.268 Y46.178 I-0.314 J-0.05
G1 X45.969 Y46.167 F1816.
X45.669 Y46.162
X45.43
X45.13 Y46.147
X44.847 Y46.047
X44.595 Y45.885
X44.376 Y45.679
X44.192 Y45.443
X44.041 Y45.183
X43.922 Y44.908
X43.836 Y44.62
X43.784 Y44.325
X43.768 Y44.026
X43.791 Y43.726
X43.808 Y43.651
X43.9 Y43.396
X44.057 Y43.176
X44.268 Y43.005
X44.517 Y42.898
X44.785 Y42.861
X45.736
G3 X46.04 Y43.215 I-0.011 J0.317 F1016.
G1 X46.011 Y43.475
X45.772 Y45.549 F1816.
X45.734 Y45.881 F1016.
G3 X45.43 Y46.162 I-0.315 J-0.036
G1 X44.47 F1816.
X44.17 Y46.147
X43.891 Y46.036
X43.642 Y45.869
X43.426 Y45.661
X43.243 Y45.423
X43.093 Y45.164
X42.975 Y44.888
X42.888 Y44.601
X42.837 Y44.305
X42.822 Y44.005
X42.849 Y43.702
X42.933 Y43.466
X43.074 Y43.258
X43.261 Y43.092
X43.485 Y42.977
X43.729 Y42.922
X43.903 Y42.905
X44.17 Y42.883
X44.47 Y42.861
X44.785
G3 X45.089 Y43.216 I-0.011 J0.317 F1016.
G1 X45.059 Y43.474
X44.813 Y45.549 F1816.
X44.774 Y45.882 F1016.
G3 X44.47 Y46.162 I-0.315 J-0.037
G1 X44.02 Y46.161 F1816.
X43.87 Y46.143
X43.271 Y46.002
X43.141 Y45.963
X43.011 Y45.904
X42.971 Y45.88
X42.671 Y45.644
X42.624 Y45.604
X42.548 Y45.529
X42.486 Y45.454
X42.392 Y45.304
X42.371 Y45.262
X42.26 Y45.004
X42.209 Y44.854
X42.182 Y44.704
X42.186 Y44.405
X42.218 Y44.105
X42.265 Y43.955
X42.34 Y43.805
X42.371 Y43.751
X42.521 Y43.505
X42.589 Y43.424
X42.671 Y43.342
X42.861 Y43.205
X42.971 Y43.133
X43.121 Y43.046
X43.271 Y42.988
X43.421 Y42.955
X43.571 Y42.937
X43.729 Y42.922
G3 X44.062 Y43.189 I0.02 J0.317 F1016.
G1 X44.066 Y43.239 Z-2.996
X44.052 Y43.293 Z-2.981
X44.039 Y43.345 Z-2.956
X44.028 Y43.39 Z-2.922
X43.999 Y43.426 Z-2.872
X43.978 Y43.453 Z-2.814
X43.965 Y43.47 Z-2.75
X43.96 Y43.475 Z-2.683
G0 Z5.
X47.875 Y77.564
Z2.5
G3 X50.058 Y75.483 Z2.335 I1.092 J-1.04 F1016.
X47.875 Y77.564 Z2.169 I-1.092 J1.04
X50.058 Y75.483 Z2.004 I1.092 J-1.04
X47.875 Y77.564 Z1.838 I-1.092 J1.04
X50.058 Y75.483 Z1.673 I1.092 J-1.04
X47.875 Y77.564 Z1.507 I-1.092 J1.04
X50.058 Y75.483 Z1.342 I1.092 J-1.04
X47.875 Y77.564 Z1.176 I-1.092 J1.04
X50.058 Y75.483 Z1.011 I1.092 J-1.04
X47.875 Y77.564 Z0.845 I-1.092 J1.04
X50.058 Y75.483 Z0.68 I1.092 J-1.04
X47.875 Y77.564 Z0.515 I-1.092 J1.04
X50.058 Y75.483 Z0.349 I1.092 J-1.04
X47.875 Y77.564 Z0.184 I-1.092 J1.04
X50.058 Y75.483 Z0.018 I1.092 J-1.04
X47.875 Y77.564 Z-0.147 I-1.092 J1.04
X50.058 Y75.483 Z-0.313 I1.092 J-1.04
X47.875 Y77.564 Z-0.478 I-1.092 J1.04
X50.058 Y75.483 Z-0.644 I1.092 J-1.04
X47.875 Y77.564 Z-0.809 I-1.092 J1.04
X50.058 Y75.483 Z-0.974 I1.092 J-1.04
X47.875 Y77.564 Z-1.14 I-1.092 J1.04
X50.058 Y75.483 Z-1.305 I1.092 J-1.04
X47.875 Y77.564 Z-1.471 I-1.092 J1.04
X50.058 Y75.483 Z-1.636 I1.092 J-1.04
X47.875 Y77.564 Z-1.802 I-1.092 J1.04
X50.058 Y75.483 Z-1.967 I1.092 J-1.04
X47.875 Y77.564 Z-2.133 I-1.092 J1.04
X50.058 Y75.483 Z-2.298 I1.092 J-1.04
X47.875 Y77.564 Z-2.464 I-1.092 J1.04
X50.058 Y75.483 Z-2.629 I1.092 J-1.04
X47.875 Y77.564 Z-2.794 I-1.092 J1.04
X50.058 Y75.483 Z-2.96 I1.092 J-1.04
X50.475 Y76.524 Z-3. I-1.092 J1.04
X47.458 I-1.508 J0.
X50.475 I1.508 J0.
G1 X50.522 Y77.423 F1816.
X50.499 Y77.605
X50.429 Y77.773
X50.316 Y77.916
X50.168 Y78.024
X49.997 Y78.089
X49.866 Y78.119
X49.566 Y78.18
X49.266 Y78.186
X48.067
X47.768 Y78.171
X47.487 Y78.065
X47.238 Y77.898
X47.025 Y77.686
X46.853 Y77.441
X46.722 Y77.17
X46.634 Y76.884
X46.589 Y76.587
X46.585 Y76.287
X46.622 Y75.989
X46.698 Y75.699
X46.812 Y75.422
X46.843 Y75.367
X47.001 Y75.158
X47.209 Y74.997
X47.451 Y74.896
X47.712 Y74.861
X49.266
X49.566 Y74.868
X49.866 Y74.929
X50.121 Y74.987
X50.166 Y74.997
X50.248 Y75.019
X50.365 Y75.058
X50.393 Y75.069
G3 X50.336 Y75.666 I-0.132 J0.289 F1016.
G1 X50.276 Y75.674 F1816.
X50.215 Y75.671
X50.156 Y75.657
X50.074 Y75.628
X50.021 Y75.604
X49.973 Y75.571
X49.932 Y75.529
G3 X50.248 Y75.019 I0.246 J-0.2 F1016.
G1 X50.315 Y75.036 F1816.
X50.398 Y75.071
X50.465 Y75.099
X50.539 Y75.144
X50.65 Y75.222
X50.667 Y75.235
G3 X50.451 Y75.795 I-0.205 J0.242 F1016.
G1 X50.39 Y75.786 F1816.
X50.331 Y75.767
X50.278 Y75.736
X50.198 Y75.679
X50.153 Y75.64
X50.116 Y75.593
X50.088 Y75.54
G3 X50.539 Y75.144 I0.294 J-0.12 F1016.
G1 X50.599 Y75.181 F1816.
X50.673 Y75.239
X50.733 Y75.287
X50.765 Y75.312
X50.962 Y75.501
X51.018 Y75.563
G3 X50.685 Y76.063 I-0.253 J0.192 F1016.
G1 X50.632 Y76.044 F1816.
X50.584 Y76.016
X50.541 Y75.98
X50.352 Y75.792
X50.316 Y75.75
X50.289 Y75.702
X50.27 Y75.65
G3 X50.765 Y75.312 I0.306 J-0.083 F1016.
G1 X50.925 Y75.45 F1816.
X51.037 Y75.587
X51.065 Y75.629
X51.196 Y75.887
X51.264 Y76.037
X51.308 Y76.186
X51.328 Y76.336
X51.329 Y76.486
X51.32 Y76.786
X51.289 Y76.936
X51.232 Y77.086
X51.085 Y77.386
X51.065 Y77.42
X50.966 Y77.553
X50.897 Y77.626
X50.827 Y77.686
X50.615 Y77.854
X50.54 Y77.905
X50.465 Y77.947
X50.383 Y77.985
X50.166 Y78.05
X49.997 Y78.089
X49.953 Y78.094 F1016.
X49.213 Y78.13
X48.852 Y78.148 F1816.
X48.067 Y78.186 F1016.
X47.168 F1816.
X46.868 Y78.171
X46.59 Y78.06
X46.345 Y77.886
X46.138 Y77.669
X45.969 Y77.421
X45.838 Y77.151
X45.744 Y76.866
X45.687 Y76.572
X45.664 Y76.273
X45.673 Y75.973
X45.718 Y75.676
X45.74 Y75.596
X45.841 Y75.357
X46. Y75.151
X46.207 Y74.994
X46.447 Y74.895
X46.704 Y74.861
X47.712
G3 X48.012 Y75.241 I-0.011 J0.317 F1016.
G1 X47.966 Y75.471
X47.54 Y77.578 F1816.
X47.468 Y77.932 F1016.
G3 X47.168 Y78.186 I-0.311 J-0.063
G1 X46.568 F1816.
X46.268 Y78.178
X45.97 Y78.152
X45.693 Y78.037
X45.449 Y77.862
X45.242 Y77.645
X45.07 Y77.399
X44.934 Y77.132
X44.83 Y76.85
X44.758 Y76.559
X44.721 Y76.261
X44.718 Y75.961
X44.754 Y75.663
X44.767 Y75.615
X44.865 Y75.37
X45.024 Y75.159
X45.232 Y74.998
X45.475 Y74.896
X45.736 Y74.861
X46.704
G3 X47.007 Y75.228 I-0.011 J0.317 F1016.
G1 X46.968 Y75.473
X46.633 Y77.575 F1816.
X46.58 Y77.91 F1016.
G3 X46.268 Y78.178 I-0.314 J-0.05
G1 X45.969 Y78.167 F1816.
X45.669 Y78.162
X45.43
X45.13 Y78.147
X44.847 Y78.047
X44.595 Y77.885
X44.376 Y77.679
X44.192 Y77.443
X44.041 Y77.183
X43.922 Y76.908
X43.836 Y76.62
X43.784 Y76.325
X43.768 Y76.026
X43.791 Y75.726
X43.808 Y75.651
X43.9 Y75.396
X44.057 Y75.176
X44.268 Y75.005
X44.517 Y74.898
X44.785 Y74.861
X45.736
G3 X46.04 Y75.215 I-0.011 J0.317 F1016.
G1 X46.011 Y75.475
X45.772 Y77.549 F1816.
X45.734 Y77.881 F1016.
G3 X45.43 Y78.162 I-0.315 J-0.036
G1 X44.47 F1816.
X44.17 Y78.147
X43.891 Y78.036
X43.642 Y77.869
X43.426 Y77.661
X43.243 Y77.423
X43.093 Y77.164
X42.975 Y76.888
X42.888 Y76.601
X42.837 Y76.305
X42.822 Y76.005
X42.849 Y75.702
X42.933 Y75.466
X43.074 Y75.258
X43.261 Y75.092
X43.485 Y74.977
X43.729 Y74.922
X43.87 Y74.908
X44.17 Y74.883
X44.47 Y74.861
X44.785
G3 X45.089 Y75.216 I-0.011 J0.317 F1016.
G1 X45.059 Y75.474
X44.813 Y77.549 F1816.
X44.774 Y77.882 F1016.
G3 X44.47 Y78.162 I-0.315 J-0.037
G1 X44.02 Y78.161 F1816.
X43.87 Y78.143
X43.271 Y78.002
X43.206 Y77.985
X43.089 Y77.942
X42.971 Y77.88
X42.721 Y77.686
X42.671 Y77.644
X42.537 Y77.515
X42.439 Y77.386
X42.371 Y77.262
X42.295 Y77.086
X42.233 Y76.936
X42.193 Y76.786
X42.176 Y76.636
X42.181 Y76.486
X42.203 Y76.186
X42.237 Y76.037
X42.296 Y75.887
X42.371 Y75.751
X42.467 Y75.587
X42.554 Y75.465
X42.671 Y75.344
X42.74 Y75.287
X42.971 Y75.133
X43.121 Y75.046
X43.272 Y74.987
X43.421 Y74.955
X43.571 Y74.937
X43.729 Y74.922
G3 X44.062 Y75.189 I0.02 J0.317 F1016.
G1 X44.066 Y75.239 Z-2.996
X44.052 Y75.293 Z-2.981
X44.039 Y75.345 Z-2.956
X44.028 Y75.39 Z-2.922
X43.999 Y75.426 Z-2.872
X43.978 Y75.453 Z-2.814
X43.965 Y75.47 Z-2.75
X43.96 Y75.475 Z-2.683
G0 Z5.
X47.875 Y93.564
Z2.5
G3 X50.058 Y91.483 Z2.335 I1.092 J-1.04 F1016.
X47.875 Y93.564 Z2.169 I-1.092 J1.04
X50.058 Y91.483 Z2.004 I1.092 J-1.04
X47.875 Y93.564 Z1.838 I-1.092 J1.04
X50.058 Y91.483 Z1.673 I1.092 J-1.04
X47.875 Y93.564 Z1.507 I-1.092 J1.04
X50.058 Y91.483 Z1.342 I1.092 J-1.04
X47.875 Y93.564 Z1.176 I-1.092 J1.04
X50.058 Y91.483 Z1.011 I1.092 J-1.04
X47.875 Y93.564 Z0.845 I-1.092 J1.04
X50.058 Y91.483 Z0.68 I1.092 J-1.04
X47.875 Y93.564 Z0.515 I-1.092 J1.04
X50.058 Y91.483 Z0.349 I1.092 J-1.04
X47.875 Y93.564 Z0.184 I-1.092 J1.04
X50.058 Y91.483 Z0.018 I1.092 J-1.04
X47.875 Y93.564 Z-0.147 I-1.092 J1.04
X50.058 Y91.483 Z-0.313 I1.092 J-1.04
X47.875 Y93.564 Z-0.478 I-1.092 J1.04
X50.058 Y91.483 Z-0.644 I1.092 J-1.04
X47.875 Y93.564 Z-0.809 I-1.092 J1.04
X50.058 Y91.483 Z-0.974 I1.092 J-1.04
X47.875 Y93.564 Z-1.14 I-1.092 J1.04
X50.058 Y91.483 Z-1.305 I1.092 J-1.04
X47.875 Y93.564 Z-1.471 I-1.092 J1.04
X50.058 Y91.483 Z-1.636 I1.092 J-1.04
X47.875 Y93.564 Z-1.802 I-1.092 J1.04
X50.058 Y91.483 Z-1.967 I1.092 J-1.04
X47.875 Y93.564 Z-2.133 I-1.092 J1.04
X50.058 Y91.483 Z-2.298 I1.092 J-1.04
X47.875 Y93.564 Z-2.464 I-1.092 J1.04
X50.058 Y91.483 Z-2.629 I1.092 J-1.04
X47.875 Y93.564 Z-2.794 I-1.092 J1.04
X50.058 Y91.483 Z-2.96 I1.092 J-1.04
X50.475 Y92.524 Z-3. I-1.092 J1.04
X47.458 I-1.508 J0.
X50.475 I1.508 J0.
G1 X50.522 Y93.423 F1816.
X50.499 Y93.605
X50.429 Y93.773
X50.316 Y93.916
X50.168 Y94.024
X49.997 Y94.089
X49.866 Y94.119
X49.596 Y94.176
X49.566 Y94.18
X49.266 Y94.186
X48.067
X47.768 Y94.171
X47.487 Y94.065
X47.238 Y93.898
X47.025 Y93.686
X46.853 Y93.441
X46.722 Y93.17
X46.634 Y92.884
X46.589 Y92.587
X46.585 Y92.287
X46.622 Y91.989
X46.698 Y91.699
X46.812 Y91.422
X46.843 Y91.367
X47.001 Y91.158
X47.209 Y90.997
X47.451 Y90.896
X47.712 Y90.861
X49.266
X49.566 Y90.868
X49.639 Y90.878
X50.166 Y90.997
X50.248 Y91.018
X50.315 Y91.036
X50.514 Y91.131
X50.576 Y91.166
G3 X50.425 Y91.747 I-0.176 J0.264 F1016.
G1 X50.363 Y91.746 F1816.
X50.302 Y91.733
X50.245 Y91.708
X50.093 Y91.623
X50.044 Y91.589
X50.002 Y91.547
G3 X50.315 Y91.036 I0.245 J-0.201 F1016.
G1 X50.465 Y91.098 F1816.
X50.594 Y91.178
X50.646 Y91.219
X50.712 Y91.27
X50.938 Y91.467
X51.105 Y91.716
X51.222 Y91.953
G3 X50.771 Y92.348 I-0.294 J0.12 F1016.
G1 X50.718 Y92.31 F1816.
X50.673 Y92.261
X50.269 Y91.715
X50.239 Y91.666
X50.218 Y91.611
G3 X50.712 Y91.27 I0.306 J-0.085 F1016.
G1 X50.765 Y91.312 F1816.
X50.951 Y91.478
X51.065 Y91.629
X51.144 Y91.778
X51.278 Y92.077
X51.315 Y92.227
X51.329 Y92.377
Y92.677
X51.314 Y92.827
X51.276 Y92.977
X51.141 Y93.277
X51.065 Y93.42
X51.012 Y93.498
X50.946 Y93.577
X50.765 Y93.735
X50.584 Y93.876
X50.465 Y93.948
X50.315 Y94.012
X50.166 Y94.05
X49.997 Y94.089
X49.953 Y94.094 F1016.
X49.213 Y94.13
X48.852 Y94.148 F1816.
X48.067 Y94.186 F1016.
X47.168 F1816.
X46.868 Y94.171
X46.59 Y94.06
X46.345 Y93.886
X46.138 Y93.669
X45.969 Y93.421
X45.838 Y93.151
X45.744 Y92.866
X45.687 Y92.572
X45.664 Y92.273
X45.673 Y91.973
X45.718 Y91.676
X45.74 Y91.596
X45.841 Y91.357
X46. Y91.151
X46.207 Y90.994
X46.447 Y90.895
X46.704 Y90.861
X47.712
G3 X48.012 Y91.241 I-0.011 J0.317 F1016.
G1 X47.966 Y91.471
X47.54 Y93.578 F1816.
X47.468 Y93.932 F1016.
G3 X47.168 Y94.186 I-0.311 J-0.063
G1 X46.568 F1816.
X46.268 Y94.178
X45.97 Y94.152
X45.693 Y94.037
X45.449 Y93.862
X45.242 Y93.645
X45.07 Y93.399
X44.934 Y93.132
X44.83 Y92.85
X44.758 Y92.559
X44.721 Y92.261
X44.718 Y91.961
X44.754 Y91.663
X44.767 Y91.615
X44.865 Y91.37
X45.024 Y91.159
X45.232 Y90.998
X45.475 Y90.896
X45.736 Y90.861
X46.704
