(1003)
(FACE MDF )
(T1  D=3.175 CR=0. - ZMIN=-8. - FLAT END MILL)
G0 G90 G94 G17
G21
G53 G0 Z0.

(HORIZONTAL1)
M5
M9
T1
S16500 M3
G4 P4.
G55
G0 X72.225 Y52.807
Z15.
Z1.367
G1 X72.214 Y52.817 Z1.271 F1016.
X72.182 Y52.846 Z1.184
X72.131 Y52.889 Z1.114
X72.062 Y52.941 Z1.068
X71.983 Y52.994 Z1.05
G3 X70.389 Y50.433 Z0.885 I-0.797 J-1.28
X71.983 Y52.994 Z0.719 I0.797 J1.28
X70.389 Y50.433 Z0.554 I-0.797 J-1.28
X71.983 Y52.994 Z0.388 I0.797 J1.28
X70.389 Y50.433 Z0.223 I-0.797 J-1.28
X71.983 Y52.994 Z0.057 I0.797 J1.28
X70.422 Y53.014 Z0. I-0.797 J-1.28
G1 X70.368 Y52.982 F1816.
G3 X70.363 Y52.074 I0.268 J-0.456
G1 X70.485 Y52.
G3 X71.029 Y51.998 I0.274 J0.452
G1 X71.066 Y52.019
G3 X71.081 Y52.96 I-0.279 J0.475
G1 X70.998 Y53.013
G3 X70.442 Y53.026 I-0.288 J-0.443
G1 X70.422 Y53.014
G3 X70.309 Y52.579 I0.161 J-0.274 F1016.
G1 X70.345 Y52.518 Z0.008
X70.379 Y52.46 Z0.031
X70.41 Y52.409 Z0.069
X70.435 Y52.365 Z0.12
X70.454 Y52.333 Z0.18
X70.466 Y52.312 Z0.247
X70.47 Y52.306 Z0.317
G0 Z5.
X69.727 Y69.707
Z1.367
G1 X69.723 Y69.693 Z1.271 F1016.
X69.713 Y69.651 Z1.184
X69.701 Y69.585 Z1.114
X69.689 Y69.5 Z1.068
X69.682 Y69.405 Z1.05
G3 X72.695 Y69.269 Z0.885 I1.507 J-0.068
X69.682 Y69.405 Z0.719 I-1.507 J0.068
X72.695 Y69.269 Z0.554 I1.507 J-0.068
X69.682 Y69.405 Z0.388 I-1.507 J0.068
X72.695 Y69.269 Z0.223 I1.507 J-0.068
X69.682 Y69.405 Z0.057 I-1.507 J0.068
X70.429 Y68.034 Z0. I1.507 J-0.068
G1 X70.492 Y67.998 F1816.
G3 X71.034 Y68.001 I0.268 J0.456
G1 X71.066 Y68.021
G3 X71.077 Y68.963 I-0.284 J0.474
G1 X71.002 Y69.01
G3 X70.444 Y69.02 I-0.287 J-0.443
G1 X70.374 Y68.98
G3 Y68.066 I0.266 J-0.457
G1 X70.429 Y68.034
G3 X70.863 Y68.148 I0.16 J0.274 F1016.
G1 X70.899 Y68.21 Z0.008
X70.932 Y68.267 Z0.031
X70.963 Y68.319 Z0.069
X70.988 Y68.363 Z0.12
X71.007 Y68.396 Z0.18
X71.019 Y68.416 Z0.247
X71.023 Y68.423 Z0.317
G0 Z5.
X53.722 Y69.704
Z1.367
G1 X53.719 Y69.689 Z1.271 F1016.
X53.709 Y69.647 Z1.184
X53.697 Y69.581 Z1.114
X53.686 Y69.496 Z1.068
X53.679 Y69.401 Z1.05
G3 X56.693 Y69.278 Z0.885 I1.507 J-0.062
X53.679 Y69.401 Z0.719 I-1.507 J0.062
X56.693 Y69.278 Z0.554 I1.507 J-0.062
X53.679 Y69.401 Z0.388 I-1.507 J0.062
X56.693 Y69.278 Z0.223 I1.507 J-0.062
X53.679 Y69.401 Z0.057 I-1.507 J0.062
X54.431 Y68.033 Z0. I1.507 J-0.062
G1 X54.493 Y67.998 F1816.
G3 X55.032 I0.269 J0.455
G1 X55.068 Y68.02
G3 X55.082 Y68.96 I-0.278 J0.474
G1 X55.002 Y69.011
G3 X54.447 Y69.022 I-0.287 J-0.444
G1 X54.408 Y68.999
G3 X54.411 Y68.045 I0.277 J-0.476
G1 X54.431 Y68.033
G2 X54.339 Y67.738 I-0.079 J-0.137
G1 X39.076 Y68.984
X39.038 Y68.992
X39.003 Y69.009
G3 X38.443 Y69.019 I-0.288 J-0.443
G1 X38.372 Y68.977
G3 X38.375 Y68.063 I0.267 J-0.456
G1 X38.491 Y67.996
G3 X39.029 Y67.998 I0.267 J0.456
G1 X39.064 Y68.019
G3 X39.079 Y68.96 I-0.279 J0.475
G1 X39.003 Y69.009
G3 X38.564 Y68.916 I-0.173 J-0.266 F1016.
G1 X38.525 Y68.857 Z0.008
X38.489 Y68.801 Z0.031
X38.456 Y68.75 Z0.069
X38.428 Y68.708 Z0.12
X38.408 Y68.676 Z0.18
X38.395 Y68.657 Z0.247
X38.391 Y68.65 Z0.317
G0 Z5.
X39.655 Y83.291
Z1.367
G1 X39.659 Y83.305 Z1.271 F1016.
X39.671 Y83.347 Z1.184
X39.686 Y83.412 Z1.114
X39.702 Y83.496 Z1.068
X39.713 Y83.591 Z1.05
G3 X36.709 Y83.863 Z0.885 I-1.502 J0.136
X39.713 Y83.591 Z0.719 I1.502 J-0.136
X36.709 Y83.863 Z0.554 I-1.502 J0.136
X39.713 Y83.591 Z0.388 I1.502 J-0.136
X36.709 Y83.863 Z0.223 I-1.502 J0.136
X39.713 Y83.591 Z0.057 I1.502 J-0.136
X39.029 Y84.994 Z0. I-1.502 J0.136
G1 X39.005 Y85.01 F1816.
G3 X38.444 Y85.02 I-0.289 J-0.443
G1 X38.373 Y84.978
G3 X38.378 Y84.063 I0.267 J-0.456
G1 X38.493 Y83.997
G3 X39.031 Y83.999 I0.268 J0.456
G1 X39.066 Y84.019
G3 X39.081 Y84.961 I-0.279 J0.475
G1 X39.029 Y84.994
X38.998 Y85.02
X38.975 Y85.053
X38.961 Y85.091
X38.957 Y85.132
X39.25 Y95.359
X39.257 Y95.401
X39.275 Y95.441
X39.396 Y95.614
G3 X39.008 Y96.386 I-0.388 J0.289
G1 X38.5
G3 X38.117 Y95.609 I0. J-0.483
G2 X38.313 Y95.327 I-2.695 J-2.078
G3 X39.208 Y95.334 I0.446 J0.277
G1 X39.275 Y95.441
G3 X39.183 Y95.88 I-0.266 J0.173 F1016.
G1 X39.124 Y95.919 Z0.008
X39.067 Y95.955 Z0.031
X39.017 Y95.988 Z0.069
X38.975 Y96.016 Z0.12
X38.943 Y96.036 Z0.18
X38.923 Y96.049 Z0.247
X38.917 Y96.053 Z0.317
G0 Z5.
X55.269 Y101.853
Z1.
G1 Z0.317 F1016.
G19 G2 Y101.536 Z0. J-0.317 K0.
G1 X55.268 Y101.505
X54.686 Y95.635
G17 G3 X55.269 Y95.431 I0.316 J-0.031
G1 X55.397 Y95.616 F1816.
G3 X55.009 Y96.386 I-0.388 J0.288
G1 X54.504
G3 X54.119 Y95.606 I0. J-0.485
G2 X54.313 Y95.326 I-2.697 J-2.075
G3 X55.208 Y95.334 I0.445 J0.276
G1 X55.269 Y95.431
G2 X55.56 Y95.329 I0.133 J-0.086
G1 X54.499 Y85.127
X54.487 Y85.079
X54.46 Y85.038
X54.421 Y85.007
X54.377 Y84.981
G3 X54.373 Y84.066 I0.263 J-0.458
G1 X54.493 Y83.996
G3 X55.03 Y83.998 I0.267 J0.456
G1 X55.066 Y84.019
G3 X55.08 Y84.96 I-0.279 J0.475
G1 X55.003 Y85.009
G3 X54.447 Y85.021 I-0.288 J-0.443
G1 X54.421 Y85.007
G3 X54.307 Y84.572 I0.16 J-0.274 F1016.
G1 X54.343 Y84.511 Z0.008
X54.377 Y84.453 Z0.031
X54.407 Y84.401 Z0.069
X54.433 Y84.358 Z0.12
X54.452 Y84.325 Z0.18
X54.464 Y84.305 Z0.247
X54.468 Y84.298 Z0.317
G0 Z5.
X69.732 Y85.71
Z1.367
G1 X69.729 Y85.696 Z1.271 F1016.
X69.719 Y85.654 Z1.184
X69.706 Y85.587 Z1.114
X69.694 Y85.503 Z1.068
X69.686 Y85.408 Z1.05
G3 X72.699 Y85.259 Z0.885 I1.506 J-0.075
X69.686 Y85.408 Z0.719 I-1.506 J0.075
X72.699 Y85.259 Z0.554 I1.506 J-0.075
X69.686 Y85.408 Z0.388 I-1.506 J0.075
X72.699 Y85.259 Z0.223 I1.506 J-0.075
X69.686 Y85.408 Z0.057 I-1.506 J0.075
X70.427 Y84.034 Z0. I1.506 J-0.075
G1 X70.49 Y83.997 F1816.
G3 X71.028 Y83.998 I0.268 J0.455
G1 X71.065 Y84.02
G3 X71.08 Y84.96 I-0.279 J0.474
G1 X71.003 Y85.009
G3 X70.446 Y85.02 I-0.287 J-0.443
G1 X70.376 Y84.979
G3 X70.371 Y84.066 I0.264 J-0.458
G1 X70.427 Y84.034
G3 X70.666 Y84.162 I0.081 J0.137
G1 X71.25 Y95.363
X71.257 Y95.403
X71.275 Y95.441
X71.397 Y95.616
G3 X71.009 Y96.386 I-0.387 J0.288
G1 X70.5
G3 X70.117 Y95.611 I0. J-0.483
G2 X70.306 Y95.335 I-2.705 J-2.066
G3 X71.213 Y95.341 I0.452 J0.279
G1 X71.275 Y95.441
G3 X71.182 Y95.88 I-0.266 J0.173 F1016.
G1 X71.122 Y95.919 Z0.008
X71.066 Y95.955 Z0.031
X71.016 Y95.988 Z0.069
X70.974 Y96.015 Z0.12
X70.942 Y96.036 Z0.18
X70.922 Y96.049 Z0.247
X70.915 Y96.053 Z0.317
G0 Z5.
X87.269 Y101.853
Z1.
G1 Z0.317 F1016.
G19 G2 Y101.536 Z0. J-0.317 K0.
G1 X87.267 Y101.505
X86.686 Y95.635
G17 G3 X87.269 Y95.431 I0.316 J-0.031
G1 X87.392 Y95.61 F1816.
G3 X87.001 Y96.386 I-0.392 J0.289
G1 X86.502
G3 X86.12 Y95.6 I0. J-0.486
G2 X86.313 Y95.328 I-2.676 J-2.103
G3 X87.212 Y95.34 I0.446 J0.285
G1 X87.269 Y95.431
G2 X87.56 Y95.329 I0.133 J-0.086
G1 X86.502 Y85.128
X86.489 Y85.08
X86.462 Y85.039
X86.423 Y85.007
X86.378 Y84.981
G3 X86.372 Y84.066 I0.261 J-0.459
G1 X86.49 Y83.997
G3 X87.032 Y84.001 I0.267 J0.456
G1 X87.067 Y84.022
G3 X87.076 Y84.962 I-0.284 J0.473
G1 X87.002 Y85.01
G3 X86.449 Y85.022 I-0.286 J-0.444
G1 X86.423 Y85.007
G3 X86.308 Y84.573 I0.159 J-0.275 F1016.
G1 X86.343 Y84.512 Z0.008
X86.377 Y84.454 Z0.031
X86.407 Y84.402 Z0.069
X86.432 Y84.359 Z0.12
X86.451 Y84.326 Z0.18
X86.463 Y84.306 Z0.247
X86.467 Y84.299 Z0.317
G0 Z5.
X101.729 Y85.708
Z1.367
G1 X101.725 Y85.694 Z1.271 F1016.
X101.716 Y85.652 Z1.184
X101.703 Y85.586 Z1.114
X101.691 Y85.501 Z1.068
X101.684 Y85.406 Z1.05
G3 X104.696 Y85.265 Z0.885 I1.506 J-0.071
X101.684 Y85.406 Z0.719 I-1.506 J0.071
X104.696 Y85.265 Z0.554 I1.506 J-0.071
X101.684 Y85.406 Z0.388 I-1.506 J0.071
X104.696 Y85.265 Z0.223 I1.506 J-0.071
X101.684 Y85.406 Z0.057 I-1.506 J0.071
X102.428 Y84.034 Z0. I1.506 J-0.071
G1 X102.495 Y83.995 F1816.
G3 X103.04 Y84.001 I0.267 J0.456
G1 X103.068 Y84.019
G3 X103.074 Y84.964 I-0.29 J0.475
G1 X103.002 Y85.01
G3 X102.444 Y85.02 I-0.287 J-0.444
G1 X102.375 Y84.979
G3 X102.373 Y84.066 I0.265 J-0.457
G1 X102.428 Y84.034
G3 X102.667 Y84.163 I0.08 J0.137
G1 X103.251 Y95.363
X103.258 Y95.404
X103.276 Y95.442
X103.396 Y95.616
G3 X103.003 Y96.386 I-0.393 J0.285
G1 X102.503
G3 X102.12 Y95.604 I0. J-0.485
G2 X102.313 Y95.33 I-2.685 J-2.091
G3 X103.211 Y95.338 I0.447 J0.282
G1 X103.276 Y95.442
G3 X103.183 Y95.881 I-0.266 J0.173 F1016.
G1 X103.123 Y95.919 Z0.008
X103.067 Y95.956 Z0.031
X103.017 Y95.989 Z0.069
X102.974 Y96.016 Z0.12
X102.943 Y96.037 Z0.18
X102.923 Y96.049 Z0.247
X102.916 Y96.054 Z0.317
G0 Z5.
X119.269 Y101.853
Z1.
G1 Z0.317 F1016.
G19 G2 Y101.536 Z0. J-0.317 K0.
G1 X119.267 Y101.505
X118.686 Y95.635
G17 G3 X119.269 Y95.432 I0.316 J-0.031
G1 X119.397 Y95.617 F1816.
G3 X119.011 Y96.386 I-0.387 J0.287
G1 X118.497
G3 X118.117 Y95.605 I0. J-0.483
G2 X118.313 Y95.328 I-2.677 J-2.101
G3 X119.211 Y95.339 I0.446 J0.283
G1 X119.269 Y95.432
G2 X119.56 Y95.329 I0.133 J-0.086
G1 X118.499 Y85.127
X118.486 Y85.079
X118.459 Y85.038
X118.421 Y85.006
X118.377 Y84.981
G3 X118.37 Y84.068 I0.263 J-0.458
G1 X118.49 Y83.997
G3 X119.03 I0.27 J0.455
G1 X119.066 Y84.019
G3 X119.081 Y84.959 I-0.278 J0.474
G1 X119.002 Y85.01
G3 X118.446 Y85.021 I-0.287 J-0.444
G1 X118.421 Y85.006
G3 X118.307 Y84.572 I0.16 J-0.274 F1016.
G1 X118.343 Y84.511 Z0.008
X118.377 Y84.453 Z0.031
X118.407 Y84.401 Z0.069
X118.432 Y84.358 Z0.12
X118.451 Y84.325 Z0.18
X118.463 Y84.305 Z0.247
X118.467 Y84.298 Z0.317
G0 Z5.
X120.225 Y68.811
Z1.367
G1 X120.214 Y68.821 Z1.271 F1016.
X120.182 Y68.85 Z1.184
X120.13 Y68.893 Z1.114
X120.062 Y68.945 Z1.068
X119.982 Y68.998 Z1.05
G3 X118.397 Y66.431 Z0.885 I-0.793 J-1.283
X119.982 Y68.998 Z0.719 I0.793 J1.283
X118.397 Y66.431 Z0.554 I-0.793 J-1.283
X119.982 Y68.998 Z0.388 I0.793 J1.283
X118.397 Y66.431 Z0.223 I-0.793 J-1.283
X119.982 Y68.998 Z0.057 I0.793 J1.283
X118.421 Y69.012 Z0. I-0.793 J-1.283
G1 X118.414 Y69.008 F1816.
G3 X118.421 Y68.038 I0.286 J-0.482
G1 X118.492 Y67.997
G3 X119.031 Y67.999 I0.268 J0.456
G1 X119.067 Y68.021
G3 X119.08 Y68.96 I-0.279 J0.474
G1 X118.998 Y69.013
G3 X118.441 Y69.024 I-0.287 J-0.443
G1 X118.421 Y69.012
G3 X118.31 Y68.577 I0.162 J-0.273 F1016.
G1 X118.346 Y68.517 Z0.008
X118.38 Y68.459 Z0.031
X118.411 Y68.407 Z0.069
X118.436 Y68.364 Z0.12
X118.456 Y68.331 Z0.18
X118.468 Y68.311 Z0.247
X118.472 Y68.304 Z0.317
G0 Z5.
X101.73 Y69.709
Z1.367
G1 X101.727 Y69.694 Z1.271 F1016.
X101.717 Y69.652 Z1.184
X101.704 Y69.586 Z1.114
X101.692 Y69.501 Z1.068
X101.685 Y69.406 Z1.05
G3 X104.698 Y69.262 Z0.885 I1.506 J-0.072
X101.685 Y69.406 Z0.719 I-1.506 J0.072
X104.698 Y69.262 Z0.554 I1.506 J-0.072
X101.685 Y69.406 Z0.388 I-1.506 J0.072
X104.698 Y69.262 Z0.223 I1.506 J-0.072
X101.685 Y69.406 Z0.057 I-1.506 J0.072
X102.428 Y68.034 Z0. I1.506 J-0.072
G1 X102.492 Y67.996 F1816.
G3 X103.03 Y67.998 I0.267 J0.456
G1 X103.066 Y68.019
G3 X103.081 Y68.96 I-0.278 J0.475
G1 X103.003 Y69.01
G3 X102.446 Y69.021 I-0.287 J-0.444
G1 X102.376 Y68.98
G3 X102.372 Y68.066 I0.264 J-0.458
G1 X102.428 Y68.034
G2 X102.335 Y67.738 I-0.08 J-0.137
G1 X87.075 Y68.985
X87.036 Y68.993
X87.001 Y69.01
G3 X86.438 Y69.018 I-0.288 J-0.443
G1 X86.369 Y68.976
G3 X86.371 Y68.067 I0.27 J-0.454
G1 X86.49 Y67.997
G3 X87.029 Y67.999 I0.268 J0.456
G1 X87.065 Y68.02
G3 X87.079 Y68.96 I-0.28 J0.475
G1 X87.001 Y69.01
G3 X86.562 Y68.917 I-0.173 J-0.266 F1016.
G1 X86.523 Y68.858 Z0.008
X86.487 Y68.801 Z0.031
X86.454 Y68.751 Z0.069
X86.427 Y68.709 Z0.12
X86.406 Y68.677 Z0.18
X86.393 Y68.657 Z0.247
X86.389 Y68.651 Z0.317
G0 Z5.
X85.727 Y53.709
Z1.367
G1 X85.724 Y53.695 Z1.271 F1016.
X85.714 Y53.653 Z1.184
X85.701 Y53.586 Z1.114
X85.69 Y53.502 Z1.068
X85.682 Y53.407 Z1.05
G3 X88.695 Y53.265 Z0.885 I1.506 J-0.071
X85.682 Y53.407 Z0.719 I-1.506 J0.071
X88.695 Y53.265 Z0.554 I1.506 J-0.071
X85.682 Y53.407 Z0.388 I-1.506 J0.071
X88.695 Y53.265 Z0.223 I1.506 J-0.071
X85.682 Y53.407 Z0.057 I-1.506 J0.071
X86.426 Y52.035 Z0. I1.506 J-0.071
G1 X86.49 Y51.997 F1816.
G3 X87.032 Y52.001 I0.268 J0.456
G1 X87.066 Y52.022
G3 X87.076 Y52.963 I-0.284 J0.474
G1 X87. Y53.011
G3 X86.436 Y53.018 I-0.287 J-0.444
G1 X86.368 Y52.976
G3 X86.372 Y52.067 I0.271 J-0.454
G1 X86.426 Y52.035
G3 X86.861 Y52.148 I0.16 J0.274 F1016.
G1 X86.896 Y52.209 Z0.008
X86.93 Y52.267 Z0.031
X86.961 Y52.319 Z0.069
X86.986 Y52.362 Z0.12
X87.005 Y52.395 Z0.18
X87.017 Y52.415 Z0.247
X87.021 Y52.422 Z0.317
G0 Z5.
X88.224 Y36.828
Z1.367
G1 X88.213 Y36.838 Z1.271 F1016.
X88.18 Y36.867 Z1.184
X88.128 Y36.909 Z1.114
X88.059 Y36.96 Z1.068
X87.979 Y37.011 Z1.05
G3 X86.427 Y34.425 Z0.885 I-0.776 J-1.293
X87.979 Y37.011 Z0.719 I0.776 J1.293
X86.427 Y34.425 Z0.554 I-0.776 J-1.293
X87.979 Y37.011 Z0.388 I0.776 J1.293
X86.427 Y34.425 Z0.223 I-0.776 J-1.293
X87.979 Y37.011 Z0.057 I0.776 J1.293
X86.418 Y37.006 Z0. I-0.776 J-1.293
G1 X86.368 Y36.975 F1816.
G3 X86.371 Y36.067 I0.271 J-0.454
G1 X86.489 Y35.997
G3 X87.031 Y36.001 I0.268 J0.455
G1 X87.065 Y36.021
G3 X87.073 Y36.965 I-0.284 J0.474
G1 X86.998 Y37.012
G3 X86.437 Y37.017 I-0.285 J-0.445
G1 X86.418 Y37.006
G3 X86.312 Y36.569 I0.165 J-0.271 F1016.
G1 X86.349 Y36.509 Z0.008
X86.384 Y36.452 Z0.031
X86.415 Y36.4 Z0.069
X86.441 Y36.357 Z0.12
X86.461 Y36.325 Z0.18
X86.473 Y36.305 Z0.247
X86.477 Y36.298 Z0.317
G0 Z5.
X69.74 Y37.717
Z1.367
G1 X69.736 Y37.702 Z1.271 F1016.
X69.726 Y37.66 Z1.184
X69.713 Y37.594 Z1.114
X69.7 Y37.51 Z1.068
X69.692 Y37.415 Z1.05
G3 X72.703 Y37.245 Z0.885 I1.506 J-0.085
X69.692 Y37.415 Z0.719 I-1.506 J0.085
X72.703 Y37.245 Z0.554 I1.506 J-0.085
X69.692 Y37.415 Z0.388 I-1.506 J0.085
X72.703 Y37.245 Z0.223 I1.506 J-0.085
X69.692 Y37.415 Z0.057 I-1.506 J0.085
X70.423 Y36.036 Z0. I1.506 J-0.085
G1 X70.488 Y35.997 F1816.
G3 X71.03 Y35.996 I0.271 J0.453
G1 X71.06 Y36.014
G3 X71.074 Y36.963 I-0.282 J0.479
G1 X71.002 Y37.009
G3 X70.446 Y37.021 I-0.287 J-0.444
G1 X70.376 Y36.98
G3 X70.368 Y36.069 I0.263 J-0.458
G1 X70.423 Y36.036
G3 X70.859 Y36.145 I0.163 J0.272 F1016.
G1 X70.895 Y36.206 Z0.008
X70.929 Y36.264 Z0.031
X70.96 Y36.315 Z0.069
X70.986 Y36.358 Z0.12
X71.005 Y36.391 Z0.18
X71.017 Y36.411 Z0.247
X71.022 Y36.418 Z0.317
G0 Z5.
X69.73 Y21.709
Z1.367
G1 X69.727 Y21.695 Z1.271 F1016.
X69.717 Y21.653 Z1.184
X69.704 Y21.587 Z1.114
X69.692 Y21.502 Z1.068
X69.685 Y21.407 Z1.05
G3 X72.697 Y21.261 Z0.885 I1.506 J-0.073
X69.685 Y21.407 Z0.719 I-1.506 J0.073
X72.697 Y21.261 Z0.554 I1.506 J-0.073
X69.685 Y21.407 Z0.388 I-1.506 J0.073
X72.697 Y21.261 Z0.223 I1.506 J-0.073
X69.685 Y21.407 Z0.057 I-1.506 J0.073
X70.427 Y20.034 Z0. I1.506 J-0.073
G1 X70.491 Y19.996 F1816.
G3 X71.035 Y20.001 I0.268 J0.456
G1 X71.066 Y20.019
G3 X71.074 Y20.963 I-0.287 J0.474
G1 X71.002 Y21.009
G3 X70.446 Y21.021 I-0.287 J-0.444
G1 X70.376 Y20.98
G3 X70.372 Y20.066 I0.263 J-0.458
G1 X70.42 Y20.038
X70.427 Y20.034
X70.46 Y20.008
X70.485 Y19.974
X70.501 Y19.935
X70.505 Y19.893
X70.268 Y9.68
X70.261 Y9.634
X70.24 Y9.593
X70.194 Y9.527
X70.1 Y9.401
G3 X70.485 Y8.624 I0.385 J-0.293
G1 X70.947
G3 X71.38 Y9.41 I0. J0.512
G1 X71.233 Y9.643
G3 X70.284 Y9.657 I-0.479 J-0.302
G1 X70.24 Y9.593
G3 X70.319 Y9.151 I0.261 J-0.181 F1016.
G1 X70.377 Y9.111 Z0.008
X70.433 Y9.072 Z0.031
X70.482 Y9.038 Z0.069
X70.523 Y9.009 Z0.12
X70.554 Y8.988 Z0.18
X70.574 Y8.974 Z0.247
X70.58 Y8.97 Z0.317
G0 Z5.
X54.248 Y3.147
Z1.
G1 Z0.317 F1016.
G19 G3 Y3.464 Z0. J0.318 K0.
G1 X54.25 Y3.495
X54.825 Y9.392
G17 G3 X54.248 Y9.604 I-0.316 J0.031
G1 X54.195 Y9.529 F1816.
X54.099 Y9.401
G3 X54.485 Y8.624 I0.386 J-0.293
G1 X54.947
G3 X55.38 Y9.409 I0. J0.512
G1 X55.233 Y9.644
G3 X54.286 Y9.66 I-0.479 J-0.297
G1 X54.248 Y9.604
X54.237 Y9.575
X54.241 Y9.545
X54.258 Y9.519
X54.285 Y9.504
X54.316
X54.343 Y9.518
X54.361 Y9.542
X54.417 Y9.687
X54.921 Y20.666
X54.927 Y20.691
X55.046 Y20.918
X55.053 Y20.946
X55.045 Y20.974
X55.025 Y20.996
X55. Y21.011
G3 X54.446 Y21.022 I-0.286 J-0.445
G1 X54.409 Y21.
G3 X54.413 Y20.044 I0.277 J-0.477
G1 X54.494 Y19.997
G3 X55.033 Y19.998 I0.268 J0.455
G1 X55.061 Y20.014
G3 X55.074 Y20.965 I-0.282 J0.479
G1 X55.025 Y20.996
G3 X54.587 Y20.898 I-0.17 J-0.268 F1016.
G1 X54.549 Y20.839 Z0.008
X54.513 Y20.782 Z0.031
X54.48 Y20.731 Z0.069
X54.453 Y20.689 Z0.12
X54.433 Y20.657 Z0.18
X54.421 Y20.637 Z0.247
X54.416 Y20.63 Z0.317
G0 Z5.
X53.724 Y37.704
Z1.367
G1 X53.721 Y37.689 Z1.271 F1016.
X53.711 Y37.647 Z1.184
X53.699 Y37.581 Z1.114
X53.688 Y37.496 Z1.068
X53.681 Y37.401 Z1.05
G3 X56.695 Y37.279 Z0.885 I1.507 J-0.061
X53.681 Y37.401 Z0.719 I-1.507 J0.061
X56.695 Y37.279 Z0.554 I1.507 J-0.061
X53.681 Y37.401 Z0.388 I-1.507 J0.061
X56.695 Y37.279 Z0.223 I1.507 J-0.061
X53.681 Y37.401 Z0.057 I-1.507 J0.061
X54.434 Y36.034 Z0. I1.507 J-0.061
G1 X54.492 Y35.999 F1816.
G3 X55.032 Y36.001 I0.269 J0.455
G1 X55.069 Y36.023
G3 X55.079 Y36.965 I-0.279 J0.474
G1 X55.001 Y37.014
G3 X54.452 Y37.025 I-0.283 J-0.446
G1 X54.413 Y37.003
G3 Y36.045 I0.274 J-0.479
G1 X54.434 Y36.034
G3 X54.867 Y36.15 I0.159 J0.275 F1016.
G1 X54.903 Y36.211 Z0.008
X54.936 Y36.269 Z0.031
X54.966 Y36.321 Z0.069
X54.991 Y36.365 Z0.12
X55.01 Y36.398 Z0.18
X55.022 Y36.418 Z0.247
X55.026 Y36.425 Z0.317
G0 Z5.
X40.228 Y36.796
Z1.367
G1 X40.217 Y36.807 Z1.271 F1016.
X40.185 Y36.836 Z1.184
X40.134 Y36.88 Z1.114
X40.066 Y36.932 Z1.068
X39.987 Y36.985 Z1.05
G3 X38.377 Y34.434 Z0.885 I-0.805 J-1.275
X39.987 Y36.985 Z0.719 I0.805 J1.275
X38.377 Y34.434 Z0.554 I-0.805 J-1.275
X39.987 Y36.985 Z0.388 I0.805 J1.275
X38.377 Y34.434 Z0.223 I-0.805 J-1.275
X39.987 Y36.985 Z0.057 I0.805 J1.275
X38.426 Y37.015 Z0. I-0.805 J-1.275
G1 X38.413 Y37.007 F1816.
G3 X38.415 Y36.042 I0.279 J-0.482
G1 X38.492 Y35.997
G3 X39.03 Y35.999 I0.268 J0.456
G1 X39.066 Y36.021
G3 X39.08 Y36.96 I-0.279 J0.474
G1 X38.999 Y37.012
G3 X38.446 Y37.026 I-0.288 J-0.443
G1 X38.431 Y37.017
X38.426 Y37.015
G3 X38.311 Y36.581 I0.159 J-0.275 F1016.
G1 X38.346 Y36.52 Z0.008
X38.38 Y36.462 Z0.031
X38.41 Y36.41 Z0.069
X38.435 Y36.366 Z0.12
X38.454 Y36.333 Z0.18
X38.466 Y36.313 Z0.247
X38.47 Y36.306 Z0.317
G0 Z5.
X39.656 Y51.292
Z1.367
G1 X39.66 Y51.306 Z1.271 F1016.
X39.672 Y51.347 Z1.184
X39.687 Y51.413 Z1.114
X39.702 Y51.497 Z1.068
X39.714 Y51.592 Z1.05
G3 X36.709 Y51.858 Z0.885 I-1.502 J0.133
X39.714 Y51.592 Z0.719 I1.502 J-0.133
X36.709 Y51.858 Z0.554 I-1.502 J0.133
X39.714 Y51.592 Z0.388 I1.502 J-0.133
X36.709 Y51.858 Z0.223 I-1.502 J0.133
X39.714 Y51.592 Z0.057 I1.502 J-0.133
X39.027 Y52.994 Z0. I-1.502 J0.133
G1 X39.002 Y53.01 F1816.
G3 X38.442 Y53.019 I-0.288 J-0.443
G1 X38.372 Y52.978
G3 X38.376 Y52.063 I0.267 J-0.456
G1 X38.491 Y51.997
G3 X39.033 Y52.001 I0.267 J0.456
G1 X39.065 Y52.021
G3 X39.075 Y52.963 I-0.285 J0.474
G1 X39.027 Y52.994
G2 X39.126 Y53.285 I0.086 J0.134
G1 X54.368 Y52.053
X54.403 Y52.046
X54.435 Y52.032
X54.494 Y51.997
G3 X55.034 Y51.998 I0.269 J0.455
G1 X55.061 Y52.014
G3 X55.076 Y52.964 I-0.282 J0.479
G1 X55.002 Y53.011
G3 X54.449 Y53.023 I-0.287 J-0.444
G1 X54.409 Y53.
G3 X54.41 Y52.046 I0.274 J-0.477
G1 X54.435 Y52.032
G3 X54.869 Y52.148 I0.159 J0.275 F1016.
G1 X54.904 Y52.209 Z0.008
X54.938 Y52.267 Z0.031
X54.968 Y52.319 Z0.069
X54.993 Y52.362 Z0.12
X55.012 Y52.395 Z0.18
X55.024 Y52.415 Z0.247
X55.028 Y52.422 Z0.317
G0 Z5.
X21.721 Y53.704
Z1.367
G1 X21.717 Y53.689 Z1.271 F1016.
X21.708 Y53.647 Z1.184
X21.696 Y53.581 Z1.114
X21.684 Y53.496 Z1.068
X21.677 Y53.401 Z1.05
G3 X24.691 Y53.276 Z0.885 I1.507 J-0.062
X21.677 Y53.401 Z0.719 I-1.507 J0.062
X24.691 Y53.276 Z0.554 I1.507 J-0.062
X21.677 Y53.401 Z0.388 I-1.507 J0.062
X24.691 Y53.276 Z0.223 I1.507 J-0.062
X21.677 Y53.401 Z0.057 I-1.507 J0.062
X22.429 Y52.033 Z0. I1.507 J-0.062
G1 X22.491 Y51.997 F1816.
G3 X23.034 Y52.001 I0.268 J0.455
G1 X23.065 Y52.02
G3 X23.075 Y52.963 I-0.285 J0.475
G1 X23.001 Y53.011
G3 X22.437 Y53.018 I-0.288 J-0.443
G1 X22.368 Y52.976
G3 X22.375 Y52.064 I0.271 J-0.454
G1 X22.429 Y52.033
G3 X22.863 Y52.149 I0.159 J0.275 F1016.
G1 X22.898 Y52.21 Z0.008
X22.932 Y52.268 Z0.031
X22.962 Y52.32 Z0.069
X22.987 Y52.364 Z0.12
X23.006 Y52.397 Z0.18
X23.018 Y52.417 Z0.247
X23.022 Y52.424 Z0.317
G0 Z5.
X24.233 Y36.789
Z1.367
G1 X24.222 Y36.8 Z1.271 F1016.
X24.19 Y36.829 Z1.184
X24.139 Y36.873 Z1.114
X24.071 Y36.925 Z1.068
X23.992 Y36.979 Z1.05
G3 X22.376 Y34.432 Z0.885 I-0.808 J-1.273
X23.992 Y36.979 Z0.719 I0.808 J1.273
X22.376 Y34.432 Z0.554 I-0.808 J-1.273
X23.992 Y36.979 Z0.388 I0.808 J1.273
X22.376 Y34.432 Z0.223 I-0.808 J-1.273
X23.992 Y36.979 Z0.057 I0.808 J1.273
X22.432 Y37.012 Z0. I-0.808 J-1.273
G1 X22.377 Y36.981 F1816.
G3 X22.375 Y36.064 I0.262 J-0.459
G1 X22.493 Y35.996
G3 X23.031 Y35.997 I0.268 J0.456
G1 X23.06 Y36.015
G3 X23.075 Y36.963 I-0.281 J0.479
G1 X23.003 Y37.009
G3 X22.449 Y37.022 I-0.288 J-0.443
G1 X22.436 Y37.015
X22.432 Y37.012
G3 X22.315 Y36.579 I0.158 J-0.275 F1016.
G1 X22.35 Y36.518 Z0.008
X22.384 Y36.46 Z0.031
X22.414 Y36.407 Z0.069
X22.439 Y36.364 Z0.12
X22.458 Y36.331 Z0.18
X22.469 Y36.311 Z0.247
X22.473 Y36.304 Z0.317
G0 Z5.
X21.719 Y21.703
Z1.367
G1 X21.716 Y21.689 Z1.271 F1016.
X21.706 Y21.646 Z1.184
X21.694 Y21.58 Z1.114
X21.683 Y21.495 Z1.068
X21.676 Y21.4 Z1.05
G3 X24.69 Y21.278 Z0.885 I1.507 J-0.061
X21.676 Y21.4 Z0.719 I-1.507 J0.061
X24.69 Y21.278 Z0.554 I1.507 J-0.061
X21.676 Y21.4 Z0.388 I-1.507 J0.061
X24.69 Y21.278 Z0.223 I1.507 J-0.061
X21.676 Y21.4 Z0.057 I-1.507 J0.061
X22.429 Y20.033 Z0. I1.507 J-0.061
G1 X22.493 Y19.996 F1816.
G3 X23.031 Y19.997 I0.268 J0.456
G1 X23.064 Y20.017
G3 X23.079 Y20.96 I-0.279 J0.476
G1 X23. Y21.011
G3 X22.436 Y21.018 I-0.287 J-0.443
G1 X22.367 Y20.976
G3 X22.375 Y20.064 I0.271 J-0.454
G1 X22.429 Y20.033
X22.462 Y20.007
X22.488 Y19.973
X22.504 Y19.934
X22.508 Y19.892
X22.269 Y9.681
X22.262 Y9.636
X22.241 Y9.594
X22.106 Y9.414
G3 X22.486 Y8.624 I0.38 J-0.304
G1 X22.953
G3 X23.377 Y9.411 I0. J0.508
G1 X23.313 Y9.512
X23.24 Y9.633
G3 X22.282 Y9.653 I-0.486 J-0.296
G1 X22.241 Y9.594
G3 X22.319 Y9.152 I0.26 J-0.182 F1016.
G1 X22.376 Y9.111 Z0.008
X22.431 Y9.073 Z0.031
X22.481 Y9.038 Z0.069
X22.522 Y9.009 Z0.12
X22.553 Y8.988 Z0.18
X22.572 Y8.974 Z0.247
X22.579 Y8.969 Z0.317
G0 Z5.
X38.774 Y3.147
Z1.
G1 Z0.317 F1016.
X38.773 Y3.155 Z0.247
X38.772 Y3.179 Z0.18
X38.769 Y3.216 Z0.12
X38.766 Y3.267 Z0.069
X38.762 Y3.327 Z0.031
X38.758 Y3.394 Z0.008
X38.753 Y3.464 Z0.
X38.436 Y8.286
G2 X38.753 Y8.624 I0.317 J0.021
G1 X38.946 F1816.
G3 X39.38 Y9.41 I0. J0.513
G1 X39.236 Y9.642
G3 X38.285 Y9.657 I-0.48 J-0.299
G1 X38.196 Y9.532
X38.103 Y9.41
G3 X38.486 Y8.624 I0.382 J-0.3
G1 X38.753
X38.781 Y8.63
X38.804 Y8.648
X38.816 Y8.674
X38.817 Y8.702
X38.756 Y9.016
X38.927 Y20.664
X38.934 Y20.69
X39.048 Y20.917
X39.054 Y20.945
X39.046 Y20.973
X39.027 Y20.994
X39.002 Y21.01
G3 X38.442 Y21.02 I-0.288 J-0.443
G1 X38.372 Y20.978
G3 X38.376 Y20.064 I0.267 J-0.456
G1 X38.494 Y19.996
G3 X39.038 Y20.001 I0.267 J0.456
G1 X39.066 Y20.019
G3 X39.074 Y20.964 I-0.289 J0.475
G1 X39.027 Y20.994
G3 X38.588 Y20.899 I-0.172 J-0.267 F1016.
G1 X38.55 Y20.839 Z0.008
X38.513 Y20.783 Z0.031
X38.481 Y20.732 Z0.069
X38.454 Y20.69 Z0.12
X38.433 Y20.658 Z0.18
X38.421 Y20.638 Z0.247
X38.416 Y20.632 Z0.317
G0 Z5.
X85.728 Y21.708
Z1.367
G1 X85.724 Y21.693 Z1.271 F1016.
X85.715 Y21.651 Z1.184
X85.702 Y21.585 Z1.114
X85.69 Y21.5 Z1.068
X85.683 Y21.405 Z1.05
G3 X88.696 Y21.266 Z0.885 I1.507 J-0.069
X85.683 Y21.405 Z0.719 I-1.507 J0.069
X88.696 Y21.266 Z0.554 I1.507 J-0.069
X85.683 Y21.405 Z0.388 I-1.507 J0.069
X88.696 Y21.266 Z0.223 I1.507 J-0.069
X85.683 Y21.405 Z0.057 I-1.507 J0.069
X86.428 Y20.034 Z0. I1.507 J-0.069
G1 X86.491 Y19.997 F1816.
G3 X87.033 Y20.001 I0.267 J0.456
G1 X87.066 Y20.021
G3 X87.076 Y20.962 I-0.284 J0.474
G1 X87.002 Y21.01
G3 X86.446 Y21.021 I-0.287 J-0.444
G1 X86.376 Y20.98
G3 X86.373 Y20.066 I0.263 J-0.458
G1 X86.428 Y20.034
X86.462 Y20.008
X86.487 Y19.974
X86.502 Y19.935
X86.507 Y19.893
X86.266 Y9.678
X86.258 Y9.633
X86.238 Y9.592
X86.1 Y9.401
G3 X86.484 Y8.624 I0.385 J-0.293
G1 X86.75
X86.947
G3 X87.377 Y9.416 I0. J0.513
G1 X87.318 Y9.507
X87.24 Y9.632
G3 X86.283 Y9.657 I-0.487 J-0.291
G1 X86.238 Y9.592
G3 X86.318 Y9.15 I0.261 J-0.181 F1016.
G1 X86.376 Y9.11 Z0.008
X86.431 Y9.072 Z0.031
X86.481 Y9.037 Z0.069
X86.522 Y9.009 Z0.12
X86.553 Y8.987 Z0.18
X86.573 Y8.974 Z0.247
X86.579 Y8.969 Z0.317
G0 Z5.
X102.772 Y3.147
Z1.
G1 Z0.317 F1016.
X102.771 Y3.155 Z0.247
X102.77 Y3.179 Z0.18
X102.767 Y3.216 Z0.12
X102.764 Y3.267 Z0.069
X102.76 Y3.327 Z0.031
X102.756 Y3.394 Z0.008
X102.751 Y3.464 Z0.
X102.434 Y8.285
G2 X102.751 Y8.624 I0.317 J0.021
G1 X102.953 F1816.
G3 X103.377 Y9.411 I0. J0.508
G1 X103.302 Y9.53
X103.24 Y9.634
G3 X102.283 Y9.657 I-0.486 J-0.291
G1 X102.193 Y9.528
X102.1 Y9.401
G3 X102.485 Y8.624 I0.385 J-0.293
G1 X102.751
X102.779 Y8.63
X102.802 Y8.648
X102.815 Y8.673
Y8.702
X102.754 Y9.016
X102.929 Y20.663
X102.935 Y20.689
X103.05 Y20.916
X103.056 Y20.944
X103.048 Y20.972
X103.029 Y20.993
X103.004 Y21.009
G3 X102.449 Y21.022 I-0.288 J-0.443
G1 X102.378 Y20.981
G3 X102.372 Y20.066 I0.262 J-0.459
G1 X102.491 Y19.996
G3 X103.029 Y19.997 I0.268 J0.456
G1 X103.061 Y20.016
G3 X103.077 Y20.962 I-0.281 J0.478
G1 X103.029 Y20.993
G2 X103.127 Y21.285 I0.086 J0.133
G1 X118.362 Y20.055
X118.396 Y20.049
X118.429 Y20.034
X118.493 Y19.997
G3 X119.032 I0.269 J0.455
G1 X119.059 Y20.013
G3 X119.071 Y20.966 I-0.282 J0.481
G1 X118.996 Y21.014
G3 X118.438 Y21.022 I-0.285 J-0.445
G1 X118.413 Y21.007
G3 X118.421 Y20.039 I0.29 J-0.482
G1 X118.429 Y20.034
G2 X118.817 Y19.327 I-0.396 J-0.678
G3 X119.505 Y18.906 I0.462 J-0.017
G1 X119.56 Y18.938
G2 X121.174 Y19.755 I5.814 J-9.474
X122.914 Y20.248 I3.072 J-7.525
X126.279 Y20.401 I2.318 J-13.964
G3 X129.646 Y20.275 I3.401 J45.856
G2 X130.242 Y20.222 I-0.003 J-3.393
G1 X130.826 Y20.117
G3 X131.278 Y20.496 I0.068 J0.379
G1 Y20.552
G3 X130.83 Y20.932 I-0.385 J0.
G2 X126.963 Y20.625 I-3.689 J21.985
X123.085 Y20.735 I0.766 J95.851
X121.215 Y21.162 I0.265 J5.462
X119.528 Y22.076 I3.929 J9.263
G3 X117.966 Y22.115 I-0.811 J-1.206
G2 X116.597 Y21.363 I-9.921 J16.452
X115.111 Y20.881 I-2.37 J4.767
X111.079 Y20.589 I-3.552 J21.095
X107.039 Y20.741 I2.982 J132.743
X105.196 Y21.166 I0.289 J5.463
X103.536 Y22.073 I3.706 J8.758
G3 X101.967 Y22.109 I-0.813 J-1.19
G2 X100.348 Y21.282 I-5.954 J9.649
X98.602 Y20.778 I-3.12 J7.538
X95.138 Y20.545 I-2.87 J16.804
X91.67 Y20.691 I8.353 J239.643
X87.528 Y22.077 I0.399 J8.076
G3 X85.964 Y22.109 I-0.806 J-1.182
G2 X84.353 Y21.282 I-5.746 J9.214
X82.613 Y20.78 I-3.143 J7.632
X79.325 Y20.56 I-2.699 J15.645
G1 X76.133 Y20.679
G2 X73.73 Y21.052 I0.386 J10.402
X71.525 Y22.078 I1.994 J7.168
G3 X69.968 Y22.111 I-0.804 J-1.176
G2 X68.371 Y21.29 I-5.718 J9.163
X66.649 Y20.787 I-3.194 J7.736
X63.352 Y20.553 I-2.754 J15.42
X60.05 Y20.68 I15.154 J437.006
X57.688 Y21.065 I0.423 J10.022
X55.522 Y22.08 I2.126 J7.359
G3 X53.966 Y22.109 I-0.801 J-1.183
G2 X52.348 Y21.279 I-5.808 J9.323
X50.6 Y20.777 I-3.11 J7.535
X47.288 Y20.551 I-2.783 J16.429
X43.971 Y20.681 I7.195 J226.648
X41.654 Y21.069 I0.456 J9.83
X39.531 Y22.075 I2.121 J7.22
G3 X37.95 Y22.102 I-0.811 J-1.188
G2 X33.035 Y20.614 I-5.136 J8.102
X27.9 Y20.682 I-1.633 J70.942
X25.618 Y21.076 I0.469 J9.503
X23.529 Y22.075 I2.202 J7.291
G3 X21.955 Y22.108 I-0.812 J-1.19
G2 X19.891 Y21.088 I-6.203 J9.957
X17.625 Y20.675 I-2.264 J6.006
X14.734 Y20.697 I0.037 J200.072
X11.845 Y20.791 I1.18 J80.618
X11.434 Y20.825 I0.33 J6.531
G3 X11.023 Y20.858 I-0.906 J-8.508
X10.722 Y20.574 I-0.016 J-0.284
G1 Y20.436
G3 X11.048 Y20.154 I0.285 J0.
G2 X14.938 Y20.482 I4.583 J-31.091
X18.832 Y20.224 I0.489 J-22.12
X20.463 Y19.734 I-0.956 J-6.134
X21.967 Y18.936 I-6.141 J-13.401
G3 X23.563 Y18.94 I0.794 J1.309
G2 X25.198 Y19.766 I5.757 J-9.369
X26.964 Y20.257 I3.039 J-7.517
X30.307 Y20.446 I2.599 J-16.335
G3 X33.654 Y20.37 I3.368 J74.805
G2 X35.536 Y20.102 I-0.002 J-6.748
X37.285 Y19.358 I-2.236 J-7.693
X37.627 Y19.149 I-3.654 J-6.373
G3 X37.967 Y18.936 I7.176 J11.067
X39.574 Y18.945 I0.796 J1.313
G2 X41.612 Y19.944 I5.963 J-9.59
X43.847 Y20.346 I2.242 J-6.048
G3 X48.619 Y20.472 I-0.11 J95.233
G2 X53.265 Y19.37 I0.437 J-8.505
X53.619 Y19.156 I-3.809 J-6.699
G3 X53.969 Y18.937 I9.836 J15.324
X55.562 Y18.939 I0.794 J1.301
G2 X57.201 Y19.768 I5.781 J-9.4
X58.971 Y20.258 I3.019 J-7.455
X62.31 Y20.445 I2.602 J-16.55
G3 X65.654 Y20.37 I3.412 J77.415
G2 X67.909 Y19.948 I-0.006 J-6.27
X69.968 Y18.934 I-4.664 J-12.064
G3 X71.578 Y18.949 I0.793 J1.304
G2 X73.2 Y19.774 I5.19 J-8.195
X74.955 Y20.255 I3.072 J-7.765
X78.301 Y20.446 I2.611 J-16.36
G3 X81.652 Y20.37 I3.419 J77.038
G2 X83.908 Y19.948 I-0.006 J-6.269
X85.968 Y18.935 I-4.721 J-12.204
G3 X87.572 Y18.948 I0.792 J1.307
G2 X89.198 Y19.773 I5.33 J-8.493
X90.956 Y20.256 I3.06 J-7.698
X94.301 Y20.446 I2.611 J-16.402
G3 X97.65 Y20.37 I3.415 J77.245
G2 X99.264 Y20.159 I-0.005 J-6.316
X100.8 Y19.623 I-2.717 J-10.245
X101.394 Y19.298 I-1.554 J-3.547
G3 X101.965 Y18.936 I8.3 J12.453
X103.565 Y18.942 I0.795 J1.318
G2 X105.178 Y19.757 I5.771 J-9.409
X106.917 Y20.249 I3.075 J-7.56
X110.28 Y20.449 I2.631 J-15.865
G3 X113.648 Y20.371 I3.425 J75.165
G2 X115.906 Y19.951 I-0.005 J-6.318
X117.967 Y18.936 I-4.519 J-11.775
G3 X119.505 Y18.906 I0.795 J1.301
G2 X120.989 Y18.844 I0.691 J-1.239
G3 X122.44 Y18.529 I1.122 J1.667
G1 X122.441
G2 X126.021 Y18.761 I2.951 J-17.773
G3 X129.608 Y18.697 I3.665 J104.845
G2 X130.876 Y18.541 I-0.004 J-5.249
X132.085 Y18.124 I-1.777 J-7.111
G3 X132.898 Y18.651 I0.235 J0.528
G1 Y22.402
G3 X132.092 Y22.926 I-0.573 J0.
G2 X130.881 Y22.506 I-3.078 J6.934
X129.61 Y22.348 I-1.267 J4.989
G1 X123.162 Y22.338
G2 X120.993 Y23. I0.224 J4.617
X119.241 Y24.441 I4.101 J6.775
G3 X118.197 Y24.423 I-0.514 J-0.468
G2 X113.591 Y22.294 I-4.607 J3.921
G1 X108.459
G2 X105.66 Y22.802 I0. J7.969
X103.295 Y24.383 I2.189 J5.835
G3 X102.142 Y24.358 I-0.565 J-0.528
G2 X97.46 Y22.224 I-4.645 J3.985
X92.314 Y22.295 I2.093 J336.942
X89.592 Y22.835 I0.172 J8.003
X87.29 Y24.386 I2.267 J5.845
G3 X86.142 Y24.359 I-0.562 J-0.528
G2 X81.404 Y22.188 I-4.71 J4.024
X76.194 Y22.297 I0.735 J160.159
X73.502 Y22.871 I0.297 J7.992
X71.241 Y24.441 I2.316 J5.749
G3 X70.193 Y24.417 I-0.514 J-0.469
G2 X68.143 Y22.847 I-4.494 J3.744
X65.621 Y22.294 I-2.523 J5.485
G3 X60.24 Y22.277 I0.044 J-833.541
G2 X55.29 Y24.385 I-0.044 J6.762
G3 X54.144 Y24.358 I-0.561 J-0.532
G2 X49.332 Y22.165 I-4.785 J4.125
X44.046 Y22.299 I0.515 J125.139
X41.431 Y22.895 I0.351 J7.574
X39.24 Y24.443 I2.483 J5.839
G3 X38.199 Y24.425 I-0.512 J-0.47
G2 X36.145 Y22.858 I-4.669 J3.99
X33.625 Y22.295 I-2.521 J5.356
G3 X29.408 Y22.211 I0.009 J-107.342
G2 X25.248 Y22.904 I-0.409 J10.385
X24.186 Y23.537 I1.33 J3.437
X23.288 Y24.388 I7.68 J9.
G3 X22.143 Y24.358 I-0.559 J-0.531
G2 X20.098 Y22.829 I-4.427 J3.786
X17.6 Y22.295 I-2.497 J5.574
G3 X13.678 Y22.188 I-0.013 J-71.412
G2 X9.799 Y22.768 I-0.532 J9.704
G3 X9.102 Y22.282 I-0.178 J-0.486
G1 Y18.905
G3 X9.93 Y18.293 I0.641 J0.
G2 X13.747 Y18.808 I3.483 J-11.405
G3 X17.599 Y18.753 I3.877 J138.151
G2 X22.163 Y16.669 I-0.001 J-6.042
G3 X23.343 Y16.639 I0.603 J0.521
G2 X24.776 Y17.854 I6.554 J-6.278
X26.521 Y18.548 I2.419 J-3.539
X28.467 Y18.727 I2.315 J-14.548
X30.42 Y18.751 I1.933 J-77.12
X34.517 Y18.541 I-0.011 J-40.201
X38.165 Y16.666 I-0.576 J-5.608
G3 X39.357 Y16.654 I0.601 J0.531
G2 X40.732 Y17.842 I5.838 J-5.367
X42.417 Y18.522 I2.404 J-3.531
X44.441 Y18.723 I2.451 J-14.36
X46.476 Y18.753 I1.994 J-67.992
X50.544 Y18.555 I-0.025 J-42.489
X54.158 Y16.675 I-0.525 J-5.421
G3 X55.352 Y16.645 I0.61 J0.522
G2 X56.888 Y17.9 I5.635 J-5.327
X58.747 Y18.593 I2.632 J-4.228
X60.636 Y18.747 I1.984 J-12.622
X62.531 Y18.753 I1.694 J-226.694
X66.572 Y18.533 I-0.033 J-37.756
X70.164 Y16.667 I-0.603 J-5.551
G3 X71.347 Y16.645 I0.602 J0.529
G2 X72.8 Y17.867 I6.129 J-5.814
X74.569 Y18.558 I2.473 J-3.721
X76.573 Y18.736 I2.273 J-14.239
X78.585 Y18.753 I1.92 J-102.911
X82.599 Y18.539 I-0.034 J-38.362
X86.159 Y16.674 I-0.576 J-5.43
G3 X87.353 Y16.649 I0.608 J0.524
G2 X88.829 Y17.881 I5.729 J-5.36
X90.624 Y18.568 I2.529 J-3.92
X92.628 Y18.741 I2.193 J-13.775
X94.639 Y18.753 I1.893 J-139.24
X98.621 Y18.538 I-0.032 J-37.47
X102.149 Y16.679 I-0.579 J-5.377
G3 X103.348 Y16.646 I0.615 J0.526
G2 X104.743 Y17.838 I6.65 J-6.364
X106.443 Y18.529 I2.383 J-3.428
X108.563 Y18.729 I2.477 J-14.937
X110.692 Y18.753 I2.063 J-87.428
X114.656 Y18.524 I-0.026 J-34.871
X118.165 Y16.667 I-0.625 J-5.425
G3 X119.339 Y16.637 I0.601 J0.518
G2 X120.736 Y17.834 I6.777 J-6.498
X122.44 Y18.529 I2.386 J-3.413
X122.608 Y18.301 I0.026 J-0.157
G1 X118.241 Y9.594
X118.1 Y9.402
G3 X118.485 Y8.624 I0.385 J-0.293
G1 X118.958
G3 X119.38 Y9.405 I0. J0.505
G1 X119.307 Y9.521
X119.24 Y9.634
G3 X118.283 Y9.657 I-0.486 J-0.291
G1 X118.241 Y9.594
G2 X117.429 Y9.301 I-0.611 J0.422
G3 X116.585 Y9.123 I-0.251 J-0.898
G2 X113.23 Y7.95 I-3.272 J3.974
G1 X108.418 Y8.028
G2 X105.991 Y8.447 I0.129 J7.999
X104.072 Y9.992 I1.14 J3.38
X103.518 Y13.571 I4.118 J2.47
X105.711 Y16.454 I4.348 J-1.032
X108.164 Y17.052 I2.33 J-4.234
G3 X110.689 Y17.02 I2.519 J99.123
G2 X113.518 Y16.986 I0.007 J-119.567
X116.241 Y16.217 I-0.134 J-5.675
X118.224 Y13.422 I-2.085 J-3.58
X117.482 Y10.076 I-4.231 J-0.817
X116.585 Y9.123 I-4.168 J3.021
X113.872 Y9.383 I-1.226 J1.49
G3 X111.406 Y10.544 I-2.466 J-2.039
G1 X108.459
X108.013 Y10.551
X107.379 Y10.581
X107.269 Y10.613
X106.759 Y10.816
X106.285 Y11.212
X106.229 Y11.286
X105.944 Y11.762
X105.803 Y12.375
X105.86 Y12.974
X105.895 Y13.086
X106.13 Y13.588
X106.229 Y13.703
X106.564 Y14.052
X106.924 Y14.25
X107.135 Y14.356
X107.874 Y14.479
X109.797
X110.689 Y14.504
X113.643 Y14.501
X114.41 Y14.363
X114.479 Y14.331
X114.975 Y14.043
X115.049 Y13.978
X115.439 Y13.504
X115.497 Y13.365
X115.674 Y12.862
X115.677 Y12.207
X115.65 Y12.104
X115.445 Y11.553
X115.384 Y11.469
X115.023 Y11.042
X114.927 Y10.975
X114.424 Y10.69
X114.256 Y10.653
X113.615 Y10.544
X111.406
G3 X111.397 Y10.227 I0. J-0.159
G1 X119.766 Y9.741
G3 X119.908 Y9.986 I0.009 J0.158
G2 X119.461 Y10.9 I3.535 J2.295
X120.467 Y15.501 I4.263 J1.478
X122.017 Y16.596 I3.599 J-3.45
X123.871 Y16.995 I1.856 J-4.116
G3 X126.979 Y17.125 I-0.011 J37.52
G2 X130.085 Y16.978 I0.995 J-11.928
X132.353 Y16.101 I-1.124 J-6.269
X133.87 Y14.201 I-1.967 J-3.128
X133.343 Y10.015 I-4.445 J-1.566
X129.621 Y8.028 I-3.719 J2.486
G3 X126.424 Y8.01 I-0.181 J-246.503
G2 X123.227 Y8.072 I-0.618 J50.482
X119.908 Y9.986 I0.215 J4.209
X122.714 Y14.714 I2.572 J1.67
G3 X128.208 Y14.503 I5.549 J72.64
G1 X129.604 Y14.502
X129.641
X130.408 Y14.364
X130.533 Y14.3
X131.002 Y14.024
X131.202 Y13.795
X131.439 Y13.504
X131.497 Y13.365
X131.675 Y12.861
Y12.197
X131.648 Y12.098
X131.458 Y11.581
X131.407 Y11.497
X131.002 Y11.023
X130.422 Y10.688
X130.31 Y10.662
X129.623 Y10.545
X124.067 Y10.549
X123.356 Y10.585
X122.952 Y10.736
X122.757 Y10.819
X122.311 Y11.186
X122.235 Y11.277
X121.944 Y11.762
X121.837 Y12.209
X121.802 Y12.386
X121.866 Y13.002
X121.921 Y13.142
X122.13 Y13.588
X122.283 Y13.76
X122.561 Y14.049
X122.729 Y14.147
X123.133 Y14.356
X123.872 Y14.479
X125.851
X126.743 Y14.504
X128.208 Y14.503
G3 X128.526 Y14.82 I0. J0.318 F1016.
G1 Y14.891 Z0.008
Y14.958 Z0.031
Y15.018 Z0.069
Y15.068 Z0.12
Y15.106 Z0.18
Y15.129 Z0.247
Y15.137 Z0.317
G0 Z5.
X118.724 Y23.35
Z1.
G1 Z0.317 F1016.
Y23.358 Z0.247
X118.723 Y23.381 Z0.18
Y23.419 Z0.12
Y23.47 Z0.069
X118.722 Y23.53 Z0.031
X118.721 Y23.597 Z0.008
Y23.668 Z0.
X118.601 Y35.763 F1816.
X118.608 Y35.812
X118.631 Y35.857
X118.666 Y35.893
X118.711 Y35.915
X118.76 Y35.923
G3 X119.032 Y35.997 I0.002 J0.528
G1 X119.058 Y36.013
G3 X119.074 Y36.964 I-0.283 J0.481
G1 X119.003 Y37.01
G3 X118.444 Y37.021 I-0.288 J-0.443
G1 X118.375 Y36.98
G3 X118.374 Y36.066 I0.265 J-0.457
G1 X118.494 Y35.996
G3 X118.76 Y35.923 I0.268 J0.455
X119.079 Y36.24 I0.001 J0.317 F1016.
G1 Y36.31 Z0.008
Y36.377 Z0.031
X119.08 Y36.437 Z0.069
Y36.488 Z0.12
Y36.526 Z0.18
Y36.549 Z0.247
Y36.557 Z0.317
G0 Z5.
X102.727 Y23.311
Z1.
G1 Z0.317 F1016.
Y23.319 Z0.247
X102.726 Y23.342 Z0.18
Y23.38 Z0.12
Y23.43 Z0.069
X102.725 Y23.491 Z0.031
X102.724 Y23.558 Z0.008
X102.723 Y23.628 Z0.
X102.598 Y35.764 F1816.
X102.605 Y35.814
X102.628 Y35.859
X102.663 Y35.894
X102.708 Y35.917
X102.757 Y35.925
G3 X103.033 Y36.002 I0.001 J0.528
G1 X103.065 Y36.021
G3 X103.076 Y36.964 I-0.285 J0.475
G1 X103. Y37.012
G3 X102.439 Y37.022 I-0.288 J-0.443
G1 X102.417 Y37.009
G3 X102.423 Y36.037 I0.291 J-0.484
G1 X102.491 Y35.997
G3 X102.757 Y35.925 I0.267 J0.456
G2 X103.55 Y35.573 I-0.003 J-1.077
G3 X104.403 Y35.415 I0.531 J0.484
G2 X105.181 Y35.765 I4.447 J-8.863
X106.917 Y36.248 I3.113 J-7.816
X110.28 Y36.449 I2.632 J-15.869
G3 X113.648 Y36.371 I3.425 J75.326
G2 X115.906 Y35.951 I-0.005 J-6.305
X117.967 Y34.936 I-4.582 J-11.915
G3 X119.562 Y34.939 I0.795 J1.305
G2 X121.173 Y35.755 I5.8 J-9.45
X122.911 Y36.248 I3.076 J-7.54
X126.277 Y36.401 I2.321 J-13.929
G3 X129.645 Y36.275 I3.398 J45.747
G2 X130.246 Y36.221 I-0.002 J-3.409
G1 X130.825 Y36.117
G3 X131.278 Y36.496 I0.068 J0.379
G1 Y36.553
G3 X130.829 Y36.932 I-0.385 J0.
G2 X126.964 Y36.623 I-3.671 J21.613
X123.089 Y36.734 I0.873 J98.75
X121.215 Y37.162 I0.263 J5.464
X119.525 Y38.079 I3.931 J9.262
G3 X117.954 Y38.104 I-0.805 J-1.195
G2 X116.34 Y37.275 I-5.568 J8.862
X114.594 Y36.777 I-3.134 J7.683
X111.164 Y36.547 I-2.85 J16.788
X107.73 Y36.689 I8.183 J240.308
X105.541 Y37.089 I0.407 J8.408
X103.543 Y38.069 I2.415 J7.451
G3 X101.962 Y38.114 I-0.825 J-1.21
G2 X100.627 Y37.374 I-11.024 J18.319
X99.178 Y36.895 I-2.298 J4.519
X95.112 Y36.592 I-3.637 J21.432
X91.038 Y36.741 I2.407 J122.107
X89.192 Y37.17 I0.288 J5.419
X87.527 Y38.076 I3.954 J9.244
G3 X85.953 Y38.107 I-0.81 J-1.203
G2 X83.886 Y37.088 I-6.262 J10.104
X81.619 Y36.675 I-2.267 J6.011
G3 X76.466 Y36.614 I0.012 J-219.565
G2 X71.525 Y38.078 I-0.198 J8.402
G3 X69.968 Y38.111 I-0.804 J-1.176
G2 X68.348 Y37.279 I-5.78 J9.262
X66.598 Y36.777 I-3.117 J7.561
X63.329 Y36.557 I-2.723 J16.062
X60.055 Y36.68 I14.093 J419.994
X57.693 Y37.069 I0.407 J9.83
X55.524 Y38.081 I2.229 J7.602
G3 X53.97 Y38.112 I-0.801 J-1.2
G2 X52.354 Y37.286 I-6.176 J10.087
X50.612 Y36.779 I-3.104 J7.429
X47.294 Y36.55 I-2.787 J16.248
X43.971 Y36.681 I7.521 J233.774
X41.657 Y37.068 I0.456 J9.825
X39.536 Y38.072 I2.123 J7.231
G3 X37.97 Y38.115 I-0.817 J-1.199
G2 X36.722 Y37.415 I-11.611 J19.241
X35.373 Y36.937 I-2.387 J4.593
X31.644 Y36.574 I-3.586 J17.522
X27.9 Y36.682 I0.718 J90.412
X25.62 Y37.076 I0.47 J9.511
X23.532 Y38.074 I2.19 J7.26
G3 X21.971 Y38.111 I-0.81 J-1.185
G2 X19.885 Y37.09 I-6.33 J10.285
X17.6 Y36.675 I-2.284 J6.084
X14.721 Y36.697 I0.036 J196.82
X11.845 Y36.791 I1.194 J80.635
X11.434 Y36.825 I0.33 J6.531
G3 X11.023 Y36.858 I-0.906 J-8.506
X10.722 Y36.574 I-0.016 J-0.284
G1 Y36.436
G3 X11.048 Y36.154 I0.285 J0.
G2 X14.708 Y36.471 I4.463 J-30.272
X18.378 Y36.309 I0.687 J-26.157
X21.293 Y35.354 I-0.87 J-7.581
X21.631 Y35.146 I-3.605 J-6.264
G3 X21.967 Y34.936 I6.797 J10.442
X23.563 Y34.94 I0.794 J1.31
G2 X25.182 Y35.758 I5.722 J-9.315
X26.928 Y36.25 I3.09 J-7.632
X30.288 Y36.448 I2.621 J-15.843
G3 X33.653 Y36.37 I3.378 J73.319
G2 X35.535 Y36.102 I-0.001 J-6.744
X37.284 Y35.359 I-2.238 J-7.7
X37.627 Y35.149 I-3.679 J-6.418
G3 X37.968 Y34.936 I7.551 J11.655
X39.561 Y34.942 I0.792 J1.303
G2 X41.153 Y35.751 I5.659 J-9.161
X42.869 Y36.241 I3.096 J-7.589
X46.259 Y36.45 I2.661 J-15.585
G3 X49.654 Y36.37 I3.442 J74.545
G2 X51.522 Y36.105 I-0.004 J-6.74
X53.26 Y35.373 I-2.238 J-7.741
X53.617 Y35.158 I-3.84 J-6.768
G3 X53.97 Y34.937 I11.012 J17.197
X55.559 Y34.94 I0.792 J1.294
G2 X57.199 Y35.769 I5.676 J-9.191
X58.971 Y36.258 I3.032 J-7.527
X62.31 Y36.445 I2.601 J-16.549
G3 X65.654 Y36.37 I3.412 J77.391
G2 X67.644 Y36.046 I-0.006 J-6.307
X69.491 Y35.235 I-3.486 J-10.449
X69.73 Y35.087 I-1.358 J-2.455
G3 X69.966 Y34.934 I2.536 J3.662
X71.565 Y34.941 I0.794 J1.317
G2 X73.196 Y35.765 I5.788 J-9.423
X74.956 Y36.256 I3.03 J-7.468
X78.302 Y36.446 I2.61 J-16.355
G3 X81.652 Y36.37 I3.419 J76.827
G2 X83.286 Y36.154 I-0.006 J-6.34
X84.84 Y35.603 I-2.691 J-10.049
X85.413 Y35.286 I-1.574 J-3.523
G3 X85.965 Y34.935 I7.828 J11.687
X87.573 Y34.948 I0.793 J1.312
G2 X89.198 Y35.772 I5.337 J-8.507
X90.954 Y36.255 I3.062 J-7.695
X94.3 Y36.446 I2.612 J-16.363
G3 X97.65 Y36.37 I3.416 J77.016
G2 X99.264 Y36.159 I-0.005 J-6.317
X100.8 Y35.623 I-2.715 J-10.241
X101.395 Y35.298 I-1.579 J-3.603
G3 X101.968 Y34.935 I9.124 J13.759
X103.574 Y34.948 I0.792 J1.308
G2 X104.403 Y35.415 I5.276 J-8.396
X105.873 Y35.158 I0.562 J-1.119
G3 X107.274 Y34.644 I1.219 J1.156
G2 X108.563 Y34.729 I1.642 J-15.027
X110.692 Y34.753 I2.062 J-88.127
X114.655 Y34.529 I-0.027 J-35.51
X118.163 Y32.669 I-0.609 J-5.388
G3 X119.338 Y32.636 I0.603 J0.517
G2 X120.735 Y33.833 I6.817 J-6.545
X122.437 Y34.528 I2.386 J-3.407
X126.019 Y34.762 I2.953 J-17.726
G3 X129.608 Y34.698 I3.658 J104.475
G2 X130.876 Y34.541 I-0.003 J-5.236
X132.084 Y34.124 I-1.787 J-7.14
G3 X132.898 Y34.653 I0.235 J0.528
G1 Y38.402
G3 X132.092 Y38.926 I-0.573 J0.
G2 X130.881 Y38.506 I-3.08 J6.941
X129.61 Y38.348 I-1.267 J4.988
G1 X123.166 Y38.337
G2 X121.03 Y38.986 I0.22 J4.563
X119.291 Y40.386 I4.245 J7.053
G3 X118.143 Y40.359 I-0.561 J-0.53
G2 X113.497 Y38.238 I-4.61 J3.952
X108.39 Y38.295 I2.936 J497.45
X105.594 Y38.834 I0.133 J8.199
X103.242 Y40.44 I2.196 J5.743
G3 X102.198 Y40.423 I-0.514 J-0.468
G2 X97.585 Y38.294 I-4.614 J3.935
G1 X92.405
G2 X89.597 Y38.824 I0. J7.711
X87.239 Y40.441 I2.299 J5.877
G3 X86.198 Y40.423 I-0.513 J-0.469
G2 X81.508 Y38.279 I-4.652 J3.974
G3 X76.352 Y38.294 I-5.111 J-841.569
G2 X74.754 Y38.456 I0. J7.957
X73.215 Y38.915 I1.836 J8.959
X72.141 Y39.566 I1.399 J3.523
X71.24 Y40.44 I6.833 J7.938
G3 X70.197 Y40.422 I-0.514 J-0.469
G2 X65.481 Y38.269 I-4.657 J3.96
G3 X60.298 Y38.294 I-5.155 J-533.82
G2 X58.38 Y38.529 I0. J7.953
X56.592 Y39.259 I1.617 J6.513
X55.899 Y39.78 I1.976 J3.356
X55.285 Y40.392 I10.507 J11.158
G3 X54.153 Y40.366 I-0.554 J-0.525
G2 X49.337 Y38.171 I-4.805 J4.161
X44.046 Y38.299 I0.21 J118.641
X41.466 Y38.881 I0.351 J7.567
X39.291 Y40.386 I2.478 J5.904
G3 X38.141 Y40.358 I-0.562 J-0.531
G2 X36.109 Y38.831 I-4.45 J3.808
X33.625 Y38.295 I-2.485 J5.481
G3 X28.207 Y38.272 I0.057 J-678.364
G2 X23.242 Y40.438 I-0.054 J6.654
G3 X22.197 Y40.417 I-0.513 J-0.469
G2 X17.301 Y38.19 I-4.8 J4.054
X11.924 Y38.367 I2.352 J153.075
X10.846 Y38.489 I0.441 J8.723
X9.799 Y38.771 I1.067 J6.041
G3 X9.102 Y38.285 I-0.179 J-0.486
G1 Y34.908
G3 X9.931 Y34.292 I0.643 J0.
G2 X12.128 Y34.681 I2.757 J-9.179
X14.358 Y34.748 I2.3 J-39.314
X16.776 Y34.743 I0.595 J-335.333
X19.184 Y34.517 I-0.075 J-13.72
X20.832 Y33.84 I-0.781 J-4.244
X22.168 Y32.663 I-4.031 J-5.921
G3 X23.34 Y32.637 I0.597 J0.528
G2 X24.737 Y33.833 I6.868 J-6.615
X26.44 Y34.528 I2.38 J-3.398
X28.425 Y34.721 I2.435 J-14.721
X30.42 Y34.751 I1.983 J-65.731
X34.518 Y34.55 I-0.008 J-42.062
X38.164 Y32.669 I-0.542 J-5.522
G3 X39.354 Y32.652 I0.603 J0.524
G2 X41.384 Y34.16 I4.98 J-4.583
X43.848 Y34.727 I2.471 J-5.101
G3 X47.133 Y34.854 I-0.051 J43.92
G2 X50.415 Y34.681 I0.974 J-12.793
X52.461 Y33.993 I-1.354 J-7.405
X54.165 Y32.667 I-2.549 J-5.036
G3 X55.34 Y32.637 I0.601 J0.524
G2 X56.701 Y33.808 I7.007 J-6.771
X58.353 Y34.509 I2.415 J-3.397
X60.436 Y34.728 I2.42 J-13.003
X62.531 Y34.753 I2.024 J-79.417
X66.567 Y34.55 I-0.036 J-40.873
X70.149 Y32.678 I-0.541 J-5.398
G3 X71.347 Y32.643 I0.615 J0.526
G2 X72.802 Y33.863 I6.416 J-6.176
X74.569 Y34.558 I2.464 J-3.674
X76.573 Y34.736 I2.273 J-14.248
X78.585 Y34.753 I1.92 J-102.744
X82.599 Y34.539 I-0.034 J-38.384
X86.16 Y32.673 I-0.576 J-5.429
G3 X87.346 Y32.644 I0.607 J0.522
G2 X88.826 Y33.876 I6.01 J-5.716
X90.623 Y34.568 I2.525 J-3.873
X92.627 Y34.741 I2.19 J-13.722
X94.639 Y34.753 I1.892 J-141.38
X98.53 Y34.563 I-0.034 J-40.453
X102.021 Y32.833 I-0.533 J-5.462
G1 X102.096 Y32.746
X102.171 Y32.659
G3 X103.341 Y32.638 I0.594 J0.528
G2 X104.738 Y33.837 I6.611 J-6.297
X106.443 Y34.53 I2.39 J-3.435
X107.274 Y34.644 I2.474 J-14.913
X108.304 Y34.05 I0.109 J-1.
G3 X109.291 Y33.388 I1.017 J0.449
X110.689 Y33.369 I1.395 J52.013
G2 X113.613 Y33.322 I0.005 J-90.553
X116.425 Y32.514 I-0.192 J-5.964
X118.058 Y30.638 I-1.949 J-3.346
X118.54 Y28.197 I-5.969 J-2.448
X117.137 Y25.142 I-4.015 J-0.005
X114.091 Y23.718 I-4.09 J4.777
X111.253 Y23.569 I-2.073 J12.311
G3 X108.413 Y23.679 I-3.857 J-62.795
G2 X105.81 Y24.146 I0.133 J8.224
X103.765 Y25.824 I1.29 J3.656
X103.266 Y29.802 I4.32 J2.563
X105.813 Y32.899 I4.907 J-1.441
X108.223 Y33.428 I2.185 J-4.202
G3 X109.291 Y33.388 I2.463 J51.973
G2 X111.425 Y31.931 I-0.064 J-2.385
G3 X113.578 Y30.502 I2.154 J0.909
G1 X113.643 Y30.501
X114.41 Y30.363
X114.479 Y30.331
X114.982 Y30.038
X115.037 Y29.99
X115.439 Y29.504
X115.517 Y29.309
X115.674 Y28.863
X115.675 Y28.194
X115.642 Y28.082
X115.444 Y27.551
X115.36 Y27.441
X115.012 Y27.032
X114.702 Y26.845
X114.424 Y26.689
X114.143 Y26.633
X113.615 Y26.544
X110.688
X108.459
X108.013 Y26.551
X107.348 Y26.586
X106.773 Y26.809
X106.675 Y26.88
X106.303 Y27.193
X106.229 Y27.286
X105.939 Y27.776
X105.802 Y28.389
X105.868 Y29.016
X106.125 Y29.579
X106.229 Y29.703
X106.551 Y30.041
X106.626 Y30.091
X107.135 Y30.356
X107.874 Y30.479
X109.797
X110.689 Y30.504
X113.578 Y30.502
X113.614 Y30.506
X121.239 Y32.284
X121.285 Y32.303
G2 X123.28 Y32.898 I2.158 J-3.591
X129.643 Y33.019 I6.256 J-161.136
X134.18 Y29.006 I-0.003 J-4.575
X130.559 Y24.15 I-4.346 J-0.538
X126.905 Y23.912 I-2.995 J17.848
X123.246 Y24.068 I11.09 J304.199
X120.626 Y25.312 I0.183 J3.766
X119.331 Y27.908 I4.047 J3.64
X121.285 Y32.303 I4.112 J0.804
X123.972 Y31.731 I1.037 J-1.726
G3 X126.425 Y30.495 I2.374 J1.66
G1 X126.743 Y30.504
X129.641 Y30.502
X130.409 Y30.364
X130.508 Y30.315
X130.996 Y30.028
X131.099 Y29.917
X131.439 Y29.504
X131.517 Y29.309
X131.674 Y28.863
X131.678 Y28.218
X131.662 Y28.138
X131.444 Y27.553
X131.373 Y27.457
X131.019 Y27.041
X130.906 Y26.963
X130.422 Y26.688
X130.143 Y26.633
X129.614 Y26.544
X124.067 Y26.549
X123.368 Y26.582
X123.217 Y26.633
X122.785 Y26.803
X122.729 Y26.836
X122.283 Y27.214
X122.226 Y27.291
X121.944 Y27.762
X121.837 Y28.209
X121.802 Y28.391
X121.866 Y29.002
X121.895 Y29.086
X122.13 Y29.587
X122.283 Y29.76
X122.562 Y30.05
X122.729 Y30.147
X123.132 Y30.356
X123.872 Y30.479
X125.851
X126.425 Y30.495
G3 X126.734 Y30.821 I-0.009 J0.317 F1016.
G1 X126.732 Y30.892 Z0.008
X126.73 Y30.959 Z0.031
X126.728 Y31.019 Z0.069
X126.727 Y31.069 Z0.12
X126.726 Y31.107 Z0.18
X126.725 Y31.131 Z0.247
Y31.138 Z0.317
G0 Z5.
X122.911 Y29.882
Z1.
G1 Z-1.633 F1016.
X122.904 Y29.878 Z-1.702
X122.884 Y29.868 Z-1.768
X122.852 Y29.85 Z-1.828
X122.809 Y29.827 Z-1.878
X122.757 Y29.8 Z-1.916
X122.713 Y29.752 Z-1.94
X122.667 Y29.703 Z-1.95
X122.391 Y29.406 Z-1.964
X122.173 Y28.92 Z-1.983
X122.122 Y28.389 Z-2.001
X122.235 Y27.889 Z-2.019
X122.283 Y27.807 Z-2.023
X122.523 Y27.421 Z-2.038
X122.932 Y27.084 Z-2.057
X123.426 Y26.895 Z-2.075
X123.956 Y26.871 Z-2.094
X123.978 Y26.887 Z-2.095
X123.709 Y27.063 Z-2.106
X123.621 Y27.161 Z-2.111
X123.299 Y27.573 Z-2.129
X123.175 Y27.908 Z-2.141
X123.08 Y28.194 Z-2.152
Y28.849 Z-2.175
X123.279 Y29.434 Z-2.196
X123.339 Y29.532 Z-2.2
X123.699 Y29.977 Z-2.22
X123.954 Y30.145 Z-2.231
X123.932 Y30.162 Z-2.232
X123.77 Y30.143 Z-2.238
X123.231 Y30.054 Z-2.257
X122.757 Y29.8 Z-2.276
X122.391 Y29.406 Z-2.294
X122.173 Y28.92 Z-2.313
X122.122 Y28.389 Z-2.332
X122.235 Y27.889 Z-2.35
X122.283 Y27.807 Z-2.353
X122.523 Y27.421 Z-2.369
X122.932 Y27.084 Z-2.387
X123.426 Y26.895 Z-2.406
X123.956 Y26.871 Z-2.424
X123.978 Y26.887 Z-2.425
X123.709 Y27.063 Z-2.436
X123.621 Y27.161 Z-2.441
X123.299 Y27.573 Z-2.459
X123.175 Y27.908 Z-2.472
X123.08 Y28.194 Z-2.482
Y28.849 Z-2.505
X123.279 Y29.434 Z-2.527
X123.339 Y29.532 Z-2.531
X123.699 Y29.977 Z-2.551
X123.954 Y30.145 Z-2.561
X123.932 Y30.162 Z-2.562
X123.77 Y30.143 Z-2.568
X123.231 Y30.054 Z-2.587
X122.757 Y29.8 Z-2.606
X122.391 Y29.406 Z-2.625
X122.173 Y28.92 Z-2.643
X122.122 Y28.389 Z-2.662
X122.235 Y27.889 Z-2.68
X122.283 Y27.807 Z-2.683
X122.523 Y27.421 Z-2.699
X122.932 Y27.084 Z-2.717
X123.426 Y26.895 Z-2.736
X123.956 Y26.871 Z-2.754
X123.978 Y26.887 Z-2.755
X123.709 Y27.063 Z-2.767
X123.621 Y27.161 Z-2.771
X123.299 Y27.573 Z-2.789
X123.175 Y27.908 Z-2.802
X123.08 Y28.194 Z-2.812
Y28.849 Z-2.835
X123.279 Y29.434 Z-2.857
X123.339 Y29.532 Z-2.861
X123.699 Y29.977 Z-2.881
X123.954 Y30.145 Z-2.892
X123.932 Y30.162 Z-2.893
X123.77 Y30.143 Z-2.898
X123.231 Y30.054 Z-2.917
X122.757 Y29.8 Z-2.936
X122.391 Y29.406 Z-2.955
X122.173 Y28.92 Z-2.973
X122.122 Y28.389 Z-2.992
X122.172 Y28.169 Z-3.
X122.235 Y27.889 F1816.
X122.283 Y27.807
X122.523 Y27.421
X122.932 Y27.084
X123.426 Y26.895
X123.956 Y26.871
X123.978 Y26.887
X123.709 Y27.063
X123.621 Y27.161
X123.299 Y27.573
X123.175 Y27.908
X123.08 Y28.194
Y28.849
X123.279 Y29.434
X123.339 Y29.532
X123.699 Y29.977
X123.954 Y30.145
X123.932 Y30.162
X123.77 Y30.143
X123.231 Y30.054
X122.757 Y29.8
X122.391 Y29.406
X122.173 Y28.92
X122.122 Y28.389
X122.172 Y28.169
X122.186 Y28.122 Z-2.992 F1016.
X122.208 Y28.078 Z-2.984
X122.233 Y28.042 Z-2.962
X122.263 Y28.009 Z-2.939
X122.319 Y27.967 Z-2.869
X122.359 Y27.946 Z-2.781
X122.373 Y27.941 Z-2.683
G0 Z5.
X123.401 Y28.225
Z-2.
G1 Z-3.133 F1016.
X123.404 Y28.218 Z-3.202
X123.411 Y28.197 Z-3.268
X123.423 Y28.162 Z-3.327
X123.439 Y28.117 Z-3.377
X123.459 Y28.062 Z-3.415
X123.48 Y28.001 Z-3.44
X123.503 Y27.936 Z-3.45
X123.577 Y27.728 Z-3.458
X123.621 Y27.672 Z-3.46
X123.923 Y27.297 Z-3.477
X124.611 Y26.863 Z-3.505
X125.469 Y26.861 Z-3.535
X125.482 Y26.875 Z-3.536
X125.274 Y26.997 Z-3.544
X124.843 Y27.479 Z-3.567
X124.592 Y28.082 Z-3.59
X124.552 Y28.723 Z-3.612
X124.584 Y28.863 Z-3.617
X124.729 Y29.357 Z-3.635
X124.823 Y29.503 Z-3.641
X125.107 Y29.9 Z-3.658
X125.434 Y30.141 Z-3.673
X125.419 Y30.162
X124.569 Y30.158 Z-3.703
X123.917 Y29.746 Z-3.73
X123.571 Y29.309 Z-3.75
X123.392 Y28.793 Z-3.769
Y28.25 Z-3.788
X123.577 Y27.728 Z-3.807
X123.621 Y27.672 Z-3.809
X123.923 Y27.297 Z-3.826
X124.611 Y26.863 Z-3.855
X125.469 Y26.861 Z-3.885
X125.482 Y26.875
X125.274 Y26.997 Z-3.894
X124.843 Y27.479 Z-3.916
X124.592 Y28.082 Z-3.939
X124.552 Y28.723 Z-3.961
X124.584 Y28.863 Z-3.966
X124.729 Y29.357 Z-3.984
X124.823 Y29.503 Z-3.991
X125.107 Y29.9 Z-4.008
X125.434 Y30.141 Z-4.022
X125.419 Y30.162 Z-4.023
X124.569 Y30.158 Z-4.052
X123.917 Y29.746 Z-4.079
X123.571 Y29.309 Z-4.099
X123.392 Y28.793 Z-4.118
Y28.25 Z-4.137
X123.577 Y27.728 Z-4.156
X123.621 Y27.672 Z-4.159
X123.923 Y27.297 Z-4.175
X124.611 Y26.863 Z-4.204
X125.469 Y26.861 Z-4.234
X125.482 Y26.875
X125.274 Y26.997 Z-4.243
X124.843 Y27.479 Z-4.265
X124.592 Y28.082 Z-4.288
X124.552 Y28.723 Z-4.311
X124.584 Y28.863 Z-4.316
X124.729 Y29.357 Z-4.334
X124.823 Y29.503 Z-4.34
X125.107 Y29.9 Z-4.357
X125.434 Y30.141 Z-4.371
X125.419 Y30.162 Z-4.372
X124.569 Y30.158 Z-4.401
X123.917 Y29.746 Z-4.428
X123.571 Y29.309 Z-4.448
X123.392 Y28.793 Z-4.467
Y28.25 Z-4.486
X123.526 Y27.87 Z-4.5
X123.577 Y27.728 F1816.
X123.621 Y27.672
X123.923 Y27.297
X124.611 Y26.863
X125.469 Y26.861
X125.482 Y26.875
X125.274 Y26.997
X124.843 Y27.479
X124.592 Y28.082
X124.552 Y28.723
X124.584 Y28.863
X124.729 Y29.357
X124.823 Y29.503
X125.107 Y29.9
X125.434 Y30.141
X125.419 Y30.162
X124.569 Y30.158
X123.917 Y29.746
X123.571 Y29.309
X123.392 Y28.793
Y28.25
X123.526 Y27.87
X123.546 Y27.825 Z-4.492 F1016.
X123.573 Y27.784 Z-4.484
X123.602 Y27.75 Z-4.462
X123.635 Y27.721 Z-4.439
X123.696 Y27.686 Z-4.369
X123.738 Y27.67 Z-4.281
X123.753 Y27.666 Z-4.183
G0 Z5.
X125.569 Y29.844
Z0.948
G1 Z-5.133 F1016.
X125.563 Y29.84 Z-5.202
X125.544 Y29.829 Z-5.268
X125.517 Y29.809 Z-5.323
X125.481 Y29.782 Z-5.371
X125.439 Y29.751 Z-5.409
X125.391 Y29.715 Z-5.435
X125.364 Y29.683 Z-5.445
X125.336 Y29.649 Z-5.45
X125.228 Y29.519 Z-5.456
X125.053 Y29.271 Z-5.466
X124.914 Y28.863 Z-5.482
X124.884 Y28.751 Z-5.486
X124.886 Y28.417 Z-5.497
X124.898 Y28.203 Z-5.505
X124.959 Y28.036 Z-5.511
X125.101 Y27.678 Z-5.524
X125.451 Y27.269 Z-5.543
X125.948 Y26.982 Z-5.563
X126.667 Y26.861 Z-5.589
X126.743 Z-5.591
Y26.875 Z-5.592
X126.478 Y27.039 Z-5.603
X126.052 Y27.553 Z-5.626
X125.826 Y28.174 Z-5.649
X125.817 Y28.255 Z-5.652
X125.823 Y28.863 Z-5.673
X126.031 Y29.448 Z-5.695
X126.086 Y29.546 Z-5.699
X126.485 Y30.015 Z-5.72
X126.631 Y30.108 Z-5.726
X126.743 Y30.173 Z-5.731
Y30.186
X126.603 Y30.182 Z-5.736
X126.074 Y30.085 Z-5.755
X125.851 Y30.014 Z-5.763
X125.544 Y29.829 Z-5.776
X125.391 Y29.715 Z-5.782
X125.228 Y29.519 Z-5.791
X125.053 Y29.271 Z-5.802
X124.914 Y28.863 Z-5.817
X124.884 Y28.751 Z-5.821
X124.886 Y28.417 Z-5.833
X124.898 Y28.203 Z-5.84
X124.959 Y28.036 Z-5.846
X125.101 Y27.678 Z-5.86
X125.451 Y27.269 Z-5.879
X125.948 Y26.982 Z-5.899
X126.667 Y26.861 Z-5.924
X126.743 Z-5.927
Y26.875
X126.478 Y27.039 Z-5.938
X126.052 Y27.553 Z-5.961
X125.826 Y28.174 Z-5.984
X125.817 Y28.255 Z-5.987
X125.823 Y28.863 Z-6.009
X126.031 Y29.448 Z-6.03
X126.086 Y29.546 Z-6.034
X126.485 Y30.015 Z-6.056
X126.631 Y30.108 Z-6.062
X126.743 Y30.173 Z-6.066
Y30.186 Z-6.067
X126.603 Y30.182 Z-6.072
X126.074 Y30.085 Z-6.09
X125.851 Y30.014 Z-6.099
X125.544 Y29.829 Z-6.111
X125.391 Y29.715 Z-6.118
X125.228 Y29.519 Z-6.127
X125.053 Y29.271 Z-6.137
X124.914 Y28.863 Z-6.152
X124.884 Y28.751 Z-6.156
X124.886 Y28.417 Z-6.168
X124.898 Y28.203 Z-6.175
X124.959 Y28.036 Z-6.182
X125.101 Y27.678 Z-6.195
X125.451 Y27.269 Z-6.214
X125.948 Y26.982 Z-6.234
X126.667 Y26.861 Z-6.259
X126.743 Z-6.262
Y26.875 Z-6.263
X126.478 Y27.039 Z-6.273
X126.052 Y27.553 Z-6.297
X125.826 Y28.174 Z-6.32
X125.817 Y28.255 Z-6.323
X125.823 Y28.863 Z-6.344
X126.031 Y29.448 Z-6.366
X126.086 Y29.546 Z-6.369
X126.485 Y30.015 Z-6.391
X126.631 Y30.108 Z-6.397
X126.743 Y30.173 Z-6.402
Y30.186
X126.603 Y30.182 Z-6.407
X126.074 Y30.085 Z-6.426
X125.851 Y30.014 Z-6.434
X125.544 Y29.829 Z-6.446
X125.391 Y29.715 Z-6.453
X125.228 Y29.519 Z-6.462
X125.053 Y29.271 Z-6.473
X124.914 Y28.863 Z-6.488
X124.884 Y28.751 Z-6.492
X124.885 Y28.511 Z-6.5
X124.886 Y28.417 F1816.
X124.898 Y28.203
X124.959 Y28.036
X125.101 Y27.678
X125.451 Y27.269
X125.948 Y26.982
X126.667 Y26.861
X126.743
Y26.875
X126.478 Y27.039
X126.052 Y27.553
X125.826 Y28.174
X125.817 Y28.255
X125.823 Y28.863
X126.031 Y29.448
X126.086 Y29.546
X126.485 Y30.015
X126.631 Y30.108
X126.743 Y30.173
Y30.186
X126.603 Y30.182
X126.074 Y30.085
X125.851 Y30.014
X125.544 Y29.829
X125.391 Y29.715
X125.228 Y29.519
X125.053 Y29.271
X124.914 Y28.863
X124.884 Y28.751
X124.885 Y28.511
X124.889 Y28.463 Z-6.492 F1016.
X124.901 Y28.415 Z-6.484
X124.917 Y28.374 Z-6.462
X124.939 Y28.336 Z-6.439
X124.984 Y28.282 Z-6.369
X125.019 Y28.254 Z-6.281
X125.032 Y28.245 Z-6.183
G0 Z5.
X127.92 Y26.861
Z1.
G1 Z-6.633 F1016.
G18 G2 X128.227 Z-6.95 I0.318 K0.
G1 X128.722 Z-6.967
X128.737 Y26.879 Z-6.968
X128.505 Y27.016 Z-6.977
X128.441 Y27.079 Z-6.981
X128.06 Y27.539 Z-7.001
X127.976 Y27.748 Z-7.009
X127.824 Y28.18 Z-7.025
X127.818 Y28.417 Z-7.034
X127.823 Y28.863 Z-7.049
X128.052 Y29.496 Z-7.073
X128.261 Y29.755 Z-7.084
X128.486 Y30.016 Z-7.096
X128.737 Y30.169 Z-7.107
X128.721 Y30.186
X127.858 Y30.181 Z-7.138
X127.189 Y30.063 Z-7.161
X126.692 Y29.775 Z-7.181
X126.328 Y29.337 Z-7.201
X126.136 Y28.807 Z-7.221
X126.137 Y28.236 Z-7.241
X126.297 Y27.796 Z-7.257
X126.34 Y27.694 Z-7.261
X126.707 Y27.263 Z-7.281
X127.189 Y26.985 Z-7.3
X127.913 Y26.861 Z-7.326
X128.722 Z-7.354
X128.737 Y26.879 Z-7.355
X128.505 Y27.016 Z-7.364
X128.441 Y27.079 Z-7.367
X128.06 Y27.539 Z-7.388
X127.976 Y27.748 Z-7.396
X127.824 Y28.18 Z-7.412
X127.818 Y28.417 Z-7.42
X127.823 Y28.863 Z-7.436
X128.052 Y29.496 Z-7.46
X128.261 Y29.755 Z-7.471
X128.486 Y30.016 Z-7.483
X128.737 Y30.169 Z-7.493
X128.721 Y30.186 Z-7.494
X127.858 Y30.181 Z-7.524
X127.189 Y30.063 Z-7.548
X126.692 Y29.775 Z-7.568
X126.328 Y29.337 Z-7.588
X126.136 Y28.807 Z-7.608
X126.137 Y28.236 Z-7.628
X126.297 Y27.796 Z-7.644
X126.34 Y27.694 Z-7.648
X126.707 Y27.263 Z-7.668
X127.189 Y26.985 Z-7.687
X127.913 Y26.861 Z-7.713
X128.722 Z-7.741
X128.737 Y26.879 Z-7.742
X128.505 Y27.016 Z-7.751
X128.441 Y27.079 Z-7.754
X128.06 Y27.539 Z-7.775
X127.976 Y27.748 Z-7.783
X127.824 Y28.18 Z-7.799
X127.818 Y28.417 Z-7.807
X127.823 Y28.863 Z-7.823
X128.052 Y29.496 Z-7.846
X128.261 Y29.755 Z-7.858
X128.486 Y30.016 Z-7.87
X128.737 Y30.169 Z-7.88
X128.721 Y30.186 Z-7.881
X127.858 Y30.181 Z-7.911
X127.189 Y30.063 Z-7.935
X126.692 Y29.775 Z-7.955
X126.328 Y29.337 Z-7.975
X126.136 Y28.807 Z-7.995
Y28.655 Z-8.
X126.137 Y28.236 F1816.
X126.297 Y27.796
X126.34 Y27.694
X126.707 Y27.263
X127.189 Y26.985
X127.913 Y26.861
X128.722
X128.737 Y26.879
X128.505 Y27.016
X128.441 Y27.079
X128.06 Y27.539
X127.976 Y27.748
X127.824 Y28.18
X127.818 Y28.417
X127.823 Y28.863
X128.052 Y29.496
X128.261 Y29.755
X128.486 Y30.016
X128.737 Y30.169
X128.721 Y30.186
X127.858 Y30.181
X127.189 Y30.063
X126.692 Y29.775
X126.328 Y29.337
X126.136 Y28.807
Y28.655
X126.14 Y28.606 Z-7.992 F1016.
X126.151 Y28.558 Z-7.984
X126.168 Y28.517 Z-7.962
X126.19 Y28.479 Z-7.939
X126.235 Y28.425 Z-7.869
X126.27 Y28.397 Z-7.781
X126.283 Y28.388 Z-7.683
G0 Z5.
X106.809 Y29.825
Z1.
G1 Z-1.633 F1016.
X106.803 Y29.822 Z-1.701
X106.783 Y29.811 Z-1.766
X106.752 Y29.795 Z-1.824
X106.719 Y29.759 Z-1.875
X106.68 Y29.716 Z-1.914
X106.635 Y29.668 Z-1.94
X106.587 Y29.618 Z-1.95
X106.393 Y29.41 Z-1.96
X106.175 Y28.934 Z-1.978
X106.122 Y28.389 Z-1.997
X106.229 Y27.915 Z-2.014
X106.247 Y27.866 Z-2.016
X106.523 Y27.422 Z-2.034
X106.929 Y27.085 Z-2.053
X107.428 Y26.895 Z-2.071
X107.955 Y26.871 Z-2.09
X107.977 Y26.888 Z-2.091
X107.708 Y27.063 Z-2.102
X107.567 Y27.229 Z-2.11
X107.294 Y27.581 Z-2.125
X107.08 Y28.195 Z-2.148
Y28.849 Z-2.171
X107.279 Y29.434 Z-2.192
X107.339 Y29.532 Z-2.196
X107.685 Y29.964 Z-2.216
X107.782 Y30.037 Z-2.22
X107.946 Y30.14 Z-2.227
X107.933 Y30.162 Z-2.228
X107.794 Y30.147 Z-2.232
X107.219 Y30.047 Z-2.253
X106.752 Y29.795 Z-2.271
X106.393 Y29.41 Z-2.29
X106.175 Y28.934 Z-2.308
X106.122 Y28.389 Z-2.327
X106.229 Y27.915 Z-2.344
X106.247 Y27.866 Z-2.346
X106.523 Y27.422 Z-2.364
X106.929 Y27.085 Z-2.383
X107.428 Y26.895 Z-2.401
X107.955 Y26.871 Z-2.42
X107.977 Y26.888 Z-2.421
X107.708 Y27.063 Z-2.432
X107.567 Y27.229 Z-2.439
X107.294 Y27.581 Z-2.455
X107.08 Y28.195 Z-2.478
Y28.849 Z-2.501
X107.279 Y29.434 Z-2.522
X107.339 Y29.532 Z-2.526
X107.685 Y29.964 Z-2.546
X107.782 Y30.037 Z-2.55
X107.946 Y30.14 Z-2.557
X107.933 Y30.162
X107.794 Y30.147 Z-2.562
X107.219 Y30.047 Z-2.583
X106.752 Y29.795 Z-2.601
X106.393 Y29.41 Z-2.62
X106.175 Y28.934 Z-2.638
X106.122 Y28.389 Z-2.657
X106.229 Y27.915 Z-2.674
X106.247 Y27.866 Z-2.676
X106.523 Y27.422 Z-2.694
X106.929 Y27.085 Z-2.712
X107.428 Y26.895 Z-2.731
X107.955 Y26.871 Z-2.749
X107.977 Y26.888 Z-2.75
X107.708 Y27.063 Z-2.762
X107.567 Y27.229 Z-2.769
X107.294 Y27.581 Z-2.785
X107.08 Y28.195 Z-2.808
Y28.849 Z-2.83
X107.279 Y29.434 Z-2.852
X107.339 Y29.532 Z-2.856
X107.685 Y29.964 Z-2.875
X107.782 Y30.037 Z-2.88
X107.946 Y30.14 Z-2.886
X107.933 Y30.162 Z-2.887
X107.794 Y30.147 Z-2.892
X107.219 Y30.047 Z-2.912
X106.752 Y29.795 Z-2.931
X106.393 Y29.41 Z-2.949
X106.175 Y28.934 Z-2.968
X106.122 Y28.389 Z-2.987
X106.206 Y28.02 Z-3.
X106.229 Y27.915 F1816.
X106.247 Y27.866
X106.523 Y27.422
X106.929 Y27.085
X107.428 Y26.895
X107.955 Y26.871
X107.977 Y26.888
X107.708 Y27.063
X107.567 Y27.229
X107.294 Y27.581
X107.08 Y28.195
Y28.849
X107.279 Y29.434
X107.339 Y29.532
X107.685 Y29.964
X107.782 Y30.037
X107.946 Y30.14
X107.933 Y30.162
X107.794 Y30.147
X107.219 Y30.047
X106.752 Y29.795
X106.393 Y29.41
X106.175 Y28.934
X106.122 Y28.389
X106.206 Y28.02
X106.22 Y27.973 Z-2.992 F1016.
X106.242 Y27.929 Z-2.984
X106.267 Y27.893 Z-2.962
X106.296 Y27.86 Z-2.939
X106.352 Y27.818 Z-2.869
X106.392 Y27.797 Z-2.781
X106.407 Y27.792 Z-2.683
G0 Z5.
X107.392 Y28.295
Z-2.
G1 Z-3.133 F1016.
Y28.29 Z-3.19
Y28.274 Z-3.245
Y28.25 Z-3.296
X107.405 Y28.214 Z-3.347
X107.42 Y28.17 Z-3.389
X107.438 Y28.118 Z-3.421
X107.458 Y28.062 Z-3.442
X107.478 Y28.003 Z-3.45
X107.567 Y27.748 Z-3.459
X107.738 Y27.525 Z-3.469
X107.918 Y27.3 Z-3.479
X108.612 Y26.862 Z-3.508
X109.449 Y26.861 Z-3.537
X109.468 Y26.883 Z-3.538
X109.273 Y26.999 Z-3.546
X108.843 Y27.479 Z-3.569
X108.6 Y28.054 Z-3.59
X108.584 Y28.138 Z-3.593
X108.553 Y28.737 Z-3.614
X108.723 Y29.348 Z-3.636
X108.796 Y29.465 Z-3.641
X109.093 Y29.884 Z-3.659
X109.175 Y29.954 Z-3.663
X109.434 Y30.142 Z-3.674
X109.421 Y30.162 Z-3.675
X108.571 Y30.159 Z-3.705
X107.915 Y29.745 Z-3.732
X107.571 Y29.309 Z-3.751
X107.392 Y28.793 Z-3.77
Y28.25 Z-3.789
X107.567 Y27.748 Z-3.808
X107.738 Y27.525 Z-3.818
X107.918 Y27.3 Z-3.828
X108.612 Y26.862 Z-3.856
X109.449 Y26.861 Z-3.886
X109.468 Y26.883 Z-3.887
X109.273 Y26.999 Z-3.894
X108.843 Y27.479 Z-3.917
X108.6 Y28.054 Z-3.939
X108.584 Y28.138 Z-3.942
X108.553 Y28.737 Z-3.963
X108.723 Y29.348 Z-3.985
X108.796 Y29.465 Z-3.99
X109.093 Y29.884 Z-4.008
X109.175 Y29.954 Z-4.011
X109.434 Y30.142 Z-4.023
X109.421 Y30.162
X108.571 Y30.159 Z-4.053
X107.915 Y29.745 Z-4.08
X107.571 Y29.309 Z-4.1
X107.392 Y28.793 Z-4.119
Y28.25 Z-4.138
X107.567 Y27.748 Z-4.156
X107.738 Y27.525 Z-4.166
X107.918 Y27.3 Z-4.176
X108.612 Y26.862 Z-4.205
X109.449 Y26.861 Z-4.234
X109.468 Y26.883 Z-4.235
X109.273 Y26.999 Z-4.243
X108.843 Y27.479 Z-4.265
X108.6 Y28.054 Z-4.287
X108.584 Y28.138 Z-4.29
X108.553 Y28.737 Z-4.311
X108.723 Y29.348 Z-4.333
X108.796 Y29.465 Z-4.338
X109.093 Y29.884 Z-4.356
X109.175 Y29.954 Z-4.36
X109.434 Y30.142 Z-4.371
X109.421 Y30.162 Z-4.372
X108.571 Y30.159 Z-4.401
X107.915 Y29.745 Z-4.429
X107.571 Y29.309 Z-4.448
X107.392 Y28.793 Z-4.467
Y28.25 Z-4.486
X107.525 Y27.87 Z-4.5
X107.567 Y27.748 F1816.
X107.738 Y27.525
X107.918 Y27.3
X108.612 Y26.862
X109.449 Y26.861
X109.468 Y26.883
X109.273 Y26.999
X108.843 Y27.479
X108.6 Y28.054
X108.584 Y28.138
X108.553 Y28.737
X108.723 Y29.348
X108.796 Y29.465
X109.093 Y29.884
X109.175 Y29.954
X109.434 Y30.142
X109.421 Y30.162
X108.571 Y30.159
X107.915 Y29.745
X107.571 Y29.309
X107.392 Y28.793
Y28.25
X107.525 Y27.87
X107.544 Y27.826 Z-4.492 F1016.
X107.571 Y27.784 Z-4.484
X107.6 Y27.751 Z-4.462
X107.633 Y27.722 Z-4.439
X107.693 Y27.686 Z-4.369
X107.735 Y27.67 Z-4.281
X107.751 Y27.666 Z-4.183
G0 Z5.
X109.759 Y29.96
Z0.979
G1 Z-5.133 F1016.
X109.753 Y29.956 Z-5.198
X109.736 Y29.946 Z-5.26
X109.708 Y29.93 Z-5.317
X109.671 Y29.908 Z-5.366
X109.626 Y29.881 Z-5.405
X109.575 Y29.851 Z-5.433
X109.538 Y29.824 Z-5.445
X109.5 Y29.797 Z-5.45
X109.396 Y29.721 Z-5.454
X109.056 Y29.281 Z-5.474
X108.905 Y28.831 Z-5.49
X108.884 Y28.754 Z-5.493
X108.892 Y28.3 Z-5.509
X108.905 Y28.182 Z-5.513
X109.101 Y27.678 Z-5.532
X109.457 Y27.262 Z-5.551
X109.95 Y26.981 Z-5.571
X110.658 Y26.861 Z-5.596
X110.708 Z-5.598
X110.728 Y26.884 Z-5.599
X110.486 Y27.031 Z-5.609
X110.069 Y27.525 Z-5.631
X110.016 Y27.636 Z-5.636
X109.827 Y28.166 Z-5.655
X109.817 Y28.305 Z-5.66
X109.823 Y28.863 Z-5.68
X109.98 Y29.309 Z-5.696
X110.052 Y29.494 Z-5.703
X110.154 Y29.627 Z-5.709
X110.475 Y30.005 Z-5.726
X110.582 Y30.08 Z-5.731
X110.728 Y30.164 Z-5.737
X110.708 Y30.186 Z-5.738
X110.582 Y30.178 Z-5.742
X110.076 Y30.085 Z-5.76
X109.853 Y30.015 Z-5.768
X109.575 Y29.851 Z-5.78
X109.396 Y29.721 Z-5.787
X109.056 Y29.281 Z-5.807
X108.905 Y28.831 Z-5.823
X108.884 Y28.754 Z-5.826
X108.892 Y28.3 Z-5.842
X108.905 Y28.182 Z-5.846
X109.101 Y27.678 Z-5.865
X109.457 Y27.262 Z-5.884
X109.95 Y26.981 Z-5.904
X110.658 Y26.861 Z-5.929
X110.708 Z-5.931
X110.728 Y26.884 Z-5.932
X110.486 Y27.031 Z-5.942
X110.069 Y27.525 Z-5.964
X110.016 Y27.636 Z-5.969
X109.827 Y28.166 Z-5.988
X109.817 Y28.305 Z-5.993
X109.823 Y28.863 Z-6.013
X109.98 Y29.309 Z-6.029
X110.052 Y29.494 Z-6.036
X110.154 Y29.627 Z-6.042
X110.475 Y30.005 Z-6.059
X110.582 Y30.08 Z-6.064
X110.728 Y30.164 Z-6.07
X110.708 Y30.186 Z-6.071
X110.582 Y30.178 Z-6.075
X110.076 Y30.085 Z-6.093
X109.853 Y30.015 Z-6.101
X109.575 Y29.851 Z-6.112
X109.396 Y29.721 Z-6.12
X109.056 Y29.281 Z-6.14
X108.905 Y28.831 Z-6.156
X108.884 Y28.754 Z-6.159
X108.892 Y28.3 Z-6.175
X108.905 Y28.182 Z-6.179
X109.101 Y27.678 Z-6.198
X109.457 Y27.262 Z-6.217
X109.95 Y26.981 Z-6.237
X110.658 Y26.861 Z-6.262
X110.708 Z-6.264
X110.728 Y26.884 Z-6.265
X110.486 Y27.031 Z-6.274
X110.069 Y27.525 Z-6.297
X110.016 Y27.636 Z-6.301
X109.827 Y28.166 Z-6.321
X109.817 Y28.305 Z-6.326
X109.823 Y28.863 Z-6.345
X109.98 Y29.309 Z-6.362
X110.052 Y29.494 Z-6.369
X110.154 Y29.627 Z-6.375
X110.475 Y30.005 Z-6.392
X110.582 Y30.08 Z-6.396
X110.728 Y30.164 Z-6.402
X110.708 Y30.186 Z-6.403
X110.582 Y30.178 Z-6.408
X110.076 Y30.085 Z-6.426
X109.853 Y30.015 Z-6.434
X109.575 Y29.851 Z-6.445
X109.396 Y29.721 Z-6.453
X109.056 Y29.281 Z-6.472
X108.905 Y28.831 Z-6.489
X108.884 Y28.754 Z-6.492
X108.888 Y28.517 Z-6.5
X108.892 Y28.3 F1816.
X108.905 Y28.182
X109.101 Y27.678
X109.457 Y27.262
X109.95 Y26.981
X110.658 Y26.861
X110.708
X110.728 Y26.884
X110.486 Y27.031
X110.069 Y27.525
X110.016 Y27.636
X109.827 Y28.166
X109.817 Y28.305
X109.823 Y28.863
X109.98 Y29.309
X110.052 Y29.494
X110.154 Y29.627
X110.475 Y30.005
X110.582 Y30.08
X110.728 Y30.164
X110.708 Y30.186
X110.582 Y30.178
X110.076 Y30.085
X109.853 Y30.015
X109.575 Y29.851
X109.396 Y29.721
X109.056 Y29.281
X108.905 Y28.831
X108.884 Y28.754
X108.888 Y28.517
X108.893 Y28.468 Z-6.492 F1016.
X108.905 Y28.421 Z-6.484
X108.922 Y28.38 Z-6.462
X108.945 Y28.342 Z-6.439
X108.991 Y28.289 Z-6.369
X109.026 Y28.261 Z-6.281
X109.039 Y28.252 Z-6.183
G0 Z5.
X111.812 Y26.879
Z1.
G1 Z-6.633 F1016.
X111.819 Y26.878 Z-6.698
X111.839 Y26.874 Z-6.761
X111.872 Y26.869 Z-6.819
X111.915 Y26.861 Z-6.868
X111.959 Z-6.902
X112.009 Z-6.927
X112.062 Z-6.943
X112.117 Z-6.95
X112.708 Z-6.971
X112.727 Y26.884 Z-6.972
X112.49 Y27.029 Z-6.981
X112.069 Y27.525 Z-7.004
X112.027 Y27.61 Z-7.007
X111.824 Y28.18 Z-7.029
X111.818 Y28.417 Z-7.037
X111.823 Y28.863 Z-7.052
X112.043 Y29.477 Z-7.075
X112.095 Y29.557 Z-7.078
X112.49 Y30.018 Z-7.1
X112.688 Y30.141 Z-7.108
X112.727 Y30.163 Z-7.109
X112.708 Y30.186 Z-7.11
X111.859 Y30.182 Z-7.14
X111.177 Y30.056 Z-7.164
X110.689 Y29.77 Z-7.184
X110.328 Y29.337 Z-7.204
X110.136 Y28.807 Z-7.223
X110.137 Y28.236 Z-7.243
X110.243 Y27.944 Z-7.254
X110.339 Y27.695 Z-7.264
X110.689 Y27.277 Z-7.283
X111.191 Y26.985 Z-7.303
X111.915 Y26.861 Z-7.329
X112.708 Z-7.356
X112.727 Y26.884 Z-7.357
X112.49 Y27.029 Z-7.367
X112.069 Y27.525 Z-7.39
X112.027 Y27.61 Z-7.393
X111.824 Y28.18 Z-7.414
X111.818 Y28.417 Z-7.422
X111.823 Y28.863 Z-7.438
X112.043 Y29.477 Z-7.461
X112.095 Y29.557 Z-7.464
X112.49 Y30.018 Z-7.485
X112.688 Y30.141 Z-7.493
X112.727 Y30.163 Z-7.495
X112.708 Y30.186 Z-7.496
X111.859 Y30.182 Z-7.526
X111.177 Y30.056 Z-7.55
X110.689 Y29.77 Z-7.57
X110.328 Y29.337 Z-7.589
X110.136 Y28.807 Z-7.609
X110.137 Y28.236 Z-7.629
X110.243 Y27.944 Z-7.64
X110.339 Y27.695 Z-7.649
X110.689 Y27.277 Z-7.668
X111.191 Y26.985 Z-7.688
X111.915 Y26.861 Z-7.714
X112.708 Z-7.742
X112.727 Y26.884 Z-7.743
X112.49 Y27.029 Z-7.753
X112.069 Y27.525 Z-7.775
X112.027 Y27.61 Z-7.779
X111.824 Y28.18 Z-7.8
X111.818 Y28.417 Z-7.808
X111.823 Y28.863 Z-7.824
X112.043 Y29.477 Z-7.846
X112.095 Y29.557 Z-7.85
X112.49 Y30.018 Z-7.871
X112.688 Y30.141 Z-7.879
X112.727 Y30.163 Z-7.881
X112.708 Y30.186 Z-7.882
X111.859 Y30.182 Z-7.911
X111.177 Y30.056 Z-7.936
X110.689 Y29.77 Z-7.955
X110.328 Y29.337 Z-7.975
X110.136 Y28.807 Z-7.995
Y28.655 Z-8.
X110.137 Y28.236 F1816.
X110.243 Y27.944
X110.339 Y27.695
X110.689 Y27.277
X111.191 Y26.985
X111.915 Y26.861
X112.708
X112.727 Y26.884
X112.49 Y27.029
X112.069 Y27.525
X112.027 Y27.61
X111.824 Y28.18
X111.818 Y28.417
X111.823 Y28.863
X112.043 Y29.477
X112.095 Y29.557
X112.49 Y30.018
X112.688 Y30.141
X112.727 Y30.163
X112.708 Y30.186
X111.859 Y30.182
X111.177 Y30.056
X110.689 Y29.77
X110.328 Y29.337
X110.136 Y28.807
Y28.655
X110.14 Y28.606 Z-7.992 F1016.
X110.151 Y28.558 Z-7.984
X110.168 Y28.517 Z-7.962
X110.19 Y28.479 Z-7.939
X110.235 Y28.425 Z-7.869
X110.27 Y28.397 Z-7.781
X110.283 Y28.388 Z-7.683
G0 Z5.
X101.538 Y34.549
Z1.
G1 Z0.317 F1016.
X101.534 Y34.543 Z0.247
X101.522 Y34.522 Z0.18
X101.503 Y34.49 Z0.12
X101.477 Y34.447 Z0.069
X101.446 Y34.395 Z0.031
X101.412 Y34.337 Z0.008
X101.376 Y34.276 Z0.
X101.341 Y34.225 F1816.
X101.301 Y34.179
X101.255 Y34.138
X100.279 Y33.361
G17 G3 X100.336 Y32.524 I0.317 J-0.399
G2 X102.245 Y30.192 I-2.247 J-3.786
X102.129 Y26.76 I-4.478 J-1.566
X99.841 Y24.199 I-4.944 J2.115
X97.271 Y23.601 I-2.295 J4.041
G3 X94.634 Y23.678 I-2.634 J-44.564
G1 X92.405
G2 X89.6 Y24.336 I0. J6.314
X87.484 Y26.292 I2.27 J4.577
X87.024 Y29.849 I3.863 J2.309
X89.291 Y32.627 I4.388 J-1.266
X91.853 Y33.28 I2.656 J-5.068
G3 X94.496 Y33.366 I-1.354 J82.385
G2 X98.898 Y33.066 I0.92 J-18.943
X100.336 Y32.524 I-0.808 J-4.328
X98.482 Y26.333 I-1.7 J-2.864
G3 X92.022 Y26.552 I-12.025 J-258.787
G1 X91.959 Y26.553
X91.365 Y26.583
X91.217 Y26.633
X90.761 Y26.815
X90.29 Y27.206
X90.221 Y27.3
X90.176 Y27.374
X89.944 Y27.762
X89.805 Y28.361
X89.803 Y28.417
X89.868 Y29.016
X90.126 Y29.582
X90.176 Y29.645
X90.557 Y30.047
X90.621 Y30.089
X91.123 Y30.352
X91.29 Y30.385
X91.876 Y30.479
X94.189 Y30.482
X94.635 Y30.504
X97.645 Y30.501
X98.398 Y30.367
X98.481 Y30.33
X98.997 Y30.028
X99.094 Y29.923
X99.44 Y29.504
X99.54 Y29.246
X99.674 Y28.863
X99.675 Y28.194
X99.642 Y28.082
X99.449 Y27.559
X99.346 Y27.425
X99.018 Y27.039
X98.954 Y26.991
X98.425 Y26.69
X98.314 Y26.663
X97.617 Y26.544
X92.405
X92.022 Y26.552
X91.977 Y26.546
X84.354 Y24.478
X84.313 Y24.46
G2 X81.633 Y23.694 I-2.734 J4.491
X78.581 Y23.678 I-3.069 J302.442
X74.913 Y23.841 I-0.002 J41.441
X71.793 Y25.777 I0.361 J4.062
X71.181 Y27.029 I6.374 J3.892
X70.94 Y28.401 I3.493 J1.32
X71.986 Y31.504 I5.347 J-0.074
X74.785 Y33.206 I3.48 J-2.571
X76.681 Y33.363 I1.985 J-12.441
X78.584 Y33.369 I1.689 J-239.046
X82.618 Y33.142 I-0.033 J-36.568
X85.956 Y30.867 I-0.48 J-4.292
X86.444 Y27.469 I-4.509 J-2.381
X84.545 Y24.61 I-4.474 J0.91
X84.313 Y24.46 I-2.965 J4.341
X81.305 Y25.108 I-1.162 J1.91
G3 X78.584 Y26.544 I-2.721 J-1.861
G1 X76.351
X75.384 Y26.58
X75.277 Y26.609
X74.763 Y26.813
X74.281 Y27.216
X74.239 Y27.271
X74.122 Y27.463
X73.944 Y27.762
X73.806 Y28.361
X73.807 Y28.473
X73.868 Y29.016
X74.122 Y29.575
X74.194 Y29.665
X74.568 Y30.053
X74.831 Y30.201
X75.125 Y30.352
X75.236 Y30.377
X75.877 Y30.479
X78.135 Y30.48
X78.581 Y30.504
X81.647 Y30.501
X82.399 Y30.366
X82.483 Y30.329
X82.999 Y30.025
X83.04 Y29.987
X83.422 Y29.529
X83.47 Y29.439
X83.674 Y28.863
X83.675 Y28.194
X83.642 Y28.082
X83.447 Y27.557
X83.337 Y27.413
X83.013 Y27.033
X82.929 Y26.976
X82.427 Y26.69
X82.372 Y26.674
X81.619 Y26.544
X78.584
X78.552 Y26.541
X68.354 Y24.472
X68.328 Y24.464
X68.303 Y24.451
G2 X65.63 Y23.688 I-2.705 J4.412
X62.527 Y23.678 I-3.13 J502.782
G1 X60.298
G2 X56.509 Y24.993 I0. J6.112
X54.952 Y28.689 I2.574 J3.261
X56.184 Y31.643 I5.561 J-0.585
X58.961 Y33.235 I3.473 J-2.839
X60.708 Y33.371 I1.737 J-11.051
G1 X62.53 Y33.369
G2 X66.804 Y33.112 I-0.032 J-36.218
X70.153 Y30.442 I-0.484 J-4.041
X70.346 Y27.275 I-5.357 J-1.916
X68.584 Y24.637 I-4.313 J0.972
X68.303 Y24.451 I-2.987 J4.227
X65.285 Y25.1 I-1.169 J1.907
G3 X62.556 Y26.544 I-2.729 J-1.856
G1 X60.297
X59.358 Y26.583
X58.792 Y26.799
X58.737 Y26.831
X58.277 Y27.218
X58.068 Y27.551
X57.939 Y27.774
X57.802 Y28.389
X57.868 Y29.016
X58.132 Y29.59
X58.279 Y29.755
X58.573 Y30.06
X59.127 Y30.353
X59.406 Y30.404
X59.879 Y30.479
X62.081 Y30.48
X62.527 Y30.504
X65.649 Y30.501
X66.415 Y30.361
X66.705 Y30.201
X67.005 Y30.021
X67.386 Y29.575
X67.454 Y29.477
X67.674 Y28.863
X67.675 Y28.194
X67.642 Y28.082
X67.441 Y27.545
X67.021 Y27.041
X66.931 Y26.977
X66.416 Y26.686
X65.621 Y26.544
X62.556
X62.525 Y26.541
X52.346 Y24.552
X52.319 Y24.545
X52.294 Y24.533
G2 X50.101 Y23.719 I-3.24 J5.371
X47.173 Y23.576 I-2.063 J12.179
G3 X44.244 Y23.678 I-2.927 J-41.701
G2 X40.482 Y25.005 I0. J5.992
X38.952 Y28.689 I2.617 J3.247
X40.509 Y31.955 I5.396 J-0.568
X43.85 Y33.343 I3.347 J-3.341
G3 X47.008 Y33.475 I-0.045 J38.822
G2 X50.166 Y33.32 I0.993 J-11.992
X53.158 Y31.884 I-1.134 J-6.201
X54.54 Y28.866 I-2.617 J-3.023
G1 Y28.197
G2 X53.141 Y25.145 I-4.017 J-0.005
X52.294 Y24.533 I-4.087 J4.758
X49.372 Y25.158 I-1.128 J1.869
G3 X46.725 Y26.544 I-2.647 J-1.835
G1 X44.243
X43.352 Y26.585
X42.766 Y26.812
X42.306 Y27.19
X42.255 Y27.246
X42.014 Y27.639
X41.935 Y27.784
X41.802 Y28.389
X41.868 Y29.016
X42.129 Y29.588
X42.46 Y29.947
X42.576 Y30.061
X43.129 Y30.353
X43.853 Y30.477
X46.027 Y30.48
X46.473 Y30.503
X49.651 Y30.501
X50.417 Y30.361
X50.975 Y30.044
X51.063 Y29.961
X51.432 Y29.516
X51.467 Y29.447
X51.674 Y28.863
X51.675 Y28.194
X51.642 Y28.082
X51.446 Y27.553
X51.379 Y27.463
X51.025 Y27.046
X50.933 Y26.978
X50.422 Y26.688
X50.041 Y26.615
X49.623 Y26.544
X46.725
X46.693 Y26.541
X36.302 Y24.437
X36.275 Y24.429
X36.249 Y24.416
G2 X33.757 Y23.644 I-2.673 J4.224
X28.048 Y23.682 I-2.417 J66.683
X24.427 Y25.085 I0.304 J6.158
X22.951 Y28.678 I2.623 J3.177
X24.519 Y31.96 I5.357 J-0.543
X27.882 Y33.344 I3.365 J-3.397
G3 X31.026 Y33.474 I-0.013 J38.333
G2 X34.168 Y33.319 I0.986 J-11.935
X37.667 Y31.141 I-1.011 J-5.524
X38.323 Y27.072 I-3.594 J-2.666
X36.249 Y24.416 I-4.746 J1.567
X33.194 Y25.068 I-1.194 J1.887
G3 X30.441 Y26.544 I-2.753 J-1.828
G1 X28.19
X27.353 Y26.585
X26.761 Y26.814
X26.273 Y27.224
X25.96 Y27.728
X25.919 Y27.85
X25.802 Y28.389
X25.864 Y28.999
X25.877 Y29.045
X26.129 Y29.587
X26.279 Y29.755
X26.565 Y30.052
X26.852 Y30.212
X27.13 Y30.354
X27.883 Y30.479
X29.973 Y30.48
X30.419 Y30.501
X33.652
X34.419 Y30.36
X34.99 Y30.033
X35.057 Y29.968
X35.427 Y29.521
X35.471 Y29.436
X35.674 Y28.863
X35.675 Y28.194
X35.602 Y27.971
X35.446 Y27.553
X35.325 Y27.399
X35.012 Y27.033
X34.879 Y26.947
X34.415 Y26.685
X33.624 Y26.544
X30.441
X20.068 Y25.05
X20.037 Y25.042
X20.009 Y25.029
G2 X19.675 Y24.85 I-1.977 J3.297
X18.026 Y24.323 I-2.815 J5.957
X15.081 Y24.174 I-2.052 J11.401
G3 X12.135 Y24.288 I-2.953 J-38.198
G2 X8.07 Y26.506 I0.001 J4.837
X8.471 Y31.119 I3.179 J2.048
X9.556 Y32.068 I4.969 J-4.59
X10.892 Y32.608 I1.834 J-2.615
X14.24 Y32.814 I2.758 J-17.472
G3 X17.594 Y32.761 I3.185 J95.416
G2 X21.466 Y30.425 I0.008 J-4.364
X21.033 Y25.923 I-3.658 J-1.919
X20.009 Y25.029 I-3.001 J2.403
X17.702 Y25.487 I-0.9 J1.502
G3 X15.601 Y26.545 I-2.101 J-1.559
G1 X12.136 Y26.546
X11.355 Y26.585
X11.217 Y26.633
X10.775 Y26.807
X10.618 Y26.928
X10.277 Y27.218
X9.954 Y27.739
X9.927 Y27.811
X9.906 Y27.906
X9.802 Y28.389
X9.868 Y29.017
X10.129 Y29.587
X10.517 Y30.007
X10.603 Y30.078
X11.115 Y30.349
X11.244 Y30.378
X11.885 Y30.479
X13.919
X14.365 Y30.498
X17.598 Y30.504
X17.71 Y30.491
X18.42 Y30.36
X18.992 Y30.031
X19.083 Y29.936
X19.435 Y29.511
X19.48 Y29.41
X19.674 Y28.863
X19.675 Y28.194
X19.602 Y27.971
X19.446 Y27.553
X19.271 Y27.334
X19.015 Y27.034
X18.825 Y26.916
X18.421 Y26.687
X17.626 Y26.545
X15.601
G3 X15.447 Y26.348 I0. J-0.159
G1 X17.816 Y16.857
X17.834 Y16.815
X17.863 Y16.779
X17.902 Y16.753
X17.946 Y16.739
G2 X18.348 Y16.671 I-1.92 J-12.483
X21.188 Y14.894 I-0.843 J-4.505
X21.856 Y11.61 I-3.182 J-2.357
X17.54 Y8.182 I-4.351 J1.046
X12.029 Y8.291 I-0.777 J100.451
X8.859 Y9.494 I0.257 J5.458
X7.557 Y12.625 I2.224 J2.761
X8.932 Y15.511 I4.769 J-0.501
X11.884 Y16.736 I2.954 J-2.947
G3 X15.118 Y16.853 I-0.01 J45.11
G2 X17.946 Y16.739 I0.908 J-12.598
X18.108 Y15.567 I-0.094 J-0.61
G3 X18.252 Y14.392 I0.258 J-0.565
G1 X18.418 Y14.361
X18.992 Y14.032
X19.048 Y13.979
X19.439 Y13.504
X19.497 Y13.365
X19.674 Y12.863
X19.675 Y12.194
X19.662 Y12.138
X19.446 Y11.553
X19.271 Y11.334
X19.001 Y11.023
X18.421 Y10.688
X17.828 Y10.577
X17.615 Y10.544
X12.136 Y10.546
X11.373 Y10.582
X11.244 Y10.622
X10.761 Y10.815
X10.286 Y11.209
X10.215 Y11.31
X9.941 Y11.77
X9.906 Y11.906
X9.802 Y12.389
X9.868 Y13.015
X10.129 Y13.588
X10.539 Y14.03
X10.633 Y14.095
X11.132 Y14.355
X11.885 Y14.479
X13.919
X14.365 Y14.498
X17.598 Y14.504
X17.933 Y14.452
X18.252 Y14.392
X18.288 Y14.389
X18.323 Y14.395
X18.357 Y14.408
X18.824 Y14.662
X18.871 Y14.679
X18.921 Y14.68
X18.968 Y14.666
X19.009 Y14.638
X23.708 Y10.183
X23.942 Y10.058
X23.972 Y10.05
X24.002 Y10.056
X24.027 Y10.074
X24.042 Y10.102
X24.043 Y10.133
X24.031 Y10.161
G2 X23.844 Y10.44 I4.158 J2.986
X24.357 Y15.384 I3.438 J2.142
X27.221 Y16.821 I3.451 J-3.305
X30.42 Y17.017 I3.192 J-25.813
X34.56 Y16.832 I-0.013 J-46.645
X37.836 Y14.293 I-0.342 J-3.824
X38.103 Y13.26 I-5.682 J-2.018
X38.191 Y12.197 I-6.47 J-1.071
X37.253 Y9.664 I-3.876 J-0.005
X34.963 Y8.232 I-3.451 J2.97
X31.583 Y7.911 I-2.662 J10.093
G3 X28.19 Y8.028 I-3.392 J-49.21
G2 X24.031 Y10.161 I0. J5.12
X26.58 Y14.699 I2.332 J1.675
G3 X31.781 Y14.501 I5.22 J68.85
G1 X33.652
X34.419 Y14.36
X34.994 Y14.031
X35.081 Y13.94
X35.426 Y13.525
X35.465 Y13.451
X35.674 Y12.863
X35.675 Y12.194
X35.662 Y12.138
X35.446 Y11.553
X35.325 Y11.399
X35.002 Y11.023
X34.433 Y10.694
X34.321 Y10.664
X33.613 Y10.544
X28.19
X27.357 Y10.584
X26.808 Y10.791
X26.722 Y10.842
X26.278 Y11.219
X26.228 Y11.288
X25.96 Y11.729
X25.925 Y11.822
X25.802 Y12.389
X25.868 Y13.017
X26.122 Y13.574
X26.174 Y13.643
X26.566 Y14.053
X27.075 Y14.33
X27.186 Y14.368
X27.883 Y14.479
X29.973 Y14.48
X30.419 Y14.501
X31.781
X31.814 Y14.504
X31.845 Y14.515
X33.873 Y15.416
X33.921 Y15.428
X33.97 Y15.426
X34.016 Y15.408
X34.055 Y15.377
X38.741 Y10.201
X38.77 Y10.176
X38.805 Y10.158
X39.796 Y9.804
G3 X39.983 Y10.04 I0.053 J0.149
G2 X39.483 Y11.23 I3.047 J1.981
X39.608 Y14.033 I5.248 J1.169
X41.331 Y16.246 I3.867 J-1.233
X43.848 Y16.992 I2.616 J-4.208
X46.473 Y17.019 I2.632 J-130.684
G1 X49.664
G2 X52.666 Y15.91 I0. J-4.616
X53.897 Y10.916 I-2.873 J-3.357
X49.639 Y8.029 I-4.259 J1.699
G3 X46.883 Y7.998 I0.031 J-123.481
G2 X44.127 Y8.031 I-0.903 J39.973
X41.263 Y8.845 I0.302 J6.506
X39.983 Y10.04 I1.766 J3.176
X42.621 Y14.632 I2.494 J1.621
G3 X47.916 Y14.502 I5.361 J110.312
G1 X49.651 Y14.501
X50.417 Y14.361
X50.981 Y14.04
X51.03 Y13.998
X51.441 Y13.502
X51.668 Y12.891
X51.679 Y12.807
X51.675 Y12.194
X51.662 Y12.138
X51.446 Y11.553
X51.379 Y11.463
X51.028 Y11.048
X50.933 Y10.978
X50.417 Y10.687
X49.638 Y10.545
X44.243 Y10.544
X43.352 Y10.585
X42.768 Y10.812
X42.505 Y11.023
X42.273 Y11.223
X42.014 Y11.639
X41.938 Y11.777
X41.802 Y12.389
X41.868 Y13.016
X42.13 Y13.588
X42.46 Y13.947
X42.56 Y14.047
X42.66 Y14.11
X43.129 Y14.353
X43.853 Y14.477
X46.027 Y14.48
X46.473 Y14.503
X47.916 Y14.502
X47.953 Y14.506
X47.987 Y14.519
X49.557 Y15.299
X49.603 Y15.314
X49.652
X49.699 Y15.299
X49.738 Y15.271
X55.024 Y10.128
X55.047 Y10.109
X55.074 Y10.095
X55.788 Y9.799
G3 X55.983 Y10.032 I0.061 J0.147
G2 X55.481 Y11.234 I3.112 J2.004
X57.969 Y16.586 I4.74 J1.051
X60.222 Y17.077 I2.034 J-3.925
G3 X62.527 Y17.02 I2.302 J46.473
G2 X66.16 Y16.834 I0.002 J-35.625
X69.369 Y15.121 I-0.49 J-4.78
X70.035 Y13.731 I-2.441 J-2.024
X70.191 Y12.197 I-7.569 J-1.544
X66.109 Y8.062 I-4.13 J-0.006
X60.298 Y8.028 I-5.838 J502.656
X57.326 Y8.784 I0. J6.217
X55.983 Y10.032 I1.769 J3.251
X58.618 Y14.621 I2.505 J1.613
G3 X63.909 Y14.503 I5.4 J123.083
G1 X65.649 Y14.501
X66.415 Y14.361
X66.541 Y14.296
X66.987 Y14.034
X67.072 Y13.95
X67.432 Y13.515
X67.49 Y13.384
X67.674 Y12.863
X67.675 Y12.194
X67.662 Y12.138
X67.446 Y11.555
X67.384 Y11.469
X67.017 Y11.036
X66.931 Y10.977
X66.415 Y10.686
X65.621 Y10.544
X60.297
X59.364 Y10.582
X59.183 Y10.646
X58.764 Y10.814
X58.505 Y11.023
X58.267 Y11.23
X58.068 Y11.551
X57.937 Y11.779
X57.802 Y12.389
X57.868 Y13.016
X58.134 Y13.595
X58.567 Y14.053
X58.727 Y14.145
X59.127 Y14.353
X59.406 Y14.404
X59.879 Y14.479
X62.081 Y14.48
X62.527 Y14.504
X63.909 Y14.503
X63.946 Y14.507
X63.98 Y14.519
X65.557 Y15.305
X65.603 Y15.32
X65.652
X65.698 Y15.305
X65.738 Y15.277
X71.033 Y10.16
X71.057 Y10.141
X71.085 Y10.126
X71.839 Y9.828
G3 X72.031 Y10.061 I0.058 J0.148
G1 X71.958 Y10.179
G2 X71.405 Y13.443 I3.96 J2.35
X73.247 Y16.193 I4.263 J-0.863
X75.601 Y16.936 I2.448 J-3.655
G3 X78.068 Y16.996 I-10.139 J470.512
G2 X82.421 Y16.818 I0.863 J-32.198
X85.881 Y14.169 I-0.456 J-4.179
X86.037 Y11.171 I-4.438 J-1.734
X84.194 Y8.801 I-3.783 J1.041
X80.323 Y7.905 I-3.44 J6.049
G3 X76.351 Y8.028 I-3.971 J-64.008
G1 X76.261 Y8.029
G2 X73.835 Y8.555 I0.252 J7.024
X72.031 Y10.061 I1.493 J3.624
X74.557 Y14.564 I2.46 J1.58
G3 X79.72 Y14.503 I5.373 J235.944
G1 X81.647 Y14.501
X82.399 Y14.366
X82.483 Y14.329
X82.996 Y14.029
X83.04 Y13.986
X83.438 Y13.508
X83.537 Y13.253
X83.674 Y12.863
X83.675 Y12.194
X83.662 Y12.138
X83.449 Y11.562
X83.384 Y11.469
X83.021 Y11.041
X82.95 Y10.988
X82.427 Y10.691
X82.372 Y10.673
X81.619 Y10.544
X76.351
X75.417 Y10.577
X75.316 Y10.595
X74.763 Y10.815
X74.381 Y11.126
X74.27 Y11.227
X74.122 Y11.463
X73.944 Y11.762
X73.806 Y12.361
X73.807 Y12.473
X73.868 Y13.016
X74.122 Y13.573
X74.167 Y13.636
X74.545 Y14.034
X74.647 Y14.103
X75.125 Y14.352
X75.236 Y14.377
X75.877 Y14.479
X78.135 Y14.48
X78.581 Y14.504
X79.72 Y14.503
X79.753 Y14.506
X79.785 Y14.517
X81.828 Y15.429
X81.875 Y15.442
X81.925 Y15.439
X81.971 Y15.422
X82.01 Y15.391
X86.743 Y10.219
X86.772 Y10.194
X86.807 Y10.176
X87.856 Y9.805
G3 X88.044 Y10.038 I0.053 J0.15
G1 X88.016 Y10.084
G2 X87.587 Y13.75 I3.868 J2.311
X89.956 Y16.581 I4.613 J-1.455
X92.269 Y17.084 I2.071 J-3.956
G3 X94.635 Y17.02 I2.364 J43.646
G2 X98.325 Y16.811 I0.002 J-32.721
X101.508 Y14.931 I-0.51 J-4.497
X102.061 Y13.617 I-2.692 J-1.908
X102.191 Y12.197 I-7.808 J-1.429
X100.871 Y9.37 I-3.678 J-0.004
X98.038 Y8.064 I-3.833 J4.588
X95.195 Y7.911 I-2.084 J12.279
G3 X92.351 Y8.028 I-4.394 J-72.007
G2 X89.918 Y8.497 I0.159 J7.383
X88.044 Y10.038 I1.316 J3.51
X90.849 Y14.689 I2.599 J1.604
G3 X96.277 Y14.502 I5.497 J81.041
G1 X97.645 Y14.501
X98.398 Y14.367
X98.481 Y14.33
X99.003 Y14.023
X99.376 Y13.588
X99.455 Y13.476
X99.674 Y12.862
X99.675 Y12.194
X99.662 Y12.138
X99.444 Y11.552
X99.384 Y11.469
X99.026 Y11.046
X98.911 Y10.966
X98.425 Y10.69
X98.202 Y10.643
X97.617 Y10.544
X92.405
X91.959 Y10.553
X91.351 Y10.585
X90.775 Y10.808
X90.621 Y10.926
X90.275 Y11.221
X90.176 Y11.374
X89.944 Y11.762
X89.803 Y12.375
X89.86 Y12.974
X89.895 Y13.086
X90.135 Y13.596
X90.547 Y14.038
X90.621 Y14.089
X91.123 Y14.352
X91.29 Y14.385
X91.876 Y14.479
X94.189 Y14.482
X94.635 Y14.504
X96.277 Y14.502
G3 X96.595 Y14.82 I0. J0.318 F1016.
G1 Y14.89 Z0.008
Y14.957 Z0.031
Y15.018 Z0.069
Y15.068 Z0.12
Y15.106 Z0.18
X96.596 Y15.129 Z0.247
Y15.137 Z0.317
G0 Z5.
X90.725 Y29.765
Z1.
G1 Z-1.633 F1016.
X90.72 Y29.76 Z-1.702
X90.704 Y29.743 Z-1.768
X90.679 Y29.717 Z-1.827
X90.646 Y29.682 Z-1.877
X90.607 Y29.64 Z-1.915
X90.562 Y29.592 Z-1.94
X90.515 Y29.542 Z-1.95
X90.397 Y29.417 Z-1.956
X90.173 Y28.917 Z-1.975
X90.12 Y28.4 Z-1.993
X90.176 Y28.154 Z-2.002
X90.243 Y27.873 Z-2.012
X90.526 Y27.419 Z-2.031
X90.925 Y27.087 Z-2.049
X91.43 Y26.895 Z-2.068
X91.959 Y26.871 Z-2.086
X91.981 Y26.885 Z-2.087
X91.709 Y27.063 Z-2.099
X91.6 Y27.188 Z-2.104
X91.295 Y27.581 Z-2.122
X91.083 Y28.18 Z-2.144
X91.075 Y28.305 Z-2.148
X91.08 Y28.849 Z-2.167
X91.278 Y29.433 Z-2.189
X91.338 Y29.53 Z-2.193
X91.703 Y29.981 Z-2.213
X91.959 Y30.148 Z-2.224
Y30.162
X91.849 Y30.156 Z-2.228
X91.221 Y30.048 Z-2.25
X90.759 Y29.801 Z-2.269
X90.397 Y29.417 Z-2.287
X90.173 Y28.917 Z-2.306
X90.12 Y28.4 Z-2.324
X90.176 Y28.154 Z-2.333
X90.243 Y27.873 Z-2.343
X90.526 Y27.419 Z-2.362
X90.925 Y27.087 Z-2.38
X91.43 Y26.895 Z-2.399
X91.959 Y26.871 Z-2.418
X91.981 Y26.885
X91.709 Y27.063 Z-2.43
X91.6 Y27.188 Z-2.436
X91.295 Y27.581 Z-2.453
X91.083 Y28.18 Z-2.475
X91.075 Y28.305 Z-2.48
X91.08 Y28.849 Z-2.499
X91.278 Y29.433 Z-2.52
X91.338 Y29.53 Z-2.524
X91.703 Y29.981 Z-2.544
X91.959 Y30.148 Z-2.555
Y30.162
X91.849 Y30.156 Z-2.559
X91.221 Y30.048 Z-2.582
X90.759 Y29.801 Z-2.6
X90.397 Y29.417 Z-2.618
X90.173 Y28.917 Z-2.637
X90.12 Y28.4 Z-2.656
X90.176 Y28.154 Z-2.664
X90.243 Y27.873 Z-2.674
X90.526 Y27.419 Z-2.693
X90.925 Y27.087 Z-2.711
X91.43 Y26.895 Z-2.73
X91.959 Y26.871 Z-2.749
X91.981 Y26.885 Z-2.75
X91.709 Y27.063 Z-2.761
X91.6 Y27.188 Z-2.767
X91.295 Y27.581 Z-2.784
X91.083 Y28.18 Z-2.806
X91.075 Y28.305 Z-2.811
X91.08 Y28.849 Z-2.83
X91.278 Y29.433 Z-2.851
X91.338 Y29.53 Z-2.855
X91.703 Y29.981 Z-2.875
X91.959 Y30.148 Z-2.886
Y30.162 Z-2.887
X91.849 Y30.156 Z-2.891
X91.221 Y30.048 Z-2.913
X90.759 Y29.801 Z-2.931
X90.397 Y29.417 Z-2.949
X90.173 Y28.917 Z-2.969
X90.12 Y28.4 Z-2.987
X90.176 Y28.154 Z-2.996
X90.205 Y28.031 Z-3.
X90.243 Y27.873 F1816.
X90.526 Y27.419
X90.925 Y27.087
X91.43 Y26.895
X91.959 Y26.871
X91.981 Y26.885
X91.709 Y27.063
X91.6 Y27.188
X91.295 Y27.581
X91.083 Y28.18
X91.075 Y28.305
X91.08 Y28.849
X91.278 Y29.433
X91.338 Y29.53
X91.703 Y29.981
X91.959 Y30.148
Y30.162
X91.849 Y30.156
X91.221 Y30.048
X90.759 Y29.801
X90.397 Y29.417
X90.173 Y28.917
X90.12 Y28.4
X90.176 Y28.154
X90.205 Y28.031
X90.22 Y27.984 Z-2.992 F1016.
X90.242 Y27.94 Z-2.984
X90.268 Y27.904 Z-2.962
X90.298 Y27.872 Z-2.939
X90.354 Y27.83 Z-2.869
X90.395 Y27.81 Z-2.781
X90.409 Y27.805 Z-2.683
G0 Z5.
X91.412 Y28.194
Z-2.
G1 Z-3.133 F1016.
X91.414 Y28.187 Z-3.202
X91.422 Y28.166 Z-3.268
X91.433 Y28.132 Z-3.327
X91.449 Y28.086 Z-3.377
X91.468 Y28.031 Z-3.415
X91.49 Y27.97 Z-3.44
X91.513 Y27.905 Z-3.45
X91.571 Y27.737 Z-3.456
X91.923 Y27.297 Z-3.476
X92.614 Y26.861 Z-3.504
X93.467 Z-3.534
X93.481 Y26.876 Z-3.535
X93.272 Y26.999 Z-3.543
X92.842 Y27.482 Z-3.566
X92.592 Y28.082 Z-3.589
X92.552 Y28.723 Z-3.611
X92.584 Y28.863 Z-3.616
X92.726 Y29.353 Z-3.634
X92.851 Y29.544 Z-3.642
X93.099 Y29.889 Z-3.657
X93.148 Y29.934 Z-3.659
X93.442 Y30.147 Z-3.672
X93.421 Y30.162 Z-3.673
X92.572 Y30.16 Z-3.702
X91.915 Y29.745 Z-3.729
X91.571 Y29.309 Z-3.749
X91.392 Y28.793 Z-3.768
Y28.25 Z-3.787
X91.571 Y27.737 Z-3.806
X91.923 Y27.297 Z-3.825
X92.614 Y26.861 Z-3.854
X93.467 Z-3.884
X93.481 Y26.876
X93.272 Y26.999 Z-3.893
X92.842 Y27.482 Z-3.916
X92.592 Y28.082 Z-3.938
X92.552 Y28.723 Z-3.961
X92.584 Y28.863 Z-3.966
X92.726 Y29.353 Z-3.983
X92.851 Y29.544 Z-3.991
X93.099 Y29.889 Z-4.006
X93.148 Y29.934 Z-4.009
X93.442 Y30.147 Z-4.021
X93.421 Y30.162 Z-4.022
X92.572 Y30.16 Z-4.052
X91.915 Y29.745 Z-4.079
X91.571 Y29.309 Z-4.098
X91.392 Y28.793 Z-4.117
Y28.25 Z-4.136
X91.571 Y27.737 Z-4.155
X91.923 Y27.297 Z-4.175
X92.614 Y26.861 Z-4.204
X93.467 Z-4.233
X93.481 Y26.876 Z-4.234
X93.272 Y26.999 Z-4.243
X92.842 Y27.482 Z-4.265
X92.592 Y28.082 Z-4.288
X92.552 Y28.723 Z-4.31
X92.584 Y28.863 Z-4.315
X92.726 Y29.353 Z-4.333
X92.851 Y29.544 Z-4.341
X93.099 Y29.889 Z-4.356
X93.148 Y29.934 Z-4.358
X93.442 Y30.147 Z-4.371
X93.421 Y30.162 Z-4.372
X92.572 Y30.16 Z-4.401
X91.915 Y29.745 Z-4.429
X91.571 Y29.309 Z-4.448
X91.392 Y28.793 Z-4.467
Y28.25 Z-4.486
X91.525 Y27.87 Z-4.5
X91.571 Y27.737 F1816.
X91.923 Y27.297
X92.614 Y26.861
X93.467
X93.481 Y26.876
X93.272 Y26.999
X92.842 Y27.482
X92.592 Y28.082
X92.552 Y28.723
X92.584 Y28.863
X92.726 Y29.353
X92.851 Y29.544
X93.099 Y29.889
X93.148 Y29.934
X93.442 Y30.147
X93.421 Y30.162
X92.572 Y30.16
X91.915 Y29.745
X91.571 Y29.309
X91.392 Y28.793
Y28.25
X91.513 Y27.903
X91.525 Y27.87
X91.544 Y27.825 Z-4.492 F1016.
X91.571 Y27.784 Z-4.484
X91.6 Y27.751 Z-4.462
X91.633 Y27.722 Z-4.439
X91.693 Y27.686 Z-4.369
X91.736 Y27.67 Z-4.281
X91.751 Y27.666 Z-4.183
G0 Z5.
X93.727 Y29.94
Z0.975
G1 Z-5.133 F1016.
X93.722 Y29.936 Z-5.196
X93.706 Y29.927 Z-5.256
X93.68 Y29.911 Z-5.311
X93.645 Y29.891 Z-5.36
X93.603 Y29.865 Z-5.399
X93.554 Y29.836 Z-5.428
X93.512 Y29.806 Z-5.444
X93.469 Y29.775 Z-5.45
X93.401 Y29.726 Z-5.453
X93.297 Y29.602 Z-5.459
X93.056 Y29.281 Z-5.473
X92.898 Y28.807 Z-5.49
X92.884 Y28.751 Z-5.492
X92.892 Y28.305 Z-5.508
X92.901 Y28.194 Z-5.512
X93.101 Y27.678 Z-5.531
X93.297 Y27.446 Z-5.541
X93.464 Y27.257 Z-5.55
X93.956 Y26.98 Z-5.57
X94.667 Y26.861 Z-5.595
X94.716 Z-5.597
X94.733 Y26.881 Z-5.598
X94.513 Y27.012 Z-5.607
X94.44 Y27.079 Z-5.61
X94.06 Y27.539 Z-5.631
X93.976 Y27.748 Z-5.639
X93.828 Y28.166 Z-5.654
X93.817 Y28.305 Z-5.659
X93.823 Y28.863 Z-5.679
X93.98 Y29.309 Z-5.695
X94.05 Y29.489 Z-5.702
X94.113 Y29.579 Z-5.706
X94.471 Y30.001 Z-5.725
X94.541 Y30.056 Z-5.728
X94.734 Y30.167 Z-5.736
X94.717 Y30.186 Z-5.737
X94.588 Y30.179 Z-5.741
X94.077 Y30.086 Z-5.76
X93.855 Y30.016 Z-5.768
X93.554 Y29.836 Z-5.78
X93.401 Y29.726 Z-5.786
X93.297 Y29.602 Z-5.792
X93.056 Y29.281 Z-5.806
X92.898 Y28.807 Z-5.824
X92.884 Y28.751 Z-5.826
X92.892 Y28.305 Z-5.841
X92.901 Y28.194 Z-5.845
X93.101 Y27.678 Z-5.864
X93.297 Y27.446 Z-5.875
X93.464 Y27.257 Z-5.884
X93.956 Y26.98 Z-5.904
X94.667 Y26.861 Z-5.929
X94.716 Z-5.93
X94.733 Y26.881 Z-5.931
X94.513 Y27.012 Z-5.94
X94.44 Y27.079 Z-5.944
X94.06 Y27.539 Z-5.965
X93.976 Y27.748 Z-5.972
X93.828 Y28.166 Z-5.988
X93.817 Y28.305 Z-5.993
X93.823 Y28.863 Z-6.012
X93.98 Y29.309 Z-6.029
X94.05 Y29.489 Z-6.036
X94.113 Y29.579 Z-6.039
X94.471 Y30.001 Z-6.059
X94.541 Y30.056 Z-6.062
X94.734 Y30.167 Z-6.07
X94.717 Y30.186
X94.588 Y30.179 Z-6.075
X94.077 Y30.086 Z-6.093
X93.855 Y30.016 Z-6.101
X93.554 Y29.836 Z-6.113
X93.401 Y29.726 Z-6.12
X93.297 Y29.602 Z-6.126
X93.056 Y29.281 Z-6.14
X92.898 Y28.807 Z-6.157
X92.884 Y28.751 Z-6.159
X92.892 Y28.305 Z-6.175
X92.901 Y28.194 Z-6.179
X93.101 Y27.678 Z-6.198
X93.297 Y27.446 Z-6.209
X93.464 Y27.257 Z-6.217
X93.956 Y26.98 Z-6.237
X94.667 Y26.861 Z-6.262
X94.716 Z-6.264
X94.733 Y26.881 Z-6.265
X94.513 Y27.012 Z-6.274
X94.44 Y27.079 Z-6.277
X94.06 Y27.539 Z-6.298
X93.976 Y27.748 Z-6.306
X93.828 Y28.166 Z-6.321
X93.817 Y28.305 Z-6.326
X93.823 Y28.863 Z-6.346
X93.98 Y29.309 Z-6.362
X94.05 Y29.489 Z-6.369
X94.113 Y29.579 Z-6.373
X94.471 Y30.001 Z-6.392
X94.541 Y30.056 Z-6.395
X94.734 Y30.167 Z-6.403
X94.717 Y30.186 Z-6.404
X94.588 Y30.179 Z-6.409
X94.077 Y30.086 Z-6.427
X93.855 Y30.016 Z-6.435
X93.554 Y29.836 Z-6.447
X93.401 Y29.726 Z-6.454
X93.297 Y29.602 Z-6.459
X93.056 Y29.281 Z-6.473
X92.898 Y28.807 Z-6.491
X92.884 Y28.751 Z-6.493
X92.888 Y28.543 Z-6.5
X92.892 Y28.305 F1816.
X92.901 Y28.194
X93.101 Y27.678
X93.297 Y27.446
X93.464 Y27.257
X93.956 Y26.98
X94.667 Y26.861
X94.716
X94.733 Y26.881
X94.513 Y27.012
X94.44 Y27.079
X94.06 Y27.539
X93.976 Y27.748
X93.828 Y28.166
X93.817 Y28.305
X93.823 Y28.863
X93.98 Y29.309
X94.05 Y29.489
X94.113 Y29.579
X94.471 Y30.001
X94.541 Y30.056
X94.734 Y30.167
X94.717 Y30.186
X94.588 Y30.179
X94.077 Y30.086
X93.855 Y30.016
X93.554 Y29.836
X93.401 Y29.726
X93.297 Y29.602
X93.056 Y29.281
X92.898 Y28.807
X92.884 Y28.751
X92.888 Y28.543
X92.892 Y28.494 Z-6.492 F1016.
X92.904 Y28.446 Z-6.484
X92.921 Y28.406 Z-6.462
X92.944 Y28.368 Z-6.439
X92.99 Y28.315 Z-6.369
X93.025 Y28.286 Z-6.281
X93.038 Y28.278 Z-6.183
G0 Z5.
X96.269 Y26.861
Z1.
G1 Z-6.633 F1016.
G18 G2 X96.575 Z-6.95 I0.317 K0.
G1 X96.72 Z-6.955
X96.743 Y26.875 Z-6.956
X96.492 Y27.025 Z-6.966
X96.071 Y27.525 Z-6.989
X96.015 Y27.641 Z-6.994
X95.824 Y28.18 Z-7.013
X95.818 Y28.417 Z-7.022
X95.823 Y28.863 Z-7.037
X96.049 Y29.49 Z-7.061
X96.075 Y29.532 Z-7.062
X96.487 Y30.017 Z-7.085
X96.714 Y30.156 Z-7.094
X96.74 Y30.171 Z-7.095
X96.728 Y30.186 Z-7.096
X95.861 Y30.182 Z-7.126
X95.178 Y30.057 Z-7.15
X94.687 Y29.768 Z-7.17
X94.327 Y29.334 Z-7.19
X94.136 Y28.807 Z-7.209
X94.138 Y28.234 Z-7.229
X94.189 Y28.092 Z-7.235
X94.33 Y27.706 Z-7.249
X94.684 Y27.283 Z-7.268
X94.83 Y27.192 Z-7.274
X95.192 Y26.985 Z-7.289
X95.889 Y26.861 Z-7.314
X96.72 Z-7.343
X96.743 Y26.875
X96.492 Y27.025 Z-7.354
X96.071 Y27.525 Z-7.376
X96.015 Y27.641 Z-7.381
X95.824 Y28.18 Z-7.401
X95.818 Y28.417 Z-7.409
X95.823 Y28.863 Z-7.425
X96.049 Y29.49 Z-7.448
X96.075 Y29.532 Z-7.45
X96.487 Y30.017 Z-7.472
X96.714 Y30.156 Z-7.481
X96.74 Y30.171 Z-7.482
X96.728 Y30.186 Z-7.483
X95.861 Y30.182 Z-7.513
X95.178 Y30.057 Z-7.538
X94.687 Y29.768 Z-7.558
X94.327 Y29.334 Z-7.577
X94.136 Y28.807 Z-7.597
X94.138 Y28.234 Z-7.617
X94.189 Y28.092 Z-7.622
X94.33 Y27.706 Z-7.636
X94.684 Y27.283 Z-7.656
X94.83 Y27.192 Z-7.662
X95.192 Y26.985 Z-7.676
X95.889 Y26.861 Z-7.701
X96.72 Z-7.73
X96.743 Y26.875 Z-7.731
X96.492 Y27.025 Z-7.741
X96.071 Y27.525 Z-7.764
X96.015 Y27.641 Z-7.768
X95.824 Y28.18 Z-7.788
X95.818 Y28.417 Z-7.797
X95.823 Y28.863 Z-7.812
X96.049 Y29.49 Z-7.836
X96.075 Y29.532 Z-7.837
X96.487 Y30.017 Z-7.86
X96.714 Y30.156 Z-7.869
X96.74 Y30.171 Z-7.87
X96.728 Y30.186 Z-7.871
X95.861 Y30.182 Z-7.901
X95.178 Y30.057 Z-7.925
X94.687 Y29.768 Z-7.945
X94.327 Y29.334 Z-7.965
X94.136 Y28.807 Z-7.984
X94.137 Y28.356 Z-8.
X94.138 Y28.234 F1816.
X94.189 Y28.092
X94.33 Y27.706
X94.684 Y27.283
X94.83 Y27.192
X95.192 Y26.985
X95.889 Y26.861
X96.72
X96.743 Y26.875
X96.492 Y27.025
X96.071 Y27.525
X96.015 Y27.641
X95.824 Y28.18
X95.818 Y28.417
X95.823 Y28.863
X96.049 Y29.49
X96.075 Y29.532
X96.487 Y30.017
X96.714 Y30.156
X96.74 Y30.171
X96.728 Y30.186
X95.861 Y30.182
X95.178 Y30.057
X94.687 Y29.768
X94.327 Y29.334
X94.136 Y28.807
X94.137 Y28.356
X94.141 Y28.307 Z-7.992 F1016.
X94.153 Y28.259 Z-7.984
X94.169 Y28.218 Z-7.962
X94.191 Y28.18 Z-7.939
X94.236 Y28.126 Z-7.869
X94.271 Y28.098 Z-7.781
X94.284 Y28.089 Z-7.683
G0 Z5.
X74.834 Y29.839
Z1.
G1 Z-1.633 F1016.
X74.829 Y29.836 Z-1.695
X74.813 Y29.827 Z-1.754
X74.787 Y29.813 Z-1.809
X74.752 Y29.794 Z-1.858
X74.721 Y29.761 Z-1.895
X74.685 Y29.723 Z-1.924
X74.646 Y29.682 Z-1.942
X74.606 Y29.639 Z-1.95
X74.397 Y29.417 Z-1.961
X74.173 Y28.918 Z-1.98
X74.122 Y28.392 Z-1.998
X74.243 Y27.873 Z-2.017
X74.526 Y27.42 Z-2.035
X74.922 Y27.088 Z-2.054
X75.432 Y26.894 Z-2.073
X75.953 Y26.871 Z-2.091
X75.977 Y26.888 Z-2.092
X75.719 Y27.056 Z-2.103
X75.63 Y27.15 Z-2.107
X75.294 Y27.581 Z-2.126
X75.087 Y28.166 Z-2.148
X75.075 Y28.25 Z-2.151
X75.08 Y28.849 Z-2.172
X75.275 Y29.426 Z-2.193
X75.329 Y29.519 Z-2.197
X75.696 Y29.974 Z-2.217
X75.857 Y30.084 Z-2.224
X75.943 Y30.138 Z-2.228
X75.924 Y30.162 Z-2.229
X75.711 Y30.133 Z-2.236
X75.223 Y30.049 Z-2.253
X74.752 Y29.794 Z-2.272
X74.397 Y29.417 Z-2.29
X74.173 Y28.918 Z-2.309
X74.122 Y28.392 Z-2.328
X74.243 Y27.873 Z-2.346
X74.526 Y27.42 Z-2.365
X74.922 Y27.088 Z-2.383
X75.432 Y26.894 Z-2.402
X75.953 Y26.871 Z-2.42
X75.977 Y26.888 Z-2.421
X75.719 Y27.056 Z-2.432
X75.63 Y27.15 Z-2.437
X75.294 Y27.581 Z-2.456
X75.087 Y28.166 Z-2.477
X75.075 Y28.25 Z-2.48
X75.08 Y28.849 Z-2.501
X75.275 Y29.426 Z-2.523
X75.329 Y29.519 Z-2.526
X75.696 Y29.974 Z-2.547
X75.857 Y30.084 Z-2.553
X75.943 Y30.138 Z-2.557
X75.924 Y30.162 Z-2.558
X75.711 Y30.133 Z-2.566
X75.223 Y30.049 Z-2.583
X74.752 Y29.794 Z-2.602
X74.397 Y29.417 Z-2.62
X74.173 Y28.918 Z-2.639
X74.122 Y28.392 Z-2.657
X74.243 Y27.873 Z-2.676
X74.526 Y27.42 Z-2.695
X74.922 Y27.088 Z-2.713
X75.432 Y26.894 Z-2.732
X75.953 Y26.871 Z-2.75
X75.977 Y26.888 Z-2.751
X75.719 Y27.056 Z-2.762
X75.63 Y27.15 Z-2.766
X75.294 Y27.581 Z-2.785
X75.087 Y28.166 Z-2.807
X75.075 Y28.25 Z-2.81
X75.08 Y28.849 Z-2.831
X75.275 Y29.426 Z-2.852
X75.329 Y29.519 Z-2.856
X75.696 Y29.974 Z-2.876
X75.857 Y30.084 Z-2.883
X75.943 Y30.138 Z-2.887
X75.924 Y30.162 Z-2.888
X75.711 Y30.133 Z-2.895
X75.223 Y30.049 Z-2.912
X74.752 Y29.794 Z-2.931
X74.397 Y29.417 Z-2.949
X74.173 Y28.918 Z-2.968
X74.122 Y28.392 Z-2.987
X74.208 Y28.022 Z-3.
X74.243 Y27.873 F1816.
X74.526 Y27.42
X74.922 Y27.088
X75.432 Y26.894
X75.953 Y26.871
X75.977 Y26.888
X75.719 Y27.056
X75.63 Y27.15
X75.294 Y27.581
X75.087 Y28.166
X75.075 Y28.25
X75.08 Y28.849
X75.275 Y29.426
X75.329 Y29.519
X75.696 Y29.974
X75.857 Y30.084
X75.943 Y30.138
X75.924 Y30.162
X75.711 Y30.133
X75.223 Y30.049
X74.752 Y29.794
X74.397 Y29.417
X74.173 Y28.918
X74.122 Y28.392
X74.208 Y28.022
X74.223 Y27.976 Z-2.992 F1016.
X74.245 Y27.932 Z-2.984
X74.27 Y27.895 Z-2.962
X74.3 Y27.863 Z-2.939
X74.356 Y27.821 Z-2.869
X74.396 Y27.801 Z-2.781
X74.411 Y27.795 Z-2.683
G0 Z5.
X75.396 Y28.275
Z-2.
G1 Z-3.133 F1016.
Y28.27 Z-3.184
X75.397 Y28.258 Z-3.235
Y28.237 Z-3.282
X75.408 Y28.204 Z-3.335
X75.423 Y28.162 Z-3.379
X75.44 Y28.112 Z-3.414
X75.459 Y28.057 Z-3.437
X75.473 Y28.021 Z-3.446
X75.486 Y27.984 Z-3.45
X75.583 Y27.72 Z-3.46
X75.905 Y27.314 Z-3.478
X76.616 Y26.861 Z-3.507
X77.453 Z-3.537
X77.47 Y26.882
X77.286 Y26.988 Z-3.545
X77.195 Y27.079 Z-3.549
X76.841 Y27.483 Z-3.568
X76.592 Y28.082 Z-3.591
X76.552 Y28.723 Z-3.613
X76.584 Y28.863 Z-3.618
X76.724 Y29.348 Z-3.636
X76.797 Y29.467 Z-3.641
X77.088 Y29.879 Z-3.658
X77.243 Y30.003 Z-3.665
X77.435 Y30.142 Z-3.674
X77.421 Y30.162
X76.574 Z-3.704
X75.905 Y29.734 Z-3.732
X75.571 Y29.309 Z-3.751
X75.392 Y28.793 Z-3.77
X75.397 Y28.237 Z-3.789
X75.459 Y28.057 Z-3.796
X75.583 Y27.72 Z-3.808
X75.905 Y27.314 Z-3.826
X76.616 Y26.861 Z-3.856
X77.453 Z-3.885
X77.47 Y26.882 Z-3.886
X77.286 Y26.988 Z-3.893
X77.195 Y27.079 Z-3.898
X76.841 Y27.483 Z-3.917
X76.592 Y28.082 Z-3.939
X76.552 Y28.723 Z-3.962
X76.584 Y28.863 Z-3.967
X76.724 Y29.348 Z-3.984
X76.797 Y29.467 Z-3.989
X77.088 Y29.879 Z-4.007
X77.243 Y30.003 Z-4.014
X77.435 Y30.142 Z-4.022
X77.421 Y30.162 Z-4.023
X76.574 Z-4.052
X75.905 Y29.734 Z-4.08
X75.571 Y29.309 Z-4.099
X75.392 Y28.793 Z-4.118
X75.397 Y28.237 Z-4.138
X75.459 Y28.057 Z-4.144
X75.583 Y27.72 Z-4.157
X75.905 Y27.314 Z-4.175
X76.616 Y26.861 Z-4.204
X77.453 Z-4.234
X77.47 Y26.882
X77.286 Y26.988 Z-4.242
X77.195 Y27.079 Z-4.246
X76.841 Y27.483 Z-4.265
X76.592 Y28.082 Z-4.288
X76.552 Y28.723 Z-4.31
X76.584 Y28.863 Z-4.315
X76.724 Y29.348 Z-4.333
X76.797 Y29.467 Z-4.338
X77.088 Y29.879 Z-4.355
X77.243 Y30.003 Z-4.362
X77.435 Y30.142 Z-4.371
X77.421 Y30.162
X76.574 Z-4.401
X75.905 Y29.734 Z-4.429
X75.571 Y29.309 Z-4.448
X75.392 Y28.793 Z-4.467
X75.397 Y28.237 Z-4.486
X75.459 Y28.057 Z-4.493
X75.531 Y27.861 Z-4.5
X75.583 Y27.72 F1816.
X75.905 Y27.314
X76.616 Y26.861
X77.453
X77.47 Y26.882
X77.286 Y26.988
X77.195 Y27.079
X76.841 Y27.483
X76.592 Y28.082
X76.552 Y28.723
