(1001)
(FACE MDF )
(T1  D=3.175 CR=0. - ZMIN=-13. - FLAT END MILL)
G0 G90 G94 G17
G21
G53 G0 Z0.

(CONTOUR1)
M5
M9
T1
S16500 M3
G4 P4.
G55
G0 X15.404 Y12.675
Z15.
Z-3.69
G1 Z-5.682 F1016.
G19 G3 Y12.993 Z-6. J0.318 K0.
G1 Y13.869
G17 G3 X15.086 Y14.186 I-0.318 J0.
G1 X14.922 F1816.
X14.476
X14.029 Y14.162
X11.892
X11.878 Y14.16
X11.236 Y14.055
X11.222 Y14.049
X10.771 Y13.809
X10.75 Y13.792
X10.4 Y13.42
X10.389 Y13.401
X10.175 Y12.934
X10.173 Y12.92
X10.119 Y12.406
X10.122 Y12.392
X10.235 Y11.891
X10.241 Y11.877
X10.508 Y11.439
X10.52 Y11.425
X10.91 Y11.098
X10.924 Y11.087
X11.418 Y10.895
X11.432 Y10.894
X11.795 Y10.878
X12.241 Y10.861
X15.099
G3 X15.417 Y11.179 I0. J0.318 F1016.
G2 X15.897 Y11.451 I0.318 J0. F1816.
G3 X16.295 Y11.511 I0.163 J0.273
X14.285 Y13.327 I-1.005 J0.908
X14.379 Y11.417 I1.005 J-0.908
G1 X14.387 Y11.409 F1016.
G3 X16.192 Y13.43 Z-6.149 I0.902 J1.01
X14.387 Y11.409 Z-6.297 I-0.902 J-1.01
X16.192 Y13.43 Z-6.446 I0.902 J1.01
X14.387 Y11.409 Z-6.594 I-0.902 J-1.01
X16.192 Y13.43 Z-6.743 I0.902 J1.01
X14.387 Y11.409 Z-6.891 I-0.902 J-1.01
X16.644 Y12.408 Z-7. I0.902 J1.01
G1 Y12.419
Y12.628
G3 X15.086 Y14.186 I-1.558 J0.
G1 X14.922 F1816.
X14.476
X14.029 Y14.162
X11.892
X11.878 Y14.16
X11.236 Y14.055
X11.222 Y14.049
X10.771 Y13.809
X10.75 Y13.792
X10.4 Y13.42
X10.389 Y13.401
X10.175 Y12.934
X10.173 Y12.92
X10.119 Y12.406
X10.122 Y12.392
X10.235 Y11.891
X10.241 Y11.877
X10.508 Y11.439
X10.52 Y11.425
X10.91 Y11.098
X10.924 Y11.087
X11.418 Y10.895
X11.432 Y10.894
X11.795 Y10.878
X12.241 Y10.861
X15.099
G3 X15.417 Y11.179 I0. J0.318 F1016.
G2 X15.897 Y11.451 I0.318 J0. F1816.
G3 X16.295 Y11.511 I0.163 J0.273
X14.285 Y13.327 I-1.005 J0.908
X14.379 Y11.417 I1.005 J-0.908
G1 X14.387 Y11.409 F1016.
G3 X16.192 Y13.43 Z-7.149 I0.902 J1.01
X14.387 Y11.409 Z-7.297 I-0.902 J-1.01
X16.192 Y13.43 Z-7.446 I0.902 J1.01
X14.387 Y11.409 Z-7.594 I-0.902 J-1.01
X16.192 Y13.43 Z-7.743 I0.902 J1.01
X14.387 Y11.409 Z-7.891 I-0.902 J-1.01
X16.644 Y12.408 Z-8. I0.902 J1.01
G1 Y12.419
Y12.628
G3 X15.086 Y14.186 I-1.558 J0.
G1 X14.922 F1816.
X14.476 Y14.185
X14.029 Y14.162
X11.892
X11.878 Y14.16
X11.236 Y14.055
X11.222 Y14.049
X10.771 Y13.809
X10.75 Y13.792
X10.4 Y13.42
X10.389 Y13.401
X10.175 Y12.934
X10.173 Y12.92
X10.119 Y12.406
X10.122 Y12.392
X10.235 Y11.891
X10.241 Y11.877
X10.508 Y11.439
X10.52 Y11.425
X10.91 Y11.098
X10.924 Y11.087
X11.418 Y10.895
X11.432 Y10.894
X11.795 Y10.878
X12.241 Y10.861
X15.099
G3 X15.417 Y11.179 I0. J0.318 F1016.
G2 X15.897 Y11.451 I0.318 J0. F1816.
G3 X16.295 Y11.511 I0.163 J0.273
X14.285 Y13.327 I-1.005 J0.908
X14.379 Y11.417 I1.005 J-0.908
G1 X14.387 Y11.409 F1016.
G3 X16.192 Y13.43 Z-8.149 I0.902 J1.01
X14.387 Y11.409 Z-8.297 I-0.902 J-1.01
X16.192 Y13.43 Z-8.446 I0.902 J1.01
X14.387 Y11.409 Z-8.594 I-0.902 J-1.01
X16.192 Y13.43 Z-8.743 I0.902 J1.01
X14.387 Y11.409 Z-8.891 I-0.902 J-1.01
X16.644 Y12.408 Z-9. I0.902 J1.01
G1 Y12.419
Y12.628
G3 X15.086 Y14.186 I-1.558 J0.
G1 X14.922 F1816.
X14.476 Y14.184
X14.029 Y14.162
X12.577
X12.563 Y14.154
X11.931 Y13.755
X11.909 Y13.738
X11.58 Y13.324
X11.571 Y13.31
X11.396 Y12.809
X11.392 Y12.795
Y12.253
X11.396 Y12.239
X11.571 Y11.738
X11.58 Y11.724
X11.906 Y11.313
X11.92 Y11.3
X12.605 Y10.867
X12.618 Y10.861
X15.099
G3 X15.417 Y11.179 I0. J0.318 F1016.
G2 X15.897 Y11.451 I0.318 J0. F1816.
G3 X16.295 Y11.511 I0.163 J0.273
X16.644 Y12.419 I-1.005 J0.908
X14.746 Y13.66 I-1.355 J0. F1016.
G1 X14.736 Y13.656
G3 X15.843 Y11.183 Z-9.149 I0.553 J-1.236
X14.736 Y13.656 Z-9.297 I-0.553 J1.236
X15.843 Y11.183 Z-9.446 I0.553 J-1.236
X16.644 Y12.408 Z-9.5 I-0.553 J1.236
G1 Y12.419
Y12.628
G3 X15.086 Y14.186 I-1.558 J0.
G1 X14.922 F1816.
X14.476 Y14.184
X14.029 Y14.162
X12.577
X12.563 Y14.154
X11.931 Y13.755
X11.909 Y13.738
X11.58 Y13.324
X11.571 Y13.31
X11.396 Y12.809
X11.392 Y12.795
Y12.253
X11.396 Y12.239
X11.571 Y11.738
X11.58 Y11.724
X11.906 Y11.313
X11.92 Y11.3
X12.605 Y10.867
X12.618 Y10.861
X15.099
G3 X15.417 Y11.179 I0. J0.318 F1016.
G2 X15.897 Y11.451 I0.318 J0. F1816.
G3 X16.295 Y11.511 I0.163 J0.273
X14.285 Y13.327 I-1.005 J0.908
X14.379 Y11.417 I1.005 J-0.908
G1 X14.387 Y11.409 F1016.
G3 X16.192 Y13.43 Z-9.649 I0.902 J1.01
X14.387 Y11.409 Z-9.797 I-0.902 J-1.01
X16.192 Y13.43 Z-9.946 I0.902 J1.01
X14.387 Y11.409 Z-10.094 I-0.902 J-1.01
X16.192 Y13.43 Z-10.243 I0.902 J1.01
X14.387 Y11.409 Z-10.391 I-0.902 J-1.01
X16.644 Y12.408 Z-10.5 I0.902 J1.01
G1 Y12.419
Y12.628
G3 X15.086 Y14.186 I-1.558 J0.
G1 X14.532 F1816.
X14.504 Y14.185
X14.49 Y14.184
X14.476 Y14.181
X14.28 Y14.146
X14.266 Y14.142
X13.791 Y14.
X13.777 Y13.995
X13.764 Y13.986
X13.75 Y13.977
X13.346 Y13.686
X13.329 Y13.669
X13.306 Y13.64
X13.026 Y13.24
X13.019 Y13.226
X13.014 Y13.212
X12.981 Y13.101
X12.871 Y12.712
X12.87 Y12.698
Y12.684
X12.871 Y12.656
X12.9 Y12.169
X12.903 Y12.155
X12.924 Y12.099
X13.103 Y11.67
X13.116 Y11.647
X13.135 Y11.624
X13.206 Y11.543
X13.463 Y11.256
X13.475 Y11.244
X13.582 Y11.183
X13.736 Y11.098
X13.937 Y10.986
X13.956 Y10.979
X14.629 Y10.862
X14.643 Y10.861
X15.099
G3 X15.417 Y11.179 I0. J0.318 F1016.
G2 X15.897 Y11.451 I0.318 J0. F1816.
G3 X16.295 Y11.511 I0.163 J0.273
X14.285 Y13.327 I-1.005 J0.908
X14.379 Y11.417 I1.005 J-0.908
G1 X14.387 Y11.409 F1016.
G3 X16.192 Y13.43 Z-10.649 I0.902 J1.01
X14.387 Y11.409 Z-10.797 I-0.902 J-1.01
X16.192 Y13.43 Z-10.946 I0.902 J1.01
X14.387 Y11.409 Z-11.094 I-0.902 J-1.01
X16.192 Y13.43 Z-11.243 I0.902 J1.01
X14.387 Y11.409 Z-11.391 I-0.902 J-1.01
X16.644 Y12.408 Z-11.5 I0.902 J1.01
G1 Y12.419
Y12.628
G3 X15.086 Y14.186 I-1.558 J0.
G1 X14.629 F1816.
X14.615 Y14.184
X14.099 Y14.091
X14.085 Y14.088
X13.875 Y14.025
X13.861 Y14.02
X13.596 Y13.865
X13.582 Y13.856
X13.41 Y13.732
X13.393 Y13.718
X13.281 Y13.582
X13.135 Y13.396
X13.065 Y13.296
X13.057 Y13.282
X12.992 Y13.101
X12.918 Y12.879
X12.887 Y12.767
X12.884 Y12.753
X12.886 Y12.433
X12.897 Y12.211
X12.9 Y12.197
X12.977 Y11.988
X13.043 Y11.813
X13.089 Y11.703
X13.098 Y11.681
X13.215 Y11.543
X13.399 Y11.328
X13.444 Y11.277
X13.467 Y11.255
X13.939 Y10.985
X13.957 Y10.98
X14.643 Y10.862
X14.657 Y10.861
X15.099
G18 G2 X15.417 Z-11.182 I0. K0.318 F1016.
G0 Z5.
X15.377 Y13.796
Z-3.038
G1 Z-12.5 F1016.
G17 G3 X14.939 Y13.919 I-0.279 J-0.152
G1 X14.702 Y13.782 F1816.
X14.688 Y13.769
X14.395 Y13.42
X14.334 Y13.348
X14.323 Y13.324
X14.161 Y12.879
X14.14 Y12.823
X14.136 Y12.809
X14.135 Y12.433
Y12.253
X14.136 Y12.239
X14.227 Y11.988
X14.307 Y11.766
X14.328 Y11.71
X14.338 Y11.696
X14.585 Y11.4
X14.681 Y11.285
X14.697 Y11.269
X14.953 Y11.12
G0 Z5.
X15.377 Y13.796
Z-3.038
G1 Z-13. F1016.
G3 X14.939 Y13.919 I-0.279 J-0.152
G1 X14.702 Y13.782 F1816.
X14.688 Y13.769
X14.476 Y13.516
X14.334 Y13.348
X14.323 Y13.324
X14.136 Y12.809
X14.135 Y12.656
Y12.253
X14.136 Y12.239
X14.227 Y11.988
X14.328 Y11.71
X14.338 Y11.696
X14.476 Y11.531
X14.682 Y11.285
X14.697 Y11.269
X14.94 Y11.128
X14.953 Y11.121
X14.99 Y11.099 Z-12.994 F1016.
X15.026 Y11.078 Z-12.977
X15.056 Y11.061 Z-12.95
X15.079 Y11.047 Z-12.915
X15.094 Y11.039 Z-12.875
X15.099 Y11.036 Z-12.831
G0 Z5.
X31.408 Y12.675
Z-3.69
G1 Z-5.682 F1016.
G19 G3 Y12.993 Z-6. J0.318 K0.
G1 Y13.869
G17 G3 X31.091 Y14.186 I-0.318 J0.
G1 X30.562 F1816.
X30.115 Y14.162
X28.774
X27.895
X27.881 Y14.161
X27.238 Y14.055
X27.224 Y14.05
X26.777 Y13.812
X26.761 Y13.803
X26.41 Y13.431
X26.396 Y13.416
X26.175 Y12.934
X26.173 Y12.92
X26.119 Y12.406
X26.122 Y12.392
X26.235 Y11.891
X26.241 Y11.877
X26.507 Y11.441
X26.52 Y11.424
X26.91 Y11.098
X26.93 Y11.085
X27.406 Y10.9
X27.42 Y10.895
X27.881 Y10.874
X28.327 Y10.861
X31.093
G3 X31.411 Y11.179 I0. J0.318 F1016.
G2 X31.894 Y11.449 I0.317 J0. F1816.
G3 X32.295 Y11.506 I0.166 J0.271
X30.294 Y13.333 I-1. J0.913
X30.384 Y11.417 I1. J-0.913
G1 X30.392 Y11.409 F1016.
G3 X32.197 Y13.43 Z-6.149 I0.902 J1.01
X30.392 Y11.409 Z-6.297 I-0.902 J-1.01
X32.197 Y13.43 Z-6.446 I0.902 J1.01
X30.392 Y11.409 Z-6.594 I-0.902 J-1.01
X32.197 Y13.43 Z-6.743 I0.902 J1.01
X30.392 Y11.409 Z-6.891 I-0.902 J-1.01
X32.649 Y12.408 Z-7. I0.902 J1.01
G1 Y12.419
Y12.628
G3 X31.091 Y14.186 I-1.558 J0.
G1 X30.562 F1816.
X30.115 Y14.162
X28.774
X27.895
X27.881 Y14.161
X27.238 Y14.055
X27.224 Y14.05
X26.777 Y13.812
X26.761 Y13.803
X26.41 Y13.431
X26.396 Y13.416
X26.175 Y12.934
X26.173 Y12.92
X26.119 Y12.406
X26.122 Y12.392
X26.235 Y11.891
X26.241 Y11.877
X26.507 Y11.441
X26.52 Y11.424
X26.91 Y11.098
X26.93 Y11.085
X27.406 Y10.9
X27.42 Y10.895
X27.881 Y10.874
X28.327 Y10.861
X31.093
G3 X31.411 Y11.179 I0. J0.318 F1016.
G2 X31.894 Y11.449 I0.317 J0. F1816.
G3 X32.295 Y11.506 I0.166 J0.271
X30.294 Y13.333 I-1. J0.913
X30.384 Y11.417 I1. J-0.913
G1 X30.392 Y11.409 F1016.
G3 X32.197 Y13.43 Z-7.149 I0.902 J1.01
X30.392 Y11.409 Z-7.297 I-0.902 J-1.01
X32.197 Y13.43 Z-7.446 I0.902 J1.01
X30.392 Y11.409 Z-7.594 I-0.902 J-1.01
X32.197 Y13.43 Z-7.743 I0.902 J1.01
X30.392 Y11.409 Z-7.891 I-0.902 J-1.01
X32.649 Y12.408 Z-8. I0.902 J1.01
G1 Y12.419
Y12.628
G3 X31.091 Y14.186 I-1.558 J0.
G1 X30.562 F1816.
X30.115 Y14.162
X28.774
X27.895
X27.881 Y14.161
X27.238 Y14.055
X27.224 Y14.05
X26.777 Y13.812
X26.761 Y13.803
X26.41 Y13.431
X26.396 Y13.416
X26.175 Y12.934
X26.173 Y12.92
X26.119 Y12.406
X26.122 Y12.392
X26.235 Y11.891
X26.241 Y11.877
X26.507 Y11.441
X26.52 Y11.424
X26.91 Y11.098
X26.93 Y11.085
X27.406 Y10.9
X27.42 Y10.895
X27.881 Y10.874
X28.327 Y10.861
X31.093
G3 X31.411 Y11.179 I0. J0.318 F1016.
G2 X31.894 Y11.449 I0.317 J0. F1816.
G3 X32.295 Y11.506 I0.166 J0.271
X30.294 Y13.333 I-1. J0.913
X30.384 Y11.417 I1. J-0.913
G1 X30.392 Y11.409 F1016.
G3 X32.197 Y13.43 Z-8.149 I0.902 J1.01
X30.392 Y11.409 Z-8.297 I-0.902 J-1.01
X32.197 Y13.43 Z-8.446 I0.902 J1.01
X30.392 Y11.409 Z-8.594 I-0.902 J-1.01
X32.197 Y13.43 Z-8.743 I0.902 J1.01
X30.392 Y11.409 Z-8.891 I-0.902 J-1.01
X32.649 Y12.408 Z-9. I0.902 J1.01
G1 Y12.419
Y12.628
G3 X31.091 Y14.186 I-1.558 J0.
G1 X30.562 F1816.
X30.115 Y14.162
X28.663
X28.579
X28.565 Y14.156
X27.917 Y13.746
X27.898 Y13.724
X27.58 Y13.324
X27.571 Y13.311
X27.396 Y12.809
X27.392 Y12.795
Y12.263
X27.394 Y12.244
X27.571 Y11.738
X27.58 Y11.724
X27.913 Y11.305
X27.925 Y11.296
X28.607 Y10.865
X28.621 Y10.861
X31.093
G3 X31.411 Y11.179 I0. J0.318 F1016.
G2 X31.894 Y11.449 I0.317 J0. F1816.
G3 X32.295 Y11.506 I0.166 J0.271
X32.649 Y12.419 I-1. J0.913
X30.751 Y13.66 I-1.355 J0. F1016.
G1 X30.741 Y13.656
G3 X31.848 Y11.183 Z-9.149 I0.553 J-1.236
X30.741 Y13.656 Z-9.297 I-0.553 J1.236
X31.848 Y11.183 Z-9.446 I0.553 J-1.236
X32.649 Y12.408 Z-9.5 I-0.553 J1.236
G1 Y12.419
Y12.628
G3 X31.091 Y14.186 I-1.558 J0.
G1 X30.562 F1816.
X30.115 Y14.162
X28.663
X28.579
X28.565 Y14.156
X27.917 Y13.746
X27.898 Y13.724
X27.58 Y13.324
X27.571 Y13.311
X27.396 Y12.809
X27.392 Y12.795
Y12.263
X27.394 Y12.244
X27.571 Y11.738
X27.58 Y11.724
X27.913 Y11.305
X27.925 Y11.296
X28.607 Y10.865
X28.621 Y10.861
X31.093
G3 X31.411 Y11.179 I0. J0.318 F1016.
G2 X31.894 Y11.449 I0.317 J0. F1816.
G3 X32.295 Y11.506 I0.166 J0.271
X30.294 Y13.333 I-1. J0.913
X30.384 Y11.417 I1. J-0.913
G1 X30.392 Y11.409 F1016.
G3 X32.197 Y13.43 Z-9.649 I0.902 J1.01
X30.392 Y11.409 Z-9.797 I-0.902 J-1.01
X32.197 Y13.43 Z-9.946 I0.902 J1.01
X30.392 Y11.409 Z-10.094 I-0.902 J-1.01
X32.197 Y13.43 Z-10.243 I0.902 J1.01
X30.392 Y11.409 Z-10.391 I-0.902 J-1.01
X32.649 Y12.408 Z-10.5 I0.902 J1.01
G1 Y12.419
Y12.628
G3 X31.091 Y14.186 I-1.558 J0.
G1 X30.562 F1816.
X30.506 Y14.185
X30.492 Y14.184
X30.478 Y14.182
X30.282 Y14.146
X30.268 Y14.143
X29.794 Y14.001
X29.78 Y13.996
X29.766 Y13.988
X29.752 Y13.979
X29.347 Y13.686
X29.325 Y13.665
X29.309 Y13.644
X29.026 Y13.24
X29.019 Y13.226
X29.014 Y13.212
X28.981 Y13.101
X28.871 Y12.712
X28.87 Y12.698
Y12.684
X28.871 Y12.656
X28.9 Y12.169
X28.903 Y12.155
X28.924 Y12.099
X29.103 Y11.668
X29.11 Y11.654
X29.206 Y11.543
X29.458 Y11.261
X29.472 Y11.246
X29.556 Y11.198
X29.668 Y11.135
X29.925 Y10.993
X29.949 Y10.98
X30.631 Y10.862
X30.645 Y10.861
X31.093
G3 X31.411 Y11.179 I0. J0.318 F1016.
G2 X31.894 Y11.449 I0.317 J0. F1816.
G3 X32.295 Y11.506 I0.166 J0.271
X30.294 Y13.333 I-1. J0.913
X30.384 Y11.417 I1. J-0.913
G1 X30.392 Y11.409 F1016.
G3 X32.197 Y13.43 Z-10.649 I0.902 J1.01
X30.392 Y11.409 Z-10.797 I-0.902 J-1.01
X32.197 Y13.43 Z-10.946 I0.902 J1.01
X30.392 Y11.409 Z-11.094 I-0.902 J-1.01
X32.197 Y13.43 Z-11.243 I0.902 J1.01
X30.392 Y11.409 Z-11.391 I-0.902 J-1.01
X32.649 Y12.408 Z-11.5 I0.902 J1.01
G1 Y12.419
Y12.628
G3 X31.091 Y14.186 I-1.558 J0.
G1 X30.631 F1816.
X30.617 Y14.184
X30.101 Y14.091
X30.087 Y14.088
X29.877 Y14.026
X29.863 Y14.021
X29.59 Y13.862
X29.577 Y13.853
X29.411 Y13.733
X29.395 Y13.719
X29.221 Y13.511
X29.085 Y13.324
X29.065 Y13.296
X29.057 Y13.282
X28.992 Y13.101
X28.918 Y12.879
X28.887 Y12.767
X28.884 Y12.753
X28.886 Y12.433
X28.897 Y12.211
X28.9 Y12.197
X28.977 Y11.988
X29.063 Y11.766
X29.092 Y11.696
X29.098 Y11.682
X29.221 Y11.536
X29.445 Y11.277
X29.459 Y11.261
X29.472 Y11.252
X29.929 Y10.991
X29.952 Y10.981
X30.645 Y10.861
X30.673
X31.093
G18 G2 X31.411 Z-11.182 I0. K0.318 F1016.
G0 Z5.
X31.384 Y13.8
Z-3.038
G1 Z-12.5 F1016.
G17 G3 X30.946 Y13.923 I-0.279 J-0.152
G1 X30.701 Y13.782 F1816.
X30.688 Y13.769
X30.438 Y13.471
X30.345 Y13.361
X30.33 Y13.342
X30.161 Y12.879
X30.14 Y12.823
X30.136 Y12.809
X30.135 Y12.433
Y12.253
X30.136 Y12.239
X30.227 Y11.988
X30.307 Y11.766
X30.328 Y11.71
X30.338 Y11.696
X30.562 Y11.428
X30.684 Y11.282
X30.705 Y11.264
X30.94 Y11.128
X30.961 Y11.116 Z-12.495 F1016.
X30.978 Y11.105 Z-12.482
X30.99 Y11.099 Z-12.461
X30.994 Y11.096 Z-12.438
G0 Z5.
X31.384 Y13.8
Z-3.038
G1 Z-13. F1016.
G3 X30.946 Y13.923 I-0.279 J-0.152
G1 X30.701 Y13.782 F1816.
X30.688 Y13.769
X30.562 Y13.619
X30.345 Y13.361
X30.33 Y13.342
X30.136 Y12.809
X30.135 Y12.656
Y12.253
X30.136 Y12.239
X30.227 Y11.988
X30.328 Y11.71
X30.338 Y11.696
X30.466 Y11.543
X30.684 Y11.283
X30.705 Y11.264
X30.924 Y11.137
X30.94 Y11.128
X30.981 Y11.104 Z-12.994 F1016.
X31.019 Y11.082 Z-12.975
X31.052 Y11.063 Z-12.946
X31.078 Y11.048 Z-12.908
X31.093 Y11.039 Z-12.864
X31.099 Y11.036 Z-12.817
G0 Z5.
X47.412 Y12.675
Z-3.69
G1 Z-5.682 F1016.
G19 G3 Y12.993 Z-6. J0.318 K0.
G1 Y13.869
G17 G3 X47.094 Y14.186 I-0.317 J0.
G1 X46.648 F1816.
X46.201 Y14.165
X45.754 Y14.162
X43.897
X43.883 Y14.161
X43.241 Y14.055
X43.227 Y14.051
X42.771 Y13.809
X42.75 Y13.792
X42.408 Y13.429
X42.392 Y13.408
X42.179 Y12.943
X42.174 Y12.927
X42.12 Y12.415
X42.121 Y12.396
X42.235 Y11.891
X42.241 Y11.877
X42.508 Y11.439
X42.523 Y11.422
X42.91 Y11.098
X42.931 Y11.085
X43.408 Y10.899
X43.422 Y10.895
X43.967 Y10.871
X44.413 Y10.861
X47.094
G3 X47.412 Y11.179 I0. J0.318 F1016.
G2 X47.896 Y11.449 I0.318 J0. F1816.
G3 X48.297 Y11.505 I0.167 J0.27
X46.299 Y13.334 I-0.999 J0.915
X46.387 Y11.417 I0.999 J-0.915
G1 X46.396 Y11.409 F1016.
G3 X48.2 Y13.43 Z-6.149 I0.902 J1.01
X46.396 Y11.409 Z-6.297 I-0.902 J-1.01
X48.2 Y13.43 Z-6.446 I0.902 J1.01
X46.396 Y11.409 Z-6.594 I-0.902 J-1.01
X48.2 Y13.43 Z-6.743 I0.902 J1.01
X46.396 Y11.409 Z-6.891 I-0.902 J-1.01
X48.653 Y12.408 Z-7. I0.902 J1.01
G1 Y12.419
Y12.628
G3 X47.094 Y14.186 I-1.558 J0.
G1 X46.648 F1816.
X46.201 Y14.165
X45.754 Y14.162
X43.897
X43.883 Y14.161
X43.241 Y14.055
X43.227 Y14.051
X42.771 Y13.809
X42.75 Y13.792
X42.408 Y13.429
X42.392 Y13.408
X42.179 Y12.943
X42.174 Y12.927
X42.12 Y12.415
X42.121 Y12.396
X42.235 Y11.891
X42.241 Y11.877
X42.508 Y11.439
X42.523 Y11.422
X42.91 Y11.098
X42.931 Y11.085
X43.408 Y10.899
X43.422 Y10.895
X43.967 Y10.871
X44.413 Y10.861
X47.094
G3 X47.412 Y11.179 I0. J0.318 F1016.
G2 X47.896 Y11.449 I0.318 J0. F1816.
G3 X48.297 Y11.505 I0.167 J0.27
X46.299 Y13.334 I-0.999 J0.915
X46.387 Y11.417 I0.999 J-0.915
G1 X46.396 Y11.409 F1016.
G3 X48.2 Y13.43 Z-7.149 I0.902 J1.01
X46.396 Y11.409 Z-7.297 I-0.902 J-1.01
X48.2 Y13.43 Z-7.446 I0.902 J1.01
X46.396 Y11.409 Z-7.594 I-0.902 J-1.01
X48.2 Y13.43 Z-7.743 I0.902 J1.01
X46.396 Y11.409 Z-7.891 I-0.902 J-1.01
X48.653 Y12.408 Z-8. I0.902 J1.01
G1 Y12.419
Y12.628
G3 X47.094 Y14.186 I-1.558 J0.
G1 X46.648 F1816.
X46.201 Y14.165
X45.754 Y14.162
X43.897
X43.883 Y14.161
X43.241 Y14.055
X43.227 Y14.051
X42.771 Y13.809
X42.75 Y13.792
X42.408 Y13.429
X42.392 Y13.408
X42.179 Y12.943
X42.174 Y12.927
X42.12 Y12.415
X42.121 Y12.396
X42.235 Y11.891
X42.241 Y11.877
X42.508 Y11.439
X42.523 Y11.422
X42.91 Y11.098
X42.931 Y11.085
X43.408 Y10.899
X43.422 Y10.895
X43.967 Y10.871
X44.413 Y10.861
X47.094
G3 X47.412 Y11.179 I0. J0.318 F1016.
G2 X47.896 Y11.449 I0.318 J0. F1816.
G3 X48.297 Y11.505 I0.167 J0.27
X46.299 Y13.334 I-0.999 J0.915
X46.387 Y11.417 I0.999 J-0.915
G1 X46.396 Y11.409 F1016.
G3 X48.2 Y13.43 Z-8.149 I0.902 J1.01
X46.396 Y11.409 Z-8.297 I-0.902 J-1.01
X48.2 Y13.43 Z-8.446 I0.902 J1.01
X46.396 Y11.409 Z-8.594 I-0.902 J-1.01
X48.2 Y13.43 Z-8.743 I0.902 J1.01
X46.396 Y11.409 Z-8.891 I-0.902 J-1.01
X48.653 Y12.408 Z-9. I0.902 J1.01
G1 Y12.419
Y12.628
G3 X47.094 Y14.186 I-1.558 J0.
G1 X46.648 F1816.
X46.201 Y14.165
X45.754 Y14.162
X44.581
X44.567 Y14.157
X43.921 Y13.749
X43.903 Y13.731
X43.58 Y13.324
X43.569 Y13.304
X43.396 Y12.809
X43.392 Y12.795
Y12.253
X43.396 Y12.239
X43.572 Y11.735
X43.588 Y11.714
X43.903 Y11.317
X43.926 Y11.295
X44.609 Y10.864
X44.623 Y10.861
X47.094
G3 X47.412 Y11.179 I0. J0.318 F1016.
G2 X47.896 Y11.449 I0.318 J0. F1816.
G3 X48.297 Y11.505 I0.167 J0.27
X48.653 Y12.419 I-0.999 J0.915
X46.755 Y13.66 I-1.355 J0. F1016.
G1 X46.745 Y13.656
G3 X47.851 Y11.183 Z-9.149 I0.553 J-1.236
X46.745 Y13.656 Z-9.297 I-0.553 J1.236
X47.851 Y11.183 Z-9.446 I0.553 J-1.236
X48.653 Y12.408 Z-9.5 I-0.553 J1.236
G1 Y12.419
Y12.628
G3 X47.094 Y14.186 I-1.558 J0.
G1 X46.648 F1816.
X46.201 Y14.165
X45.754 Y14.162
X44.581
X44.567 Y14.157
X43.921 Y13.749
X43.903 Y13.731
X43.58 Y13.324
X43.569 Y13.304
X43.396 Y12.809
X43.392 Y12.795
Y12.253
X43.396 Y12.239
X43.572 Y11.735
X43.588 Y11.714
X43.903 Y11.317
X43.926 Y11.295
X44.609 Y10.864
X44.623 Y10.861
X47.094
G3 X47.412 Y11.179 I0. J0.318 F1016.
G2 X47.896 Y11.449 I0.318 J0. F1816.
G3 X48.297 Y11.505 I0.167 J0.27
X46.299 Y13.334 I-0.999 J0.915
X46.387 Y11.417 I0.999 J-0.915
G1 X46.396 Y11.409 F1016.
G3 X48.2 Y13.43 Z-9.649 I0.902 J1.01
X46.396 Y11.409 Z-9.797 I-0.902 J-1.01
X48.2 Y13.43 Z-9.946 I0.902 J1.01
X46.396 Y11.409 Z-10.094 I-0.902 J-1.01
X48.2 Y13.43 Z-10.243 I0.902 J1.01
X46.396 Y11.409 Z-10.391 I-0.902 J-1.01
X48.653 Y12.408 Z-10.5 I0.902 J1.01
G1 Y12.419
Y12.628
G3 X47.094 Y14.186 I-1.558 J0.
G1 X46.536 F1816.
X46.508 Y14.185
X46.494 Y14.184
X46.48 Y14.182
X46.285 Y14.147
X46.271 Y14.143
X45.782 Y13.997
X45.768 Y13.989
X45.754 Y13.981
X45.346 Y13.686
X45.324 Y13.664
X45.307 Y13.642
X45.026 Y13.24
X45.019 Y13.226
X45.014 Y13.212
X44.981 Y13.101
X44.871 Y12.712
X44.87 Y12.698
Y12.684
X44.871 Y12.656
X44.9 Y12.169
X44.903 Y12.155
X44.924 Y12.099
X45.103 Y11.668
X45.11 Y11.654
X45.206 Y11.543
X45.468 Y11.251
X45.481 Y11.241
X45.521 Y11.218
X45.736 Y11.098
X45.935 Y10.987
X45.949 Y10.98
X46.634 Y10.861
X46.648
X47.094
G3 X47.412 Y11.179 I0. J0.318 F1016.
G2 X47.896 Y11.449 I0.318 J0. F1816.
G3 X48.297 Y11.505 I0.167 J0.27
X46.299 Y13.334 I-0.999 J0.915
X46.387 Y11.417 I0.999 J-0.915
G1 X46.396 Y11.409 F1016.
G3 X48.2 Y13.43 Z-10.649 I0.902 J1.01
X46.396 Y11.409 Z-10.797 I-0.902 J-1.01
X48.2 Y13.43 Z-10.946 I0.902 J1.01
X46.396 Y11.409 Z-11.094 I-0.902 J-1.01
X48.2 Y13.43 Z-11.243 I0.902 J1.01
X46.396 Y11.409 Z-11.391 I-0.902 J-1.01
X48.653 Y12.408 Z-11.5 I0.902 J1.01
G1 Y12.419
Y12.628
G3 X47.094 Y14.186 I-1.558 J0.
G1 X46.634 F1816.
X46.62 Y14.185
X46.103 Y14.092
X46.089 Y14.089
X45.88 Y14.026
X45.866 Y14.022
X45.589 Y13.861
X45.571 Y13.848
X45.403 Y13.727
X45.39 Y13.714
X45.307 Y13.614
X45.085 Y13.324
X45.065 Y13.296
X45.057 Y13.282
X44.992 Y13.101
X44.918 Y12.879
X44.887 Y12.767
X44.884 Y12.753
X44.886 Y12.433
X44.897 Y12.211
X44.9 Y12.197
X44.977 Y11.988
X45.063 Y11.766
X45.092 Y11.696
X45.098 Y11.682
X45.307 Y11.434
X45.416 Y11.309
X45.455 Y11.264
X45.47 Y11.254
X45.935 Y10.987
X45.949 Y10.982
X46.634 Y10.863
X46.648 Y10.861
X47.094
G18 G2 X47.412 Z-11.182 I0. K0.318 F1016.
G0 Z5.
X47.384 Y13.8
Z-3.038
G1 Z-12.5 F1016.
G17 G3 X46.946 Y13.923 I-0.279 J-0.152
G1 X46.701 Y13.782 F1816.
X46.688 Y13.769
X46.397 Y13.423
X46.335 Y13.349
X46.323 Y13.324
X46.201 Y12.989
X46.14 Y12.823
X46.136 Y12.809
X46.135 Y12.433
Y12.247
X46.142 Y12.223
X46.227 Y11.988
X46.307 Y11.766
X46.328 Y11.71
X46.338 Y11.696
X46.648 Y11.325
X46.683 Y11.283
X46.697 Y11.269
X46.952 Y11.121
G0 Z5.
X47.384 Y13.8
Z-3.038
G1 Z-13. F1016.
G3 X46.946 Y13.923 I-0.279 J-0.152
G1 X46.701 Y13.782 F1816.
X46.688 Y13.769
X46.397 Y13.423
X46.335 Y13.349
X46.323 Y13.324
X46.201 Y12.988
X46.136 Y12.809
X46.135 Y12.656
Y12.247
X46.142 Y12.223
X46.227 Y11.988
X46.328 Y11.71
X46.338 Y11.696
X46.466 Y11.543
X46.684 Y11.283
X46.697 Y11.269
X46.921 Y11.139
X46.952 Y11.121
X46.99 Y11.099 Z-12.994 F1016.
X47.026 Y11.078 Z-12.977
X47.056 Y11.061 Z-12.95
X47.079 Y11.047 Z-12.915
X47.094 Y11.039 Z-12.874
X47.099 Y11.036 Z-12.83
G0 Z5.
X63.413 Y12.675
Z-3.69
G1 Z-5.682 F1016.
G19 G3 Y12.993 Z-6. J0.318 K0.
G1 Y13.869
G17 G3 X63.096 Y14.186 I-0.318 J0.
G1 X62.51 F1816.
X62.398 Y14.181
X62.287 Y14.173
X62.175 Y14.163
X62.063 Y14.162
X59.899
X59.885 Y14.161
X59.243 Y14.056
X59.229 Y14.053
X58.769 Y13.808
X58.755 Y13.797
X58.397 Y13.417
X58.39 Y13.404
X58.178 Y12.942
X58.174 Y12.926
X58.119 Y12.406
X58.122 Y12.392
X58.234 Y11.893
X58.242 Y11.874
X58.509 Y11.438
X58.527 Y11.419
X58.91 Y11.098
X58.926 Y11.086
X59.41 Y10.898
X59.424 Y10.895
X60.053 Y10.867
X60.499 Y10.861
X63.096
G3 X63.414 Y11.179 I0. J0.318 F1016.
G2 X63.898 Y11.449 I0.318 J0. F1816.
G3 X64.299 Y11.505 I0.167 J0.27
X62.3 Y13.334 I-0.999 J0.914
X62.389 Y11.417 I0.999 J-0.914
G1 X62.397 Y11.409 F1016.
G3 X64.202 Y13.43 Z-6.149 I0.902 J1.01
X62.397 Y11.409 Z-6.297 I-0.902 J-1.01
X64.202 Y13.43 Z-6.446 I0.902 J1.01
X62.397 Y11.409 Z-6.594 I-0.902 J-1.01
X64.202 Y13.43 Z-6.743 I0.902 J1.01
X62.397 Y11.409 Z-6.891 I-0.902 J-1.01
X64.654 Y12.408 Z-7. I0.902 J1.01
G1 Y12.419
Y12.628
G3 X63.096 Y14.186 I-1.558 J0.
G1 X62.51 F1816.
X62.398 Y14.181
X62.287 Y14.173
X62.175 Y14.163
X62.063 Y14.162
X59.899
X59.885 Y14.161
X59.243 Y14.056
X59.229 Y14.053
X58.769 Y13.808
X58.755 Y13.797
X58.397 Y13.417
X58.39 Y13.404
X58.178 Y12.942
X58.174 Y12.926
X58.119 Y12.406
X58.122 Y12.392
X58.234 Y11.893
X58.242 Y11.874
X58.509 Y11.438
X58.527 Y11.419
X58.91 Y11.098
X58.926 Y11.086
X59.41 Y10.898
X59.424 Y10.895
X60.053 Y10.867
X60.499 Y10.861
X63.096
G3 X63.414 Y11.179 I0. J0.318 F1016.
G2 X63.898 Y11.449 I0.318 J0. F1816.
G3 X64.299 Y11.505 I0.167 J0.27
X62.3 Y13.334 I-0.999 J0.914
X62.389 Y11.417 I0.999 J-0.914
G1 X62.397 Y11.409 F1016.
G3 X64.202 Y13.43 Z-7.149 I0.902 J1.01
X62.397 Y11.409 Z-7.297 I-0.902 J-1.01
X64.202 Y13.43 Z-7.446 I0.902 J1.01
X62.397 Y11.409 Z-7.594 I-0.902 J-1.01
X64.202 Y13.43 Z-7.743 I0.902 J1.01
X62.397 Y11.409 Z-7.891 I-0.902 J-1.01
X64.654 Y12.408 Z-8. I0.902 J1.01
G1 Y12.419
Y12.628
G3 X63.096 Y14.186 I-1.558 J0.
G1 X62.734 F1816.
X62.287 Y14.172
X61.84 Y14.162
X59.899
X59.885 Y14.161
X59.243 Y14.056
X59.229 Y14.053
X58.769 Y13.808
X58.755 Y13.797
X58.397 Y13.417
X58.39 Y13.404
X58.178 Y12.942
X58.174 Y12.926
X58.119 Y12.406
X58.122 Y12.392
X58.234 Y11.893
X58.242 Y11.874
X58.509 Y11.438
X58.527 Y11.419
X58.91 Y11.098
X58.926 Y11.086
X59.41 Y10.898
X59.424 Y10.895
X60.053 Y10.867
X60.499 Y10.861
X63.096
G3 X63.414 Y11.179 I0. J0.318 F1016.
G2 X63.898 Y11.449 I0.318 J0. F1816.
G3 X64.299 Y11.505 I0.167 J0.27
X62.3 Y13.334 I-0.999 J0.914
X62.389 Y11.417 I0.999 J-0.914
G1 X62.397 Y11.409 F1016.
G3 X64.202 Y13.43 Z-8.149 I0.902 J1.01
X62.397 Y11.409 Z-8.297 I-0.902 J-1.01
X64.202 Y13.43 Z-8.446 I0.902 J1.01
X62.397 Y11.409 Z-8.594 I-0.902 J-1.01
X64.202 Y13.43 Z-8.743 I0.902 J1.01
X62.397 Y11.409 Z-8.891 I-0.902 J-1.01
X64.654 Y12.408 Z-9. I0.902 J1.01
G1 Y12.419
Y12.628
G3 X63.096 Y14.186 I-1.558 J0.
G1 X62.734 F1816.
X62.287 Y14.171
X61.84 Y14.162
X60.583
X60.569 Y14.158
X59.923 Y13.75
X59.905 Y13.734
X59.58 Y13.324
X59.571 Y13.31
X59.396 Y12.809
X59.392 Y12.795
Y12.253
X59.396 Y12.239
X59.568 Y11.747
X59.576 Y11.728
X59.905 Y11.315
X59.929 Y11.294
X60.611 Y10.863
X60.625 Y10.861
X63.096
G3 X63.414 Y11.179 I0. J0.318 F1016.
G2 X63.898 Y11.449 I0.318 J0. F1816.
G3 X64.299 Y11.505 I0.167 J0.27
X64.654 Y12.419 I-0.999 J0.914
X62.756 Y13.66 I-1.355 J0. F1016.
G1 X62.746 Y13.656
G3 X63.853 Y11.183 Z-9.149 I0.553 J-1.236
X62.746 Y13.656 Z-9.297 I-0.553 J1.236
X63.853 Y11.183 Z-9.446 I0.553 J-1.236
X64.654 Y12.408 Z-9.5 I-0.553 J1.236
G1 Y12.419
Y12.628
G3 X63.096 Y14.186 I-1.558 J0.
G1 X62.734 F1816.
X62.287 Y14.171
X61.84 Y14.162
X60.583
X60.569 Y14.158
X59.923 Y13.75
X59.905 Y13.734
X59.58 Y13.324
X59.571 Y13.31
X59.396 Y12.809
X59.392 Y12.795
Y12.253
X59.396 Y12.239
X59.568 Y11.747
X59.576 Y11.728
X59.905 Y11.315
X59.929 Y11.294
X60.611 Y10.863
X60.625 Y10.861
X63.096
G3 X63.414 Y11.179 I0. J0.318 F1016.
G2 X63.898 Y11.449 I0.318 J0. F1816.
G3 X64.299 Y11.505 I0.167 J0.27
X62.3 Y13.334 I-0.999 J0.914
X62.389 Y11.417 I0.999 J-0.914
G1 X62.397 Y11.409 F1016.
G3 X64.202 Y13.43 Z-9.649 I0.902 J1.01
X62.397 Y11.409 Z-9.797 I-0.902 J-1.01
X64.202 Y13.43 Z-9.946 I0.902 J1.01
X62.397 Y11.409 Z-10.094 I-0.902 J-1.01
X64.202 Y13.43 Z-10.243 I0.902 J1.01
X62.397 Y11.409 Z-10.391 I-0.902 J-1.01
X64.654 Y12.408 Z-10.5 I0.902 J1.01
G1 Y12.419
Y12.628
G3 X63.096 Y14.186 I-1.558 J0.
G1 X62.734 F1816.
X62.51 Y14.185
X62.496 Y14.184
X62.482 Y14.182
X62.287 Y14.147
X62.273 Y14.144
X61.793 Y14.
X61.769 Y13.99
X61.745 Y13.974
X61.343 Y13.684
X61.327 Y13.668
X61.315 Y13.652
X61.024 Y13.237
X61.015 Y13.215
X61.007 Y13.194
X60.871 Y12.712
X60.87 Y12.698
Y12.684
X60.871 Y12.656
X60.9 Y12.166
X60.907 Y12.142
X60.946 Y12.045
X61.103 Y11.668
X61.11 Y11.654
X61.206 Y11.543
X61.455 Y11.265
X61.479 Y11.242
X61.564 Y11.193
X61.736 Y11.098
X61.938 Y10.986
X61.952 Y10.979
X62.622 Y10.863
X62.636 Y10.861
X63.096
G3 X63.414 Y11.179 I0. J0.318 F1016.
G2 X63.898 Y11.449 I0.318 J0. F1816.
G3 X64.299 Y11.505 I0.167 J0.27
X62.3 Y13.334 I-0.999 J0.914
X62.389 Y11.417 I0.999 J-0.914
G1 X62.397 Y11.409 F1016.
G3 X64.202 Y13.43 Z-10.649 I0.902 J1.01
X62.397 Y11.409 Z-10.797 I-0.902 J-1.01
X64.202 Y13.43 Z-10.946 I0.902 J1.01
X62.397 Y11.409 Z-11.094 I-0.902 J-1.01
X64.202 Y13.43 Z-11.243 I0.902 J1.01
X62.397 Y11.409 Z-11.391 I-0.902 J-1.01
X64.654 Y12.408 Z-11.5 I0.902 J1.01
G1 Y12.419
Y12.628
G3 X63.096 Y14.186 I-1.558 J0.
G1 X62.636 F1816.
X62.622 Y14.185
X62.091 Y14.09
X61.868 Y14.023
X61.854 Y14.015
X61.603 Y13.869
X61.579 Y13.854
X61.41 Y13.732
X61.393 Y13.717
X61.085 Y13.324
X61.07 Y13.302
X61.056 Y13.28
X60.946 Y12.975
X60.918 Y12.879
X60.887 Y12.767
X60.884 Y12.753
X60.886 Y12.433
X60.895 Y12.252
X60.898 Y12.207
X60.905 Y12.184
X60.977 Y11.988
X61.063 Y11.766
X61.092 Y11.696
X61.098 Y11.682
X61.215 Y11.543
X61.393 Y11.334
X61.459 Y11.261
X61.48 Y11.248
X61.938 Y10.986
X61.952 Y10.981
X62.636 Y10.863
X62.65 Y10.861
X63.096
G18 G2 X63.414 Z-11.182 I0. K0.318 F1016.
G0 Z5.
X63.386 Y13.802
Z-3.037
G1 Z-12.5 F1016.
G17 G3 X62.949 Y13.925 I-0.279 J-0.152
G1 X62.711 Y13.787 F1816.
X62.688 Y13.769
X62.407 Y13.435
X62.337 Y13.352
X62.328 Y13.338
X62.161 Y12.879
X62.14 Y12.823
X62.136 Y12.809
X62.135 Y12.433
Y12.253
X62.136 Y12.239
X62.287 Y11.822
X62.327 Y11.712
X62.337 Y11.697
X62.589 Y11.395
X62.692 Y11.272
X62.713 Y11.26
X62.95 Y11.122
X62.97 Y11.11 Z-12.494 F1016.
X62.984 Y11.102 Z-12.477
X62.99 Y11.099 Z-12.454
G0 Z5.
X63.386 Y13.802
Z-3.037
G1 Z-13. F1016.
G3 X62.949 Y13.925 I-0.279 J-0.152
G1 X62.711 Y13.787 F1816.
X62.688 Y13.769
X62.407 Y13.435
X62.337 Y13.352
X62.328 Y13.338
X62.287 Y13.224
X62.136 Y12.809
X62.135 Y12.656
Y12.253
X62.136 Y12.239
X62.227 Y11.988
X62.327 Y11.712
X62.336 Y11.698
X62.466 Y11.543
X62.692 Y11.272
X62.713 Y11.26
X62.92 Y11.14
X62.95 Y11.122
X62.988 Y11.1 Z-12.994 F1016.
X63.024 Y11.079 Z-12.977
X63.055 Y11.061 Z-12.95
X63.079 Y11.048 Z-12.914
X63.094 Y11.039 Z-12.872
X63.099 Y11.036 Z-12.828
G0 Z5.
X79.405 Y12.675
Z-3.69
G1 Z-5.682 F1016.
G19 G3 Y12.993 Z-6. J0.318 K0.
G1 Y13.869
G17 G3 X79.088 Y14.186 I-0.317 J0.
G1 X78.82 F1816.
X78.373 Y14.18
X77.926 Y14.162
X75.887
X75.873 Y14.16
X75.245 Y14.056
X75.231 Y14.054
X74.763 Y13.805
X74.745 Y13.787
X74.401 Y13.421
X74.392 Y13.407
X74.175 Y12.934
X74.173 Y12.92
X74.119 Y12.406
X74.122 Y12.392
X74.234 Y11.897
X74.24 Y11.879
X74.507 Y11.441
X74.518 Y11.426
X74.91 Y11.098
X74.931 Y11.084
X75.412 Y10.897
X75.426 Y10.895
X76.139 Y10.863
X76.585 Y10.861
X79.093
G3 X79.411 Y11.179 I0. J0.318 F1016.
G2 X79.893 Y11.45 I0.317 J0. F1816.
G3 X80.293 Y11.508 I0.165 J0.271
X78.29 Y13.331 I-1.002 J0.912
X78.381 Y11.417 I1.002 J-0.912
G1 X78.389 Y11.409 F1016.
G3 X80.194 Y13.43 Z-6.149 I0.902 J1.01
X78.389 Y11.409 Z-6.297 I-0.902 J-1.01
X80.194 Y13.43 Z-6.446 I0.902 J1.01
X78.389 Y11.409 Z-6.594 I-0.902 J-1.01
X80.194 Y13.43 Z-6.743 I0.902 J1.01
X78.389 Y11.409 Z-6.891 I-0.902 J-1.01
X80.646 Y12.408 Z-7. I0.902 J1.01
G1 Y12.419
Y12.628
G3 X79.088 Y14.186 I-1.558 J0.
G1 X78.82 F1816.
X78.373 Y14.179
X77.926 Y14.162
X75.887
X75.873 Y14.16
X75.245 Y14.056
X75.231 Y14.054
X74.763 Y13.805
X74.745 Y13.787
X74.401 Y13.421
X74.392 Y13.407
X74.175 Y12.934
X74.173 Y12.92
X74.119 Y12.406
X74.122 Y12.392
X74.234 Y11.897
X74.24 Y11.879
X74.507 Y11.441
X74.518 Y11.426
X74.91 Y11.098
X74.931 Y11.084
X75.412 Y10.897
X75.426 Y10.895
X76.139 Y10.863
X76.585 Y10.861
X79.093
G3 X79.411 Y11.179 I0. J0.318 F1016.
G2 X79.893 Y11.45 I0.317 J0. F1816.
G3 X80.293 Y11.508 I0.165 J0.271
X78.29 Y13.331 I-1.002 J0.912
X78.381 Y11.417 I1.002 J-0.912
G1 X78.389 Y11.409 F1016.
G3 X80.194 Y13.43 Z-7.149 I0.902 J1.01
X78.389 Y11.409 Z-7.297 I-0.902 J-1.01
X80.194 Y13.43 Z-7.446 I0.902 J1.01
X78.389 Y11.409 Z-7.594 I-0.902 J-1.01
X80.194 Y13.43 Z-7.743 I0.902 J1.01
X78.389 Y11.409 Z-7.891 I-0.902 J-1.01
X80.646 Y12.408 Z-8. I0.902 J1.01
G1 Y12.419
Y12.628
G3 X79.088 Y14.186 I-1.558 J0.
G1 X78.82 F1816.
X78.373 Y14.178
X77.926 Y14.162
X75.887
X75.873 Y14.16
X75.245 Y14.056
X75.231 Y14.054
X74.763 Y13.805
X74.745 Y13.787
X74.401 Y13.421
X74.392 Y13.407
X74.175 Y12.934
X74.173 Y12.92
X74.119 Y12.406
X74.122 Y12.392
X74.234 Y11.897
X74.24 Y11.879
X74.507 Y11.441
X74.518 Y11.426
X74.91 Y11.098
X74.931 Y11.084
X75.412 Y10.897
X75.426 Y10.895
X76.139 Y10.863
X76.585 Y10.861
X79.093
G3 X79.411 Y11.179 I0. J0.318 F1016.
G2 X79.893 Y11.45 I0.317 J0. F1816.
G3 X80.293 Y11.508 I0.165 J0.271
X78.29 Y13.331 I-1.002 J0.912
X78.381 Y11.417 I1.002 J-0.912
G1 X78.389 Y11.409 F1016.
G3 X80.194 Y13.43 Z-8.149 I0.902 J1.01
X78.389 Y11.409 Z-8.297 I-0.902 J-1.01
X80.194 Y13.43 Z-8.446 I0.902 J1.01
X78.389 Y11.409 Z-8.594 I-0.902 J-1.01
X80.194 Y13.43 Z-8.743 I0.902 J1.01
X78.389 Y11.409 Z-8.891 I-0.902 J-1.01
X80.646 Y12.408 Z-9. I0.902 J1.01
G1 Y12.419
Y12.628
G3 X79.088 Y14.186 I-1.558 J0.
G1 X78.82 F1816.
X78.373 Y14.177
X77.926 Y14.162
X76.585
X76.571 Y14.16
X75.933 Y13.756
X75.913 Y13.743
X75.58 Y13.324
X75.571 Y13.31
X75.396 Y12.809
X75.392 Y12.795
Y12.253
X75.396 Y12.239
X75.572 Y11.735
X75.581 Y11.722
X75.898 Y11.324
X75.914 Y11.303
X76.613 Y10.861
X79.093
G3 X79.411 Y11.179 I0. J0.318 F1016.
G2 X79.893 Y11.45 I0.317 J0. F1816.
G3 X80.293 Y11.508 I0.165 J0.271
X80.646 Y12.419 I-1.002 J0.912
X78.748 Y13.66 I-1.355 J0. F1016.
G1 X78.738 Y13.656
G3 X79.845 Y11.183 Z-9.149 I0.553 J-1.236
X78.738 Y13.656 Z-9.297 I-0.553 J1.236
X79.845 Y11.183 Z-9.446 I0.553 J-1.236
X80.646 Y12.408 Z-9.5 I-0.553 J1.236
G1 Y12.419
Y12.628
G3 X79.088 Y14.186 I-1.558 J0.
G1 X78.82 F1816.
X78.373 Y14.177
X77.926 Y14.162
X76.585
X76.571 Y14.16
X75.933 Y13.756
X75.913 Y13.743
X75.58 Y13.324
X75.571 Y13.31
X75.396 Y12.809
X75.392 Y12.795
Y12.253
X75.396 Y12.239
X75.572 Y11.735
X75.581 Y11.722
X75.898 Y11.324
X75.914 Y11.303
X76.613 Y10.861
X79.093
G3 X79.411 Y11.179 I0. J0.318 F1016.
G2 X79.893 Y11.45 I0.317 J0. F1816.
G3 X80.293 Y11.508 I0.165 J0.271
X78.29 Y13.331 I-1.002 J0.912
X78.381 Y11.417 I1.002 J-0.912
G1 X78.389 Y11.409 F1016.
G3 X80.194 Y13.43 Z-9.649 I0.902 J1.01
X78.389 Y11.409 Z-9.797 I-0.902 J-1.01
X80.194 Y13.43 Z-9.946 I0.902 J1.01
X78.389 Y11.409 Z-10.094 I-0.902 J-1.01
X80.194 Y13.43 Z-10.243 I0.902 J1.01
X78.389 Y11.409 Z-10.391 I-0.902 J-1.01
X80.646 Y12.408 Z-10.5 I0.902 J1.01
G1 Y12.419
Y12.628
G3 X79.088 Y14.186 I-1.558 J0.
G1 X78.54 F1816.
X78.512 Y14.185
X78.498 Y14.184
X78.484 Y14.183
X78.289 Y14.148
X78.275 Y14.145
X77.786 Y13.999
X77.772 Y13.992
X77.758 Y13.983
X77.744 Y13.974
X77.354 Y13.692
X77.336 Y13.679
X77.319 Y13.658
X77.24 Y13.546
X77.032 Y13.249
X77.019 Y13.226
X77.01 Y13.202
X76.997 Y13.156
X76.871 Y12.712
X76.87 Y12.698
Y12.684
X76.871 Y12.656
X76.9 Y12.169
X76.903 Y12.155
X76.924 Y12.099
X77.101 Y11.672
X77.11 Y11.654
X77.141 Y11.617
X77.206 Y11.543
X77.459 Y11.261
X77.479 Y11.242
X77.736 Y11.098
X77.94 Y10.985
X77.954 Y10.979
X78.624 Y10.863
X78.638 Y10.861
X79.093
G3 X79.411 Y11.179 I0. J0.318 F1016.
G2 X79.893 Y11.45 I0.317 J0. F1816.
G3 X80.293 Y11.508 I0.165 J0.271
X78.29 Y13.331 I-1.002 J0.912
X78.381 Y11.417 I1.002 J-0.912
G1 X78.389 Y11.409 F1016.
G3 X80.194 Y13.43 Z-10.649 I0.902 J1.01
X78.389 Y11.409 Z-10.797 I-0.902 J-1.01
X80.194 Y13.43 Z-10.946 I0.902 J1.01
X78.389 Y11.409 Z-11.094 I-0.902 J-1.01
X80.194 Y13.43 Z-11.243 I0.902 J1.01
X78.389 Y11.409 Z-11.391 I-0.902 J-1.01
X80.646 Y12.408 Z-11.5 I0.902 J1.01
G1 Y12.419
Y12.628
G3 X79.088 Y14.186 I-1.558 J0.
G1 X78.638 F1816.
X78.624
X78.093 Y14.09
X78.08 Y14.086
X77.87 Y14.024
X77.856 Y14.017
X77.591 Y13.862
X77.577 Y13.853
X77.402 Y13.726
X77.386 Y13.709
X77.251 Y13.546
X77.085 Y13.324
X77.066 Y13.296
X77.057 Y13.282
X77.032 Y13.214
X76.918 Y12.879
X76.887 Y12.767
X76.884 Y12.753
X76.886 Y12.433
X76.897 Y12.211
X76.9 Y12.197
X76.977 Y11.988
X77.032 Y11.838
X77.094 Y11.691
X77.106 Y11.672
X77.34 Y11.396
X77.404 Y11.322
X77.441 Y11.28
X77.46 Y11.259
X77.94 Y10.985
X77.954 Y10.981
X78.638 Y10.863
X78.652 Y10.861
X79.093
G18 G2 X79.411 Z-11.182 I0. K0.318 F1016.
G0 Z5.
X79.385 Y13.801
Z-3.037
G1 Z-12.5 F1016.
G17 G3 X78.947 Y13.924 I-0.279 J-0.152
G1 X78.704 Y13.783 F1816.
X78.688 Y13.769
X78.343 Y13.359
X78.33 Y13.341
X78.161 Y12.879
X78.14 Y12.823
X78.136 Y12.809
X78.135 Y12.433
Y12.253
X78.136 Y12.239
X78.287 Y11.821
X78.325 Y11.717
X78.338 Y11.696
X78.643 Y11.331
X78.687 Y11.279
X78.709 Y11.262
X78.952 Y11.121
G0 Z5.
X79.385 Y13.801
Z-3.038
G1 Z-13. F1016.
G3 X78.947 Y13.924 I-0.279 J-0.152
G1 X78.704 Y13.783 F1816.
X78.688 Y13.769
X78.343 Y13.359
X78.33 Y13.341
X78.136 Y12.809
X78.135 Y12.656
Y12.253
X78.136 Y12.239
X78.227 Y11.988
X78.325 Y11.717
X78.338 Y11.696
X78.466 Y11.543
X78.687 Y11.279
X78.709 Y11.262
X78.921 Y11.139
X78.952 Y11.121
X78.99 Y11.099 Z-12.994 F1016.
X79.025 Y11.079 Z-12.977
X79.056 Y11.061 Z-12.95
X79.079 Y11.047 Z-12.915
X79.094 Y11.039 Z-12.874
X79.099 Y11.036 Z-12.83
G0 Z5.
X95.415 Y12.675
Z-3.69
G1 Z-5.682 F1016.
G19 G3 Y12.993 Z-6. J0.318 K0.
G1 Y13.869
G17 G3 X95.097 Y14.186 I-0.318 J0.
G1 X94.906 F1816.
X94.459 Y14.185
X94.012 Y14.162
X91.889
X91.875 Y14.16
X91.233 Y14.054
X91.219 Y14.048
X90.767 Y13.807
X90.748 Y13.79
X90.405 Y13.426
X90.393 Y13.409
X90.175 Y12.934
X90.173 Y12.92
X90.119 Y12.406
X90.122 Y12.392
X90.234 Y11.893
X90.239 Y11.88
X90.509 Y11.438
X90.521 Y11.423
X90.91 Y11.098
X90.923 Y11.087
X91.415 Y10.897
X91.429 Y10.895
X91.778 Y10.879
X92.225 Y10.861
X95.1
G3 X95.417 Y11.179 I0. J0.318 F1016.
G2 X95.901 Y11.449 I0.317 J0. F1816.
G3 X96.301 Y11.506 I0.166 J0.271
X94.301 Y13.333 I-1. J0.913
X94.39 Y11.417 I1. J-0.913
G1 X94.398 Y11.409 F1016.
G3 X96.203 Y13.43 Z-6.149 I0.902 J1.01
X94.398 Y11.409 Z-6.297 I-0.902 J-1.01
X96.203 Y13.43 Z-6.446 I0.902 J1.01
X94.398 Y11.409 Z-6.594 I-0.902 J-1.01
X96.203 Y13.43 Z-6.743 I0.902 J1.01
X94.398 Y11.409 Z-6.891 I-0.902 J-1.01
X96.655 Y12.408 Z-7. I0.902 J1.01
G1 Y12.419
Y12.628
G3 X95.097 Y14.186 I-1.558 J0.
G1 X94.906 F1816.
X94.459 Y14.185
X94.012 Y14.162
X91.889
X91.875 Y14.16
X91.233 Y14.054
X91.219 Y14.048
X90.767 Y13.807
X90.748 Y13.79
X90.405 Y13.426
X90.393 Y13.409
X90.175 Y12.934
X90.173 Y12.92
X90.119 Y12.406
X90.122 Y12.392
X90.234 Y11.893
X90.239 Y11.88
X90.509 Y11.438
X90.521 Y11.423
X90.91 Y11.098
X90.923 Y11.087
X91.415 Y10.897
X91.429 Y10.895
X91.778 Y10.879
X92.225 Y10.861
X95.1
G3 X95.417 Y11.179 I0. J0.318 F1016.
G2 X95.901 Y11.449 I0.317 J0. F1816.
G3 X96.301 Y11.506 I0.166 J0.271
X94.301 Y13.333 I-1. J0.913
X94.39 Y11.417 I1. J-0.913
G1 X94.398 Y11.409 F1016.
G3 X96.203 Y13.43 Z-7.149 I0.902 J1.01
X94.398 Y11.409 Z-7.297 I-0.902 J-1.01
X96.203 Y13.43 Z-7.446 I0.902 J1.01
X94.398 Y11.409 Z-7.594 I-0.902 J-1.01
X96.203 Y13.43 Z-7.743 I0.902 J1.01
X94.398 Y11.409 Z-7.891 I-0.902 J-1.01
X96.655 Y12.408 Z-8. I0.902 J1.01
G1 Y12.419
Y12.628
G3 X95.097 Y14.186 I-1.558 J0.
G1 X94.906 F1816.
X94.459 Y14.184
X94.012 Y14.162
X91.889
X91.875 Y14.16
X91.233 Y14.054
X91.219 Y14.048
X90.767 Y13.807
X90.748 Y13.79
X90.405 Y13.426
X90.393 Y13.409
X90.175 Y12.934
X90.173 Y12.92
X90.119 Y12.406
X90.122 Y12.392
X90.234 Y11.893
X90.239 Y11.88
X90.509 Y11.438
X90.521 Y11.423
X90.91 Y11.098
X90.923 Y11.087
X91.415 Y10.897
X91.429 Y10.895
X91.778 Y10.879
X92.225 Y10.861
X95.1
G3 X95.417 Y11.179 I0. J0.318 F1016.
G2 X95.901 Y11.449 I0.317 J0. F1816.
G3 X96.301 Y11.506 I0.166 J0.271
X94.301 Y13.333 I-1. J0.913
X94.39 Y11.417 I1. J-0.913
G1 X94.398 Y11.409 F1016.
G3 X96.203 Y13.43 Z-8.149 I0.902 J1.01
X94.398 Y11.409 Z-8.297 I-0.902 J-1.01
X96.203 Y13.43 Z-8.446 I0.902 J1.01
X94.398 Y11.409 Z-8.594 I-0.902 J-1.01
X96.203 Y13.43 Z-8.743 I0.902 J1.01
X94.398 Y11.409 Z-8.891 I-0.902 J-1.01
X96.655 Y12.408 Z-9. I0.902 J1.01
G1 Y12.419
Y12.628
G3 X95.097 Y14.186 I-1.558 J0.
G1 X94.906 F1816.
X94.459 Y14.183
X94.012 Y14.162
X92.588
X92.574 Y14.161
X91.924 Y13.75
X91.907 Y13.735
X91.58 Y13.324
X91.571 Y13.31
X91.396 Y12.809
X91.392 Y12.795
Y12.253
X91.396 Y12.239
X91.571 Y11.738
X91.58 Y11.724
X91.896 Y11.326
X91.915 Y11.302
X92.604 Y10.867
X92.617 Y10.861
X95.1
G3 X95.417 Y11.179 I0. J0.318 F1016.
G2 X95.901 Y11.449 I0.317 J0. F1816.
G3 X96.301 Y11.506 I0.166 J0.271
X96.655 Y12.419 I-1. J0.913
X94.758 Y13.66 I-1.355 J0. F1016.
G1 X94.747 Y13.656
G3 X95.854 Y11.183 Z-9.149 I0.553 J-1.236
X94.747 Y13.656 Z-9.297 I-0.553 J1.236
X95.854 Y11.183 Z-9.446 I0.553 J-1.236
X96.655 Y12.408 Z-9.5 I-0.553 J1.236
G1 Y12.419
Y12.628
G3 X95.097 Y14.186 I-1.558 J0.
G1 X94.906 F1816.
X94.459 Y14.182
X94.012 Y14.162
X92.588
X92.574 Y14.161
X91.924 Y13.75
X91.907 Y13.735
X91.58 Y13.324
X91.571 Y13.31
X91.396 Y12.809
X91.392 Y12.795
Y12.253
X91.396 Y12.239
X91.571 Y11.738
X91.58 Y11.724
X91.896 Y11.326
X91.915 Y11.302
X92.604 Y10.867
X92.617 Y10.861
X95.1
G3 X95.417 Y11.179 I0. J0.318 F1016.
G2 X95.901 Y11.449 I0.317 J0. F1816.
G3 X96.301 Y11.506 I0.166 J0.271
X94.301 Y13.333 I-1. J0.913
X94.39 Y11.417 I1. J-0.913
G1 X94.398 Y11.409 F1016.
G3 X96.203 Y13.43 Z-9.649 I0.902 J1.01
X94.398 Y11.409 Z-9.797 I-0.902 J-1.01
X96.203 Y13.43 Z-9.946 I0.902 J1.01
X94.398 Y11.409 Z-10.094 I-0.902 J-1.01
X96.203 Y13.43 Z-10.243 I0.902 J1.01
X94.398 Y11.409 Z-10.391 I-0.902 J-1.01
X96.655 Y12.408 Z-10.5 I0.902 J1.01
G1 Y12.419
Y12.628
G3 X95.097 Y14.186 I-1.558 J0.
G1 X94.57 F1816.
X94.515 Y14.185
X94.501 Y14.184
X94.487 Y14.183
X94.291 Y14.148
X94.277 Y14.145
X93.788 Y13.999
X93.775 Y13.993
X93.761 Y13.985
X93.747 Y13.975
X93.342 Y13.683
X93.324 Y13.664
X93.301 Y13.633
X93.026 Y13.24
X93.019 Y13.226
X93.014 Y13.212
X92.981 Y13.101
X92.871 Y12.712
X92.87 Y12.698
Y12.684
X92.871 Y12.656
X92.9 Y12.169
X92.903 Y12.155
X92.924 Y12.099
X93.104 Y11.666
X93.118 Y11.644
X93.206 Y11.543
X93.451 Y11.269
X93.475 Y11.244
X93.565 Y11.193
X93.736 Y11.098
X93.943 Y10.983
X93.96 Y10.978
X94.626 Y10.863
X94.64 Y10.861
X95.1
G3 X95.417 Y11.179 I0. J0.318 F1016.
G2 X95.901 Y11.449 I0.317 J0. F1816.
G3 X96.301 Y11.506 I0.166 J0.271
X94.301 Y13.333 I-1. J0.913
X94.39 Y11.417 I1. J-0.913
G1 X94.398 Y11.409 F1016.
G3 X96.203 Y13.43 Z-10.649 I0.902 J1.01
X94.398 Y11.409 Z-10.797 I-0.902 J-1.01
X96.203 Y13.43 Z-10.946 I0.902 J1.01
X94.398 Y11.409 Z-11.094 I-0.902 J-1.01
X96.203 Y13.43 Z-11.243 I0.902 J1.01
X94.398 Y11.409 Z-11.391 I-0.902 J-1.01
X96.655 Y12.408 Z-11.5 I0.902 J1.01
G1 Y12.419
Y12.628
G3 X95.097 Y14.186 I-1.558 J0.
G1 X94.64 F1816.
X94.626
X94.096 Y14.091
X94.082 Y14.087
X93.872 Y14.024
X93.858 Y14.018
X93.593 Y13.863
X93.579 Y13.854
X93.407 Y13.73
X93.391 Y13.715
X93.271 Y13.57
X93.118 Y13.372
X93.065 Y13.296
X93.057 Y13.282
X92.992 Y13.101
X92.918 Y12.879
X92.887 Y12.767
X92.884 Y12.753
X92.886 Y12.433
X92.897 Y12.211
X92.9 Y12.197
X92.977 Y11.988
X93.039 Y11.823
X93.09 Y11.699
X93.101 Y11.678
X93.215 Y11.543
X93.39 Y11.337
X93.454 Y11.267
X93.478 Y11.249
X93.928 Y10.992
X93.944 Y10.982
X94.64 Y10.862
X94.654 Y10.861
X95.1
G18 G2 X95.417 Z-11.182 I0. K0.318 F1016.
G0 Z5.
X95.38 Y13.798
Z-3.038
G1 Z-12.5 F1016.
G17 G3 X94.942 Y13.921 I-0.279 J-0.152
G1 X94.701 Y13.782 F1816.
X94.688 Y13.769
X94.459 Y13.497
X94.332 Y13.345
X94.323 Y13.324
X94.161 Y12.879
X94.14 Y12.823
X94.136 Y12.809
X94.135 Y12.433
Y12.253
X94.136 Y12.239
X94.227 Y11.988
X94.306 Y11.77
X94.326 Y11.715
X94.333 Y11.701
X94.466 Y11.543
X94.686 Y11.28
X94.708 Y11.263
X94.942 Y11.127
G0 Z5.
X95.379 Y13.798
Z-3.038
G1 Z-13. F1016.
G3 X94.942 Y13.921 I-0.279 J-0.152
G1 X94.701 Y13.782 F1816.
X94.688 Y13.769
X94.459 Y13.496
X94.332 Y13.345
X94.323 Y13.324
X94.136 Y12.809
X94.135 Y12.656
Y12.253
X94.136 Y12.239
X94.227 Y11.988
X94.326 Y11.715
X94.333 Y11.701
X94.466 Y11.543
X94.686 Y11.281
X94.708 Y11.263
X94.926 Y11.136
X94.942 Y11.127
X94.983 Y11.103 Z-12.994 F1016.
X95.021 Y11.081 Z-12.976
X95.053 Y11.062 Z-12.947
X95.078 Y11.048 Z-12.909
X95.094 Y11.039 Z-12.865
X95.099 Y11.036 Z-12.818
G0 Z5.
X111.417 Y12.675
Z-3.69
G1 Z-5.682 F1016.
G19 G3 Y12.993 Z-6. J0.318 K0.
G1 Y13.869
G17 G3 X111.1 Y14.186 I-0.318 J0.
G1 X110.545 F1816.
X110.098 Y14.162
X107.892
X107.878 Y14.16
X107.235 Y14.055
X107.221 Y14.049
X106.774 Y13.81
X106.759 Y13.801
X106.403 Y13.423
X106.393 Y13.409
X106.175 Y12.934
X106.173 Y12.92
X106.119 Y12.406
X106.122 Y12.392
X106.235 Y11.891
X106.241 Y11.877
X106.509 Y11.437
X106.523 Y11.422
X106.91 Y11.098
X106.925 Y11.087
X107.417 Y10.896
X107.431 Y10.894
X107.864 Y10.875
X108.311 Y10.861
X111.099
G3 X111.417 Y11.179 I0. J0.318 F1016.
G2 X111.901 Y11.449 I0.317 J0. F1816.
G3 X112.302 Y11.505 I0.167 J0.27
X110.304 Y13.334 I-0.999 J0.915
X110.392 Y11.417 I0.999 J-0.915
G1 X110.401 Y11.409 F1016.
G3 X112.206 Y13.43 Z-6.149 I0.902 J1.01
X110.401 Y11.409 Z-6.297 I-0.902 J-1.01
X112.206 Y13.43 Z-6.446 I0.902 J1.01
X110.401 Y11.409 Z-6.594 I-0.902 J-1.01
X112.206 Y13.43 Z-6.743 I0.902 J1.01
X110.401 Y11.409 Z-6.891 I-0.902 J-1.01
X112.658 Y12.408 Z-7. I0.902 J1.01
G1 Y12.419
Y12.628
G3 X111.1 Y14.186 I-1.558 J0.
G1 X110.545 F1816.
X110.098 Y14.162
X107.892
X107.878 Y14.16
X107.235 Y14.055
X107.221 Y14.049
X106.774 Y13.81
X106.759 Y13.801
X106.403 Y13.423
X106.393 Y13.409
X106.175 Y12.934
X106.173 Y12.92
X106.119 Y12.406
X106.122 Y12.392
X106.235 Y11.891
X106.241 Y11.877
X106.509 Y11.437
X106.523 Y11.422
X106.91 Y11.098
X106.925 Y11.087
X107.417 Y10.896
X107.431 Y10.894
X107.864 Y10.875
X108.311 Y10.861
X111.099
G3 X111.417 Y11.179 I0. J0.318 F1016.
G2 X111.901 Y11.449 I0.317 J0. F1816.
G3 X112.302 Y11.505 I0.167 J0.27
X110.304 Y13.334 I-0.999 J0.915
X110.392 Y11.417 I0.999 J-0.915
G1 X110.401 Y11.409 F1016.
G3 X112.206 Y13.43 Z-7.149 I0.902 J1.01
X110.401 Y11.409 Z-7.297 I-0.902 J-1.01
X112.206 Y13.43 Z-7.446 I0.902 J1.01
X110.401 Y11.409 Z-7.594 I-0.902 J-1.01
X112.206 Y13.43 Z-7.743 I0.902 J1.01
X110.401 Y11.409 Z-7.891 I-0.902 J-1.01
X112.658 Y12.408 Z-8. I0.902 J1.01
G1 Y12.419
Y12.628
G3 X111.1 Y14.186 I-1.558 J0.
G1 X110.545 F1816.
X110.098 Y14.162
X107.892
X107.878 Y14.16
X107.235 Y14.055
X107.221 Y14.049
X106.774 Y13.81
X106.759 Y13.801
X106.403 Y13.423
X106.393 Y13.409
X106.175 Y12.934
X106.173 Y12.92
X106.119 Y12.406
X106.122 Y12.392
X106.235 Y11.891
X106.241 Y11.877
X106.509 Y11.437
X106.523 Y11.422
X106.91 Y11.098
X106.925 Y11.087
X107.417 Y10.896
X107.431 Y10.894
X107.864 Y10.875
X108.311 Y10.861
X111.099
G3 X111.417 Y11.179 I0. J0.318 F1016.
G2 X111.901 Y11.449 I0.317 J0. F1816.
G3 X112.302 Y11.505 I0.167 J0.27
X110.304 Y13.334 I-0.999 J0.915
X110.392 Y11.417 I0.999 J-0.915
G1 X110.401 Y11.409 F1016.
G3 X112.206 Y13.43 Z-8.149 I0.902 J1.01
X110.401 Y11.409 Z-8.297 I-0.902 J-1.01
X112.206 Y13.43 Z-8.446 I0.902 J1.01
X110.401 Y11.409 Z-8.594 I-0.902 J-1.01
X112.206 Y13.43 Z-8.743 I0.902 J1.01
X110.401 Y11.409 Z-8.891 I-0.902 J-1.01
X112.658 Y12.408 Z-9. I0.902 J1.01
G1 Y12.419
Y12.628
G3 X111.1 Y14.186 I-1.558 J0.
G1 X110.545 F1816.
X110.098 Y14.162
X108.576
X108.562 Y14.154
X107.931 Y13.755
X107.908 Y13.737
X107.58 Y13.324
X107.571 Y13.31
X107.393 Y12.8
X107.392 Y12.787
Y12.259
X107.395 Y12.243
X107.571 Y11.738
X107.58 Y11.724
X107.911 Y11.307
X107.934 Y11.29
X108.604 Y10.867
X108.618 Y10.861
X111.099
G3 X111.417 Y11.179 I0. J0.318 F1016.
G2 X111.901 Y11.449 I0.317 J0. F1816.
G3 X112.302 Y11.505 I0.167 J0.27
X112.658 Y12.419 I-0.999 J0.915
X110.76 Y13.66 I-1.355 J0. F1016.
G1 X110.75 Y13.656
G3 X111.857 Y11.183 Z-9.149 I0.553 J-1.236
X110.75 Y13.656 Z-9.297 I-0.553 J1.236
X111.857 Y11.183 Z-9.446 I0.553 J-1.236
X112.658 Y12.408 Z-9.5 I-0.553 J1.236
G1 Y12.419
Y12.628
G3 X111.1 Y14.186 I-1.558 J0.
G1 X110.545 F1816.
X110.098 Y14.162
X108.576
X108.562 Y14.154
X107.931 Y13.755
X107.908 Y13.737
X107.58 Y13.324
X107.571 Y13.31
X107.393 Y12.8
X107.392 Y12.787
Y12.259
X107.395 Y12.243
X107.571 Y11.738
X107.58 Y11.724
X107.911 Y11.307
X107.934 Y11.29
X108.604 Y10.867
X108.618 Y10.861
X111.099
G3 X111.417 Y11.179 I0. J0.318 F1016.
G2 X111.901 Y11.449 I0.317 J0. F1816.
G3 X112.302 Y11.505 I0.167 J0.27
X110.304 Y13.334 I-0.999 J0.915
X110.392 Y11.417 I0.999 J-0.915
G1 X110.401 Y11.409 F1016.
G3 X112.206 Y13.43 Z-9.649 I0.902 J1.01
X110.401 Y11.409 Z-9.797 I-0.902 J-1.01
X112.206 Y13.43 Z-9.946 I0.902 J1.01
X110.401 Y11.409 Z-10.094 I-0.902 J-1.01
X112.206 Y13.43 Z-10.243 I0.902 J1.01
X110.401 Y11.409 Z-10.391 I-0.902 J-1.01
X112.658 Y12.408 Z-10.5 I0.902 J1.01
G1 Y12.419
Y12.628
G3 X111.1 Y14.186 I-1.558 J0.
G1 X110.545 F1816.
X110.489 Y14.184
X110.293 Y14.148
X110.279 Y14.146
X109.791 Y14.
X109.777 Y13.994
X109.763 Y13.986
X109.749 Y13.977
X109.34 Y13.682
X109.329 Y13.669
X109.318 Y13.657
X109.3 Y13.632
X109.026 Y13.24
X109.019 Y13.226
X109.014 Y13.212
X108.981 Y13.101
X108.871 Y12.712
X108.87 Y12.698
Y12.684
X108.871 Y12.656
X108.9 Y12.169
X108.903 Y12.155
X108.924 Y12.099
X109.108 Y11.656
X109.12 Y11.642
X109.155 Y11.601
X109.206 Y11.543
X109.47 Y11.248
X109.484 Y11.239
X109.54 Y11.207
X109.651 Y11.145
X109.939 Y10.985
X109.962 Y10.977
X110.628 Y10.862
X110.642 Y10.861
X111.099
G3 X111.417 Y11.179 I0. J0.318 F1016.
G2 X111.901 Y11.449 I0.317 J0. F1816.
G3 X112.302 Y11.505 I0.167 J0.27
X110.304 Y13.334 I-0.999 J0.915
X110.392 Y11.417 I0.999 J-0.915
G1 X110.401 Y11.409 F1016.
G3 X112.206 Y13.43 Z-10.649 I0.902 J1.01
X110.401 Y11.409 Z-10.797 I-0.902 J-1.01
X112.206 Y13.43 Z-10.946 I0.902 J1.01
X110.401 Y11.409 Z-11.094 I-0.902 J-1.01
X112.206 Y13.43 Z-11.243 I0.902 J1.01
X110.401 Y11.409 Z-11.391 I-0.902 J-1.01
X112.658 Y12.408 Z-11.5 I0.902 J1.01
G1 Y12.419
Y12.628
G3 X111.1 Y14.186 I-1.558 J0.
G1 X110.628 F1816.
X110.615 Y14.184
X110.098 Y14.091
X110.084 Y14.088
X109.874 Y14.025
X109.86 Y14.019
X109.603 Y13.87
X109.58 Y13.855
X109.408 Y13.731
X109.39 Y13.714
X109.204 Y13.491
X109.085 Y13.324
X109.065 Y13.296
X109.057 Y13.282
X108.992 Y13.101
X108.918 Y12.879
X108.887 Y12.767
X108.884 Y12.753
X108.886 Y12.433
X108.897 Y12.211
X108.9 Y12.197
X108.977 Y11.988
X109.06 Y11.772
X109.094 Y11.691
X109.101 Y11.678
X109.215 Y11.543
X109.433 Y11.289
X109.447 Y11.274
X109.46 Y11.259
X109.942 Y10.983
X109.965 Y10.979
X110.642 Y10.862
X110.656 Y10.861
X111.099
G18 G2 X111.417 Z-11.182 I0. K0.318 F1016.
G0 Z5.
X111.383 Y13.8
Z-3.038
G1 Z-12.5 F1016.
G17 G3 X110.946 Y13.923 I-0.279 J-0.152
G1 X110.701 Y13.782 F1816.
X110.688 Y13.769
X110.429 Y13.461
X110.343 Y13.358
X110.329 Y13.341
X110.161 Y12.879
X110.14 Y12.823
X110.136 Y12.809
X110.135 Y12.433
Y12.253
X110.136 Y12.239
X110.227 Y11.988
X110.307 Y11.766
X110.328 Y11.71
X110.338 Y11.696
X110.545 Y11.448
X110.675 Y11.292
X110.697 Y11.269
X110.941 Y11.127
G0 Z5.
X111.383 Y13.8
Z-3.038
G1 Z-13. F1016.
G3 X110.946 Y13.923 I-0.279 J-0.152
G1 X110.701 Y13.782 F1816.
X110.688 Y13.769
X110.545 Y13.599
X110.343 Y13.358
X110.329 Y13.341
X110.136 Y12.809
X110.135 Y12.656
Y12.253
X110.136 Y12.239
X110.227 Y11.988
X110.328 Y11.71
X110.338 Y11.696
X110.466 Y11.543
X110.675 Y11.293
X110.697 Y11.269
X110.925 Y11.137
X110.941 Y11.127
X110.982 Y11.103 Z-12.994 F1016.
X111.02 Y11.082 Z-12.976
X111.053 Y11.063 Z-12.947
X111.078 Y11.048 Z-12.909
X111.093 Y11.039 Z-12.865
X111.099 Y11.036 Z-12.818
G0 Z5.
X127.411 Y12.675
Z-3.69
G1 Z-5.682 F1016.
G19 G3 Y12.993 Z-6. J0.318 K0.
G1 Y13.869
G17 G3 X127.094 Y14.186 I-0.317 J0.
G1 X126.631 F1816.
X126.184 Y14.164
X125.737 Y14.162
X123.894
X123.88 Y14.161
X123.238 Y14.055
X123.224 Y14.05
X122.769 Y13.808
X122.749 Y13.791
X122.403 Y13.423
X122.39 Y13.403
X122.175 Y12.934
X122.173 Y12.92
X122.119 Y12.406
X122.122 Y12.392
X122.235 Y11.891
X122.241 Y11.877
X122.513 Y11.431
X122.53 Y11.416
X122.91 Y11.098
X122.929 Y11.085
X123.405 Y10.9
X123.419 Y10.895
X123.95 Y10.871
X124.397 Y10.861
X127.094
G3 X127.412 Y11.179 I0. J0.318 F1016.
G2 X127.896 Y11.449 I0.317 J0. F1816.
G3 X128.297 Y11.505 I0.167 J0.27
X126.298 Y13.334 I-0.999 J0.914
X126.386 Y11.417 I0.999 J-0.914
G1 X126.395 Y11.409 F1016.
G3 X128.2 Y13.43 Z-6.149 I0.902 J1.01
X126.395 Y11.409 Z-6.297 I-0.902 J-1.01
X128.2 Y13.43 Z-6.446 I0.902 J1.01
X126.395 Y11.409 Z-6.594 I-0.902 J-1.01
X128.2 Y13.43 Z-6.743 I0.902 J1.01
X126.395 Y11.409 Z-6.891 I-0.902 J-1.01
X128.652 Y12.408 Z-7. I0.902 J1.01
G1 Y12.419
Y12.628
G3 X127.094 Y14.186 I-1.558 J0.
G1 X126.631 F1816.
X126.184 Y14.164
X125.737 Y14.162
X123.894
X123.88 Y14.161
X123.238 Y14.055
X123.224 Y14.05
X122.769 Y13.808
X122.749 Y13.791
X122.403 Y13.423
X122.39 Y13.403
X122.175 Y12.934
X122.173 Y12.92
X122.119 Y12.406
X122.122 Y12.392
X122.235 Y11.891
X122.241 Y11.877
X122.513 Y11.431
X122.53 Y11.416
X122.91 Y11.098
X122.929 Y11.085
X123.405 Y10.9
X123.419 Y10.895
X123.95 Y10.871
X124.397 Y10.861
X127.094
G3 X127.412 Y11.179 I0. J0.318 F1016.
G2 X127.896 Y11.449 I0.317 J0. F1816.
G3 X128.297 Y11.505 I0.167 J0.27
X126.298 Y13.334 I-0.999 J0.914
X126.386 Y11.417 I0.999 J-0.914
G1 X126.395 Y11.409 F1016.
G3 X128.2 Y13.43 Z-7.149 I0.902 J1.01
X126.395 Y11.409 Z-7.297 I-0.902 J-1.01
X128.2 Y13.43 Z-7.446 I0.902 J1.01
X126.395 Y11.409 Z-7.594 I-0.902 J-1.01
X128.2 Y13.43 Z-7.743 I0.902 J1.01
X126.395 Y11.409 Z-7.891 I-0.902 J-1.01
X128.652 Y12.408 Z-8. I0.902 J1.01
G1 Y12.419
Y12.628
G3 X127.094 Y14.186 I-1.558 J0.
G1 X126.631 F1816.
X126.184 Y14.164
X125.737 Y14.162
X123.894
X123.88 Y14.161
X123.238 Y14.055
X123.224 Y14.05
X122.769 Y13.808
X122.749 Y13.791
X122.403 Y13.423
X122.39 Y13.403
X122.175 Y12.934
X122.173 Y12.92
X122.119 Y12.406
X122.122 Y12.392
X122.235 Y11.891
X122.241 Y11.877
X122.513 Y11.431
X122.53 Y11.416
X122.91 Y11.098
X122.929 Y11.085
X123.405 Y10.9
X123.419 Y10.895
X123.95 Y10.871
X124.397 Y10.861
X127.094
G3 X127.412 Y11.179 I0. J0.318 F1016.
G2 X127.896 Y11.449 I0.317 J0. F1816.
G3 X128.297 Y11.505 I0.167 J0.27
X126.298 Y13.334 I-0.999 J0.914
X126.386 Y11.417 I0.999 J-0.914
G1 X126.395 Y11.409 F1016.
G3 X128.2 Y13.43 Z-8.149 I0.902 J1.01
X126.395 Y11.409 Z-8.297 I-0.902 J-1.01
X128.2 Y13.43 Z-8.446 I0.902 J1.01
X126.395 Y11.409 Z-8.594 I-0.902 J-1.01
X128.2 Y13.43 Z-8.743 I0.902 J1.01
X126.395 Y11.409 Z-8.891 I-0.902 J-1.01
X128.652 Y12.408 Z-9. I0.902 J1.01
G1 Y12.419
Y12.628
G3 X127.094 Y14.186 I-1.558 J0.
G1 X126.631 F1816.
X126.184 Y14.164
X125.737 Y14.162
X124.578
X124.564 Y14.155
X123.919 Y13.747
X123.902 Y13.729
X123.58 Y13.324
X123.571 Y13.311
X123.396 Y12.809
X123.392 Y12.795
Y12.253
X123.396 Y12.239
X123.571 Y11.738
X123.588 Y11.714
X123.897 Y11.324
X123.915 Y11.303
X124.606 Y10.866
X124.62 Y10.861
X127.094
G3 X127.412 Y11.179 I0. J0.318 F1016.
G2 X127.896 Y11.449 I0.317 J0. F1816.
G3 X128.297 Y11.505 I0.167 J0.27
X128.652 Y12.419 I-0.999 J0.914
X126.754 Y13.66 I-1.355 J0. F1016.
G1 X126.744 Y13.656
G3 X127.851 Y11.183 Z-9.149 I0.553 J-1.236
X126.744 Y13.656 Z-9.297 I-0.553 J1.236
X127.851 Y11.183 Z-9.446 I0.553 J-1.236
X128.652 Y12.408 Z-9.5 I-0.553 J1.236
G1 Y12.419
Y12.628
G3 X127.094 Y14.186 I-1.558 J0.
G1 X126.631 F1816.
X126.184 Y14.164
X125.737 Y14.162
X124.578
X124.564 Y14.155
X123.919 Y13.747
X123.902 Y13.729
X123.58 Y13.324
X123.571 Y13.311
X123.396 Y12.809
X123.392 Y12.795
Y12.253
X123.396 Y12.239
X123.571 Y11.738
X123.588 Y11.714
X123.897 Y11.324
X123.915 Y11.303
X124.606 Y10.866
X124.62 Y10.861
X127.094
G3 X127.412 Y11.179 I0. J0.318 F1016.
G2 X127.896 Y11.449 I0.317 J0. F1816.
G3 X128.297 Y11.505 I0.167 J0.27
X126.298 Y13.334 I-0.999 J0.914
X126.386 Y11.417 I0.999 J-0.914
G1 X126.395 Y11.409 F1016.
G3 X128.2 Y13.43 Z-9.649 I0.902 J1.01
X126.395 Y11.409 Z-9.797 I-0.902 J-1.01
X128.2 Y13.43 Z-9.946 I0.902 J1.01
X126.395 Y11.409 Z-10.094 I-0.902 J-1.01
X128.2 Y13.43 Z-10.243 I0.902 J1.01
X126.395 Y11.409 Z-10.391 I-0.902 J-1.01
X128.652 Y12.408 Z-10.5 I0.902 J1.01
G1 Y12.419
Y12.628
G3 X127.094 Y14.186 I-1.558 J0.
G1 X126.631 F1816.
X126.519
X126.491 Y14.184
X126.477 Y14.181
X126.282 Y14.146
X126.268 Y14.142
X125.793 Y14.001
X125.779 Y13.995
X125.765 Y13.987
X125.751 Y13.979
X125.349 Y13.688
X125.336 Y13.678
X125.323 Y13.662
X125.29 Y13.617
X125.026 Y13.24
X125.019 Y13.226
X125.014 Y13.212
X124.981 Y13.101
X124.871 Y12.712
X124.87 Y12.698
Y12.684
X124.871 Y12.656
X124.9 Y12.169
X124.903 Y12.155
X124.924 Y12.099
X125.103 Y11.668
X125.11 Y11.654
X125.206 Y11.543
X125.467 Y11.251
X125.483 Y11.24
X125.513 Y11.223
X125.737 Y11.097
X125.946 Y10.981
X125.96 Y10.978
X126.631 Y10.862
X126.645 Y10.861
X127.094
G3 X127.412 Y11.179 I0. J0.318 F1016.
G2 X127.896 Y11.449 I0.317 J0. F1816.
G3 X128.297 Y11.505 I0.167 J0.27
X126.298 Y13.334 I-0.999 J0.914
X126.386 Y11.417 I0.999 J-0.914
G1 X126.395 Y11.409 F1016.
G3 X128.2 Y13.43 Z-10.649 I0.902 J1.01
X126.395 Y11.409 Z-10.797 I-0.902 J-1.01
X128.2 Y13.43 Z-10.946 I0.902 J1.01
X126.395 Y11.409 Z-11.094 I-0.902 J-1.01
X128.2 Y13.43 Z-11.243 I0.902 J1.01
X126.395 Y11.409 Z-11.391 I-0.902 J-1.01
X128.652 Y12.408 Z-11.5 I0.902 J1.01
G1 Y12.419
Y12.628
G3 X127.094 Y14.186 I-1.558 J0.
G1 X126.631 F1816.
X126.617 Y14.184
X126.1 Y14.091
X126.086 Y14.088
X125.877 Y14.026
X125.863 Y14.02
X125.599 Y13.867
X125.582 Y13.856
X125.412 Y13.734
X125.398 Y13.724
X125.29 Y13.594
X125.085 Y13.324
X125.065 Y13.296
X125.057 Y13.282
X124.992 Y13.101
X124.918 Y12.879
X124.887 Y12.767
X124.884 Y12.753
X124.886 Y12.433
X124.897 Y12.211
X124.9 Y12.197
X124.977 Y11.988
X125.063 Y11.766
X125.092 Y11.696
X125.098 Y11.682
X125.29 Y11.454
X125.386 Y11.341
X125.45 Y11.27
X125.466 Y11.256
X125.935 Y10.987
X125.949 Y10.982
X126.645 Y10.861
X126.659
X127.094
G18 G2 X127.412 Z-11.182 I0. K0.318 F1016.
G0 Z5.
X127.386 Y13.801
Z-3.037
G1 Z-12.5 F1016.
G17 G3 X126.948 Y13.925 I-0.279 J-0.152
G1 X126.701 Y13.782 F1816.
X126.688 Y13.769
X126.393 Y13.418
X126.334 Y13.347
X126.323 Y13.324
X126.184 Y12.942
X126.14 Y12.823
X126.136 Y12.809
X126.135 Y12.433
Y12.249
X126.14 Y12.229
X126.227 Y11.988
X126.307 Y11.766
X126.328 Y11.71
X126.338 Y11.696
X126.631 Y11.346
X126.683 Y11.283
X126.697 Y11.269
X126.948 Y11.123
G3 X127.384 Y11.241 I0.16 J0.275 F1016.
G0 Z5.
X127.386 Y13.801
Z-3.037
G1 Z-13. F1016.
G3 X126.948 Y13.924 I-0.279 J-0.152
G1 X126.701 Y13.782 F1816.
X126.688 Y13.769
X126.393 Y13.418
X126.334 Y13.347
X126.323 Y13.324
X126.161 Y12.879
X126.136 Y12.809
X126.135 Y12.656
Y12.249
X126.14 Y12.229
X126.227 Y11.988
X126.328 Y11.71
X126.338 Y11.696
X126.466 Y11.543
X126.683 Y11.283
X126.697 Y11.269
X126.916 Y11.141
X126.948 Y11.123
G3 X127.384 Y11.243 I0.159 J0.275 F1016.
G0 Z5.
X127.411 Y28.675
Z-3.69
G1 Z-5.682 F1016.
G19 G3 Y28.993 Z-6. J0.318 K0.
G1 Y29.869
G17 G3 X127.094 Y30.186 I-0.317 J0.
G1 X126.631 F1816.
X126.184 Y30.164
X125.737 Y30.162
X123.894
X123.88 Y30.161
X123.238 Y30.055
X123.224 Y30.05
X122.772 Y29.81
X122.753 Y29.796
X122.403 Y29.423
X122.391 Y29.405
X122.175 Y28.933
X122.173 Y28.919
X122.12 Y28.413
Y28.398
X122.235 Y27.89
X122.241 Y27.876
X122.505 Y27.444
X122.515 Y27.428
X122.901 Y27.106
X122.923 Y27.088
X123.405 Y26.9
X123.419 Y26.895
X123.95 Y26.871
X124.397 Y26.861
X127.094
G3 X127.412 Y27.179 I0. J0.318 F1016.
G2 X127.896 Y27.449 I0.318 J0. F1816.
G3 X128.297 Y27.505 I0.167 J0.27
X126.298 Y29.334 I-0.999 J0.914
X126.387 Y27.417 I0.999 J-0.914
G1 X126.395 Y27.409 F1016.
G3 X128.2 Y29.43 Z-6.149 I0.902 J1.01
X126.395 Y27.409 Z-6.297 I-0.902 J-1.01
X128.2 Y29.43 Z-6.446 I0.902 J1.01
X126.395 Y27.409 Z-6.594 I-0.902 J-1.01
X128.2 Y29.43 Z-6.743 I0.902 J1.01
X126.395 Y27.409 Z-6.891 I-0.902 J-1.01
X128.652 Y28.408 Z-7. I0.902 J1.01
G1 Y28.419
Y28.628
G3 X127.094 Y30.186 I-1.558 J0.
G1 X126.631 F1816.
X126.184 Y30.164
X125.737 Y30.162
X123.894
X123.88 Y30.161
X123.238 Y30.055
X123.224 Y30.05
X122.772 Y29.81
X122.753 Y29.796
X122.403 Y29.423
X122.391 Y29.405
X122.175 Y28.933
X122.173 Y28.919
X122.12 Y28.413
Y28.398
X122.235 Y27.89
X122.241 Y27.876
X122.505 Y27.444
X122.515 Y27.428
X122.901 Y27.106
X122.923 Y27.088
X123.405 Y26.9
X123.419 Y26.895
X123.95 Y26.871
X124.397 Y26.861
X127.094
G3 X127.412 Y27.179 I0. J0.318 F1016.
G2 X127.896 Y27.449 I0.318 J0. F1816.
G3 X128.297 Y27.505 I0.167 J0.27
X126.298 Y29.334 I-0.999 J0.914
X126.387 Y27.417 I0.999 J-0.914
G1 X126.395 Y27.409 F1016.
G3 X128.2 Y29.43 Z-7.149 I0.902 J1.01
X126.395 Y27.409 Z-7.297 I-0.902 J-1.01
X128.2 Y29.43 Z-7.446 I0.902 J1.01
X126.395 Y27.409 Z-7.594 I-0.902 J-1.01
X128.2 Y29.43 Z-7.743 I0.902 J1.01
X126.395 Y27.409 Z-7.891 I-0.902 J-1.01
X128.652 Y28.408 Z-8. I0.902 J1.01
G1 Y28.419
Y28.628
G3 X127.094 Y30.186 I-1.558 J0.
G1 X126.631 F1816.
X126.184 Y30.164
X125.737 Y30.162
X123.894
X123.88 Y30.161
X123.238 Y30.055
X123.224 Y30.05
X122.772 Y29.81
X122.753 Y29.796
X122.403 Y29.423
X122.391 Y29.405
X122.175 Y28.933
X122.173 Y28.919
X122.12 Y28.413
Y28.398
X122.235 Y27.89
X122.241 Y27.876
X122.505 Y27.444
X122.515 Y27.428
X122.901 Y27.106
X122.923 Y27.088
X123.405 Y26.9
X123.419 Y26.895
X123.95 Y26.871
X124.397 Y26.861
X127.094
G3 X127.412 Y27.179 I0. J0.318 F1016.
G2 X127.896 Y27.449 I0.318 J0. F1816.
G3 X128.297 Y27.505 I0.167 J0.27
X126.298 Y29.334 I-0.999 J0.914
X126.387 Y27.417 I0.999 J-0.914
G1 X126.395 Y27.409 F1016.
G3 X128.2 Y29.43 Z-8.149 I0.902 J1.01
X126.395 Y27.409 Z-8.297 I-0.902 J-1.01
X128.2 Y29.43 Z-8.446 I0.902 J1.01
X126.395 Y27.409 Z-8.594 I-0.902 J-1.01
X128.2 Y29.43 Z-8.743 I0.902 J1.01
X126.395 Y27.409 Z-8.891 I-0.902 J-1.01
X128.652 Y28.408 Z-9. I0.902 J1.01
G1 Y28.419
Y28.628
G3 X127.094 Y30.186 I-1.558 J0.
G1 X126.631 F1816.
X126.184 Y30.164
X125.737 Y30.162
X124.578
X124.564 Y30.155
X123.92 Y29.748
X123.904 Y29.731
X123.577 Y29.321
X123.57 Y29.306
X123.396 Y28.808
X123.392 Y28.794
Y28.251
X123.397 Y28.237
X123.566 Y27.751
X123.576 Y27.729
X123.912 Y27.306
X123.931 Y27.293
X124.606 Y26.866
X124.62 Y26.861
X127.094
G3 X127.412 Y27.179 I0. J0.318 F1016.
G2 X127.896 Y27.449 I0.318 J0. F1816.
G3 X128.297 Y27.505 I0.167 J0.27
X128.652 Y28.419 I-0.999 J0.914
X126.754 Y29.66 I-1.355 J0. F1016.
G1 X126.744 Y29.656
G3 X127.851 Y27.183 Z-9.149 I0.553 J-1.236
X126.744 Y29.656 Z-9.297 I-0.553 J1.236
X127.851 Y27.183 Z-9.446 I0.553 J-1.236
X128.652 Y28.408 Z-9.5 I-0.553 J1.236
G1 Y28.419
Y28.628
G3 X127.094 Y30.186 I-1.558 J0.
G1 X126.631 F1816.
X126.184 Y30.164
X125.737 Y30.162
X124.578
X124.564 Y30.155
X123.92 Y29.748
X123.904 Y29.731
X123.577 Y29.321
X123.57 Y29.306
X123.396 Y28.808
X123.392 Y28.794
Y28.251
X123.397 Y28.237
X123.566 Y27.751
X123.576 Y27.729
X123.912 Y27.306
X123.931 Y27.293
X124.606 Y26.866
X124.62 Y26.861
X127.094
G3 X127.412 Y27.179 I0. J0.318 F1016.
G2 X127.896 Y27.449 I0.318 J0. F1816.
G3 X128.297 Y27.505 I0.167 J0.27
X126.298 Y29.334 I-0.999 J0.914
X126.387 Y27.417 I0.999 J-0.914
G1 X126.395 Y27.409 F1016.
G3 X128.2 Y29.43 Z-9.649 I0.902 J1.01
X126.395 Y27.409 Z-9.797 I-0.902 J-1.01
X128.2 Y29.43 Z-9.946 I0.902 J1.01
X126.395 Y27.409 Z-10.094 I-0.902 J-1.01
X128.2 Y29.43 Z-10.243 I0.902 J1.01
X126.395 Y27.409 Z-10.391 I-0.902 J-1.01
X128.652 Y28.408 Z-10.5 I0.902 J1.01
G1 Y28.419
Y28.628
G3 X127.094 Y30.186 I-1.558 J0.
G1 X126.631 F1816.
X126.519
X126.491 Y30.184
X126.477 Y30.181
X126.282 Y30.146
X126.268 Y30.142
X125.793 Y30.001
X125.779 Y29.995
X125.765 Y29.987
X125.751 Y29.979
X125.342 Y29.683
X125.326 Y29.667
X125.313 Y29.65
X125.026 Y29.239
X125.018 Y29.225
X125.013 Y29.211
X125.005 Y29.183
X124.871 Y28.71
X124.87 Y28.697
Y28.683
X124.882 Y28.46
X124.9 Y28.168
X124.903 Y28.154
X124.913 Y28.126
X124.959 Y28.015
X125.104 Y27.667
X125.111 Y27.653
X125.134 Y27.625
X125.182 Y27.57
X125.461 Y27.258
X125.475 Y27.245
X125.489 Y27.237
X125.687 Y27.124
X125.946 Y26.981
X125.96 Y26.978
X126.631 Y26.862
X126.645 Y26.861
X127.094
G3 X127.412 Y27.179 I0. J0.318 F1016.
G2 X127.896 Y27.449 I0.318 J0. F1816.
G3 X128.297 Y27.505 I0.167 J0.27
X126.298 Y29.334 I-0.999 J0.914
X126.387 Y27.417 I0.999 J-0.914
G1 X126.395 Y27.409 F1016.
G3 X128.2 Y29.43 Z-10.649 I0.902 J1.01
X126.395 Y27.409 Z-10.797 I-0.902 J-1.01
X128.2 Y29.43 Z-10.946 I0.902 J1.01
X126.395 Y27.409 Z-11.094 I-0.902 J-1.01
X128.2 Y29.43 Z-11.243 I0.902 J1.01
X126.395 Y27.409 Z-11.391 I-0.902 J-1.01
X128.652 Y28.408 Z-11.5 I0.902 J1.01
G1 Y28.419
Y28.628
G3 X127.094 Y30.186 I-1.558 J0.
G1 X126.631 F1816.
X126.617 Y30.184
X126.1 Y30.091
X126.086 Y30.088
X125.877 Y30.026
X125.863 Y30.02
X125.587 Y29.86
X125.572 Y29.85
X125.407 Y29.73
X125.394 Y29.718
X125.29 Y29.594
X125.103 Y29.35
X125.064 Y29.295
X125.056 Y29.281
X125.001 Y29.128
X124.926 Y28.905
X124.887 Y28.766
X124.884 Y28.752
X124.885 Y28.46
X124.896 Y28.237
X124.897 Y28.21
X124.9 Y28.196
X124.967 Y28.015
X125.052 Y27.792
X125.092 Y27.695
X125.099 Y27.681
X125.29 Y27.454
X125.381 Y27.347
X125.45 Y27.271
X125.465 Y27.257
X125.933 Y26.989
X125.946 Y26.982
X126.645 Y26.861
X126.659
X127.094
G0 Z5.
X127.377 Y29.801
Z-3.038
G1 Z-12.5 F1016.
G3 X126.941 Y29.92 I-0.277 J-0.155
G1 X126.698 Y29.78 F1816.
X126.684 Y29.764
X126.336 Y29.35
X126.328 Y29.338
X126.17 Y28.905
X126.14 Y28.822
X126.136 Y28.808
X126.135 Y28.46
Y28.261
X126.136 Y28.239
X126.298 Y27.792
X126.328 Y27.709
X126.339 Y27.695
X126.631 Y27.346
X126.692 Y27.273
X126.707 Y27.263
X126.959 Y27.117
G3 X127.395 Y27.235 I0.16 J0.275 F1016.
G0 Z5.
X127.377 Y29.801
Z-3.038
G1 Z-13. F1016.
G3 X126.941 Y29.92 I-0.277 J-0.155
G1 X126.702 Y29.782 F1816.
X126.678 Y29.757
X126.336 Y29.35
X126.328 Y29.338
X126.258 Y29.146
X126.14 Y28.822
X126.136 Y28.808
X126.135 Y28.683
Y28.46
Y28.261
X126.136 Y28.239
X126.217 Y28.015
X126.328 Y27.709
X126.339 Y27.695
X126.443 Y27.57
X126.692 Y27.273
X126.707 Y27.263
X126.946 Y27.124
X126.959 Y27.117
G3 X127.395 Y27.236 I0.159 J0.275 F1016.
G0 Z5.
X111.417 Y28.675
Z-3.69
G1 Z-5.682 F1016.
G19 G3 Y28.993 Z-6. J0.318 K0.
G1 Y29.869
G17 G3 X111.1 Y30.186 I-0.317 J0.
G1 X110.545 F1816.
X110.098 Y30.162
X107.892
X107.878 Y30.16
X107.235 Y30.055
X107.221 Y30.049
X106.767 Y29.807
X106.753 Y29.796
X106.405 Y29.426
X106.395 Y29.413
X106.175 Y28.933
X106.173 Y28.919
X106.119 Y28.404
X106.122 Y28.39
X106.235 Y27.89
X106.241 Y27.876
X106.507 Y27.44
X106.523 Y27.422
X106.901 Y27.105
X106.924 Y27.087
X107.417 Y26.896
X107.431 Y26.894
X107.864 Y26.875
X108.311 Y26.861
X111.1
G3 X111.417 Y27.179 I0. J0.318 F1016.
G2 X111.902 Y27.449 I0.318 J0. F1816.
G3 X112.302 Y27.505 I0.167 J0.27
X110.304 Y29.334 I-0.999 J0.915
X110.393 Y27.417 I0.999 J-0.915
G1 X110.401 Y27.409 F1016.
G3 X112.206 Y29.43 Z-6.149 I0.902 J1.01
X110.401 Y27.409 Z-6.297 I-0.902 J-1.01
X112.206 Y29.43 Z-6.446 I0.902 J1.01
X110.401 Y27.409 Z-6.594 I-0.902 J-1.01
X112.206 Y29.43 Z-6.743 I0.902 J1.01
X110.401 Y27.409 Z-6.891 I-0.902 J-1.01
X112.658 Y28.408 Z-7. I0.902 J1.01
G1 Y28.419
Y28.628
G3 X111.1 Y30.186 I-1.558 J0.
G1 X110.545 F1816.
X110.098 Y30.162
X107.892
X107.878 Y30.16
X107.235 Y30.055
X107.221 Y30.049
X106.767 Y29.807
X106.753 Y29.796
X106.405 Y29.426
X106.395 Y29.413
X106.175 Y28.933
X106.173 Y28.919
X106.119 Y28.404
X106.122 Y28.39
X106.235 Y27.89
X106.241 Y27.876
X106.507 Y27.44
X106.523 Y27.422
X106.901 Y27.105
X106.924 Y27.087
X107.417 Y26.896
X107.431 Y26.894
X107.864 Y26.875
X108.311 Y26.861
X111.1
G3 X111.417 Y27.179 I0. J0.318 F1016.
G2 X111.902 Y27.449 I0.318 J0. F1816.
G3 X112.302 Y27.505 I0.167 J0.27
X110.304 Y29.334 I-0.999 J0.915
X110.393 Y27.417 I0.999 J-0.915
G1 X110.401 Y27.409 F1016.
G3 X112.206 Y29.43 Z-7.149 I0.902 J1.01
X110.401 Y27.409 Z-7.297 I-0.902 J-1.01
X112.206 Y29.43 Z-7.446 I0.902 J1.01
X110.401 Y27.409 Z-7.594 I-0.902 J-1.01
X112.206 Y29.43 Z-7.743 I0.902 J1.01
X110.401 Y27.409 Z-7.891 I-0.902 J-1.01
X112.658 Y28.408 Z-8. I0.902 J1.01
G1 Y28.419
Y28.628
G3 X111.1 Y30.186 I-1.558 J0.
G1 X110.545 F1816.
X110.098 Y30.162
X107.892
X107.878 Y30.16
X107.235 Y30.055
X107.221 Y30.049
X106.767 Y29.807
X106.753 Y29.796
X106.405 Y29.426
X106.395 Y29.413
X106.175 Y28.933
X106.173 Y28.919
X106.119 Y28.404
X106.122 Y28.39
X106.235 Y27.89
X106.241 Y27.876
X106.507 Y27.44
X106.523 Y27.422
X106.901 Y27.105
X106.924 Y27.087
X107.417 Y26.896
X107.431 Y26.894
X107.864 Y26.875
X108.311 Y26.861
X111.1
G3 X111.417 Y27.179 I0. J0.318 F1016.
G2 X111.902 Y27.449 I0.318 J0. F1816.
G3 X112.302 Y27.505 I0.167 J0.27
X110.304 Y29.334 I-0.999 J0.915
X110.393 Y27.417 I0.999 J-0.915
G1 X110.401 Y27.409 F1016.
G3 X112.206 Y29.43 Z-8.149 I0.902 J1.01
X110.401 Y27.409 Z-8.297 I-0.902 J-1.01
X112.206 Y29.43 Z-8.446 I0.902 J1.01
X110.401 Y27.409 Z-8.594 I-0.902 J-1.01
X112.206 Y29.43 Z-8.743 I0.902 J1.01
X110.401 Y27.409 Z-8.891 I-0.902 J-1.01
X112.658 Y28.408 Z-9. I0.902 J1.01
G1 Y28.419
Y28.628
G3 X111.1 Y30.186 I-1.558 J0.
G1 X110.545 F1816.
X110.098 Y30.162
X108.576
X108.562 Y30.154
X107.929 Y29.754
X107.911 Y29.741
X107.579 Y29.323
X107.571 Y29.309
X107.395 Y28.804
X107.392 Y28.792
Y28.267
Y28.25
X107.571 Y27.737
X107.581 Y27.723
X107.908 Y27.311
X107.922 Y27.298
X108.604 Y26.867
X108.618 Y26.861
X111.1
G3 X111.417 Y27.179 I0. J0.318 F1016.
G2 X111.902 Y27.449 I0.318 J0. F1816.
G3 X112.302 Y27.505 I0.167 J0.27
X112.658 Y28.419 I-0.999 J0.915
X110.76 Y29.66 I-1.355 J0. F1016.
G1 X110.75 Y29.656
G3 X111.857 Y27.183 Z-9.149 I0.553 J-1.236
X110.75 Y29.656 Z-9.297 I-0.553 J1.236
X111.857 Y27.183 Z-9.446 I0.553 J-1.236
X112.658 Y28.408 Z-9.5 I-0.553 J1.236
G1 Y28.419
Y28.628
G3 X111.1 Y30.186 I-1.558 J0.
G1 X110.545 F1816.
X110.098 Y30.162
X108.576
X108.562 Y30.154
X107.929 Y29.754
X107.911 Y29.741
X107.579 Y29.323
X107.571 Y29.309
X107.395 Y28.804
X107.392 Y28.792
Y28.267
Y28.25
X107.571 Y27.737
X107.581 Y27.723
X107.908 Y27.311
X107.922 Y27.298
X108.604 Y26.867
X108.618 Y26.861
X111.1
G3 X111.417 Y27.179 I0. J0.318 F1016.
G2 X111.902 Y27.449 I0.318 J0. F1816.
G3 X112.302 Y27.505 I0.167 J0.27
X110.304 Y29.334 I-0.999 J0.915
X110.393 Y27.417 I0.999 J-0.915
G1 X110.401 Y27.409 F1016.
G3 X112.206 Y29.43 Z-9.649 I0.902 J1.01
X110.401 Y27.409 Z-9.797 I-0.902 J-1.01
X112.206 Y29.43 Z-9.946 I0.902 J1.01
X110.401 Y27.409 Z-10.094 I-0.902 J-1.01
X112.206 Y29.43 Z-10.243 I0.902 J1.01
X110.401 Y27.409 Z-10.391 I-0.902 J-1.01
X112.658 Y28.408 Z-10.5 I0.902 J1.01
G1 Y28.419
Y28.628
G3 X111.1 Y30.186 I-1.558 J0.
G1 X110.545 F1816.
X110.489 Y30.184
X110.279 Y30.146
X109.791 Y30.
X109.777 Y29.994
X109.763 Y29.986
X109.749 Y29.977
X109.342 Y29.683
X109.328 Y29.669
X109.309 Y29.645
X109.026 Y29.239
X109.018 Y29.225
X109.013 Y29.211
X109.005 Y29.183
X108.871 Y28.71
X108.87 Y28.697
Y28.683
X108.882 Y28.46
X108.9 Y28.168
X108.903 Y28.154
X108.913 Y28.126
X108.959 Y28.015
X109.104 Y27.667
X109.111 Y27.653
X109.134 Y27.625
X109.182 Y27.57
X109.47 Y27.249
X109.483 Y27.24
X109.539 Y27.208
X109.651 Y27.145
X109.944 Y26.982
X109.957 Y26.978
X110.628 Y26.862
X110.642 Y26.861
X111.1
G3 X111.417 Y27.179 I0. J0.318 F1016.
G2 X111.902 Y27.449 I0.318 J0. F1816.
G3 X112.302 Y27.505 I0.167 J0.27
X110.304 Y29.334 I-0.999 J0.915
X110.393 Y27.417 I0.999 J-0.915
G1 X110.401 Y27.409 F1016.
G3 X112.206 Y29.43 Z-10.649 I0.902 J1.01
X110.401 Y27.409 Z-10.797 I-0.902 J-1.01
X112.206 Y29.43 Z-10.946 I0.902 J1.01
X110.401 Y27.409 Z-11.094 I-0.902 J-1.01
X112.206 Y29.43 Z-11.243 I0.902 J1.01
X110.401 Y27.409 Z-11.391 I-0.902 J-1.01
X112.658 Y28.408 Z-11.5 I0.902 J1.01
G1 Y28.419
Y28.628
G3 X111.1 Y30.186 I-1.558 J0.
G1 X110.628 F1816.
X110.615 Y30.184
X110.098 Y30.091
X110.084 Y30.088
X109.874 Y30.025
X109.86 Y30.019
X109.594 Y29.864
X109.574 Y29.851
X109.402 Y29.726
X109.389 Y29.712
X109.204 Y29.491
X109.103 Y29.35
X109.064 Y29.295
X109.056 Y29.281
X109.001 Y29.128
X108.926 Y28.905
X108.887 Y28.766
X108.884 Y28.752
X108.885 Y28.46
X108.896 Y28.237
X108.897 Y28.21
X108.9 Y28.196
X108.967 Y28.015
X109.052 Y27.792
X109.092 Y27.695
X109.099 Y27.681
X109.204 Y27.556
X109.428 Y27.295
X109.456 Y27.264
X109.47 Y27.254
X109.935 Y26.988
X109.947 Y26.982
X110.642 Y26.862
X110.656 Y26.861
X111.1
G0 Z5.
X111.374 Y29.8
Z-3.038
G1 Z-12.5 F1016.
G3 X110.939 Y29.919 I-0.277 J-0.156
G1 X110.697 Y29.779 F1816.
X110.682 Y29.763
X110.545 Y29.599
X110.336 Y29.35
X110.328 Y29.336
X110.17 Y28.905
X110.14 Y28.822
X110.136 Y28.808
X110.135 Y28.349
Y28.251
X110.136 Y28.237
X110.298 Y27.792
X110.328 Y27.709
X110.339 Y27.695
X110.625 Y27.352
X110.679 Y27.287
X110.693 Y27.271
X110.96 Y27.116
X110.994 Y27.096 Z-12.492 F1016.
X111.023 Y27.08 Z-12.47
X111.042 Y27.068 Z-12.437
X111.049 Y27.064 Z-12.398
G0 Z5.
X111.374 Y29.8
Z-3.038
G1 Z-13. F1016.
G3 X110.939 Y29.919 I-0.277 J-0.156
G1 X110.697 Y29.779 F1816.
X110.682 Y29.763
X110.545 Y29.599
X110.336 Y29.35
X110.328 Y29.336
X110.252 Y29.128
X110.14 Y28.822
X110.136 Y28.808
X110.135 Y28.683
Y28.349
Y28.251
X110.136 Y28.237
X110.217 Y28.015
X110.328 Y27.709
X110.339 Y27.695
X110.443 Y27.57
X110.545 Y27.449
X110.693 Y27.271
X110.707 Y27.263
X110.96 Y27.116
G0 Z5.
X95.403 Y28.675
Z-3.69
G1 Z-5.682 F1016.
G19 G3 Y28.993 Z-6. J0.318 K0.
G1 Y29.869
G17 G3 X95.085 Y30.186 I-0.317 J0.
G1 X94.906 F1816.
X94.459 Y30.185
X94.012 Y30.162
X91.889
X91.875 Y30.16
X91.233 Y30.054
X91.219 Y30.048
X90.77 Y29.808
X90.753 Y29.796
X90.398 Y29.419
X90.391 Y29.405
X90.175 Y28.933
X90.173 Y28.919
X90.119 Y28.404
X90.122 Y28.39
X90.235 Y27.89
X90.241 Y27.876
X90.512 Y27.432
X90.531 Y27.416
X90.912 Y27.096
X90.926 Y27.086
X91.415 Y26.897
X91.429 Y26.895
X91.778 Y26.879
X92.225 Y26.861
X95.097
G3 X95.415 Y27.179 I0. J0.318 F1016.
G2 X95.895 Y27.451 I0.317 J0. F1816.
G3 X96.294 Y27.511 I0.163 J0.273
X94.284 Y29.328 I-1.005 J0.908
X94.378 Y27.417 I1.005 J-0.908
G1 X94.386 Y27.409 F1016.
G3 X96.191 Y29.43 Z-6.149 I0.902 J1.01
X94.386 Y27.409 Z-6.297 I-0.902 J-1.01
X96.191 Y29.43 Z-6.446 I0.902 J1.01
X94.386 Y27.409 Z-6.594 I-0.902 J-1.01
X96.191 Y29.43 Z-6.743 I0.902 J1.01
X94.386 Y27.409 Z-6.891 I-0.902 J-1.01
X96.643 Y28.408 Z-7. I0.902 J1.01
G1 Y28.419
Y28.628
G3 X95.085 Y30.186 I-1.558 J0.
G1 X94.906 F1816.
X94.459 Y30.185
X94.012 Y30.162
X91.889
X91.875 Y30.16
X91.233 Y30.054
X91.219 Y30.048
X90.77 Y29.808
X90.753 Y29.796
X90.398 Y29.419
X90.391 Y29.405
X90.175 Y28.933
X90.173 Y28.919
X90.119 Y28.404
X90.122 Y28.39
X90.235 Y27.89
X90.241 Y27.876
X90.512 Y27.432
X90.531 Y27.416
X90.912 Y27.096
X90.926 Y27.086
X91.415 Y26.897
X91.429 Y26.895
X91.778 Y26.879
X92.225 Y26.861
X95.097
G3 X95.415 Y27.179 I0. J0.318 F1016.
G2 X95.895 Y27.451 I0.317 J0. F1816.
G3 X96.294 Y27.511 I0.163 J0.273
X94.284 Y29.328 I-1.005 J0.908
X94.378 Y27.417 I1.005 J-0.908
G1 X94.386 Y27.409 F1016.
G3 X96.191 Y29.43 Z-7.149 I0.902 J1.01
X94.386 Y27.409 Z-7.297 I-0.902 J-1.01
X96.191 Y29.43 Z-7.446 I0.902 J1.01
X94.386 Y27.409 Z-7.594 I-0.902 J-1.01
X96.191 Y29.43 Z-7.743 I0.902 J1.01
X94.386 Y27.409 Z-7.891 I-0.902 J-1.01
X96.643 Y28.408 Z-8. I0.902 J1.01
G1 Y28.419
Y28.628
G3 X95.085 Y30.186 I-1.558 J0.
G1 X94.906 F1816.
X94.459 Y30.184
X94.012 Y30.162
X91.889
X91.875 Y30.16
X91.233 Y30.054
X91.219 Y30.048
X90.77 Y29.808
X90.753 Y29.796
X90.398 Y29.419
X90.391 Y29.405
X90.175 Y28.933
X90.173 Y28.919
X90.119 Y28.404
X90.122 Y28.39
X90.235 Y27.89
X90.241 Y27.876
X90.512 Y27.432
X90.531 Y27.416
X90.912 Y27.096
X90.926 Y27.086
X91.415 Y26.897
X91.429 Y26.895
X91.778 Y26.879
X92.225 Y26.861
X95.097
G3 X95.415 Y27.179 I0. J0.318 F1016.
G2 X95.895 Y27.451 I0.317 J0. F1816.
G3 X96.294 Y27.511 I0.163 J0.273
X94.284 Y29.328 I-1.005 J0.908
X94.378 Y27.417 I1.005 J-0.908
G1 X94.386 Y27.409 F1016.
G3 X96.191 Y29.43 Z-8.149 I0.902 J1.01
X94.386 Y27.409 Z-8.297 I-0.902 J-1.01
X96.191 Y29.43 Z-8.446 I0.902 J1.01
X94.386 Y27.409 Z-8.594 I-0.902 J-1.01
X96.191 Y29.43 Z-8.743 I0.902 J1.01
X94.386 Y27.409 Z-8.891 I-0.902 J-1.01
X96.643 Y28.408 Z-9. I0.902 J1.01
G1 Y28.419
Y28.628
G3 X95.085 Y30.186 I-1.558 J0.
G1 X94.906 F1816.
X94.459 Y30.183
X94.012 Y30.162
X92.588
X92.574 Y30.161
X91.931 Y29.755
X91.912 Y29.742
X91.579 Y29.323
X91.571 Y29.309
X91.396 Y28.808
X91.392 Y28.794
Y28.251
X91.397 Y28.237
X91.571 Y27.737
X91.581 Y27.723
X91.906 Y27.313
X91.926 Y27.296
X92.602 Y26.869
X92.616 Y26.861
X95.097
G3 X95.415 Y27.179 I0. J0.318 F1016.
G2 X95.895 Y27.451 I0.317 J0. F1816.
G3 X96.294 Y27.511 I0.163 J0.273
X96.643 Y28.419 I-1.005 J0.908
X94.746 Y29.66 I-1.355 J0. F1016.
G1 X94.735 Y29.656
G3 X95.842 Y27.183 Z-9.149 I0.553 J-1.236
X94.735 Y29.656 Z-9.297 I-0.553 J1.236
X95.842 Y27.183 Z-9.446 I0.553 J-1.236
X96.643 Y28.408 Z-9.5 I-0.553 J1.236
G1 Y28.419
Y28.628
G3 X95.085 Y30.186 I-1.558 J0.
G1 X94.906 F1816.
X94.459 Y30.182
X94.012 Y30.162
X92.588
X92.574 Y30.161
X91.931 Y29.755
X91.912 Y29.742
X91.579 Y29.323
X91.571 Y29.309
X91.396 Y28.808
X91.392 Y28.794
Y28.251
X91.397 Y28.237
X91.571 Y27.737
X91.581 Y27.723
X91.906 Y27.313
X91.926 Y27.296
X92.602 Y26.869
X92.616 Y26.861
X95.097
G3 X95.415 Y27.179 I0. J0.318 F1016.
G2 X95.895 Y27.451 I0.317 J0. F1816.
G3 X96.294 Y27.511 I0.163 J0.273
X94.284 Y29.328 I-1.005 J0.908
X94.378 Y27.417 I1.005 J-0.908
G1 X94.386 Y27.409 F1016.
G3 X96.191 Y29.43 Z-9.649 I0.902 J1.01
X94.386 Y27.409 Z-9.797 I-0.902 J-1.01
X96.191 Y29.43 Z-9.946 I0.902 J1.01
X94.386 Y27.409 Z-10.094 I-0.902 J-1.01
X96.191 Y29.43 Z-10.243 I0.902 J1.01
X94.386 Y27.409 Z-10.391 I-0.902 J-1.01
X96.643 Y28.408 Z-10.5 I0.902 J1.01
G1 Y28.419
Y28.628
G3 X95.085 Y30.186 I-1.558 J0.
G1 X94.57 F1816.
X94.515 Y30.185
X94.501 Y30.184
X94.487 Y30.183
X94.291 Y30.148
X94.277 Y30.145
X93.788 Y29.999
X93.775 Y29.993
X93.761 Y29.985
X93.747 Y29.975
X93.347 Y29.687
X93.327 Y29.667
X93.311 Y29.648
X93.026 Y29.239
X93.018 Y29.225
X93.013 Y29.211
X93.005 Y29.183
X92.871 Y28.71
X92.87 Y28.697
Y28.683
X92.882 Y28.46
X92.9 Y28.168
X92.903 Y28.154
X92.913 Y28.126
X92.959 Y28.015
X93.104 Y27.667
X93.118 Y27.644
X93.182 Y27.57
X93.469 Y27.249
X93.493 Y27.234
X93.565 Y27.193
X93.687 Y27.124
X93.931 Y26.99
X93.951 Y26.979
X94.626 Y26.863
X94.64 Y26.861
X95.097
G3 X95.415 Y27.179 I0. J0.318 F1016.
G2 X95.895 Y27.451 I0.317 J0. F1816.
G3 X96.294 Y27.511 I0.163 J0.273
X94.284 Y29.328 I-1.005 J0.908
X94.378 Y27.417 I1.005 J-0.908
G1 X94.386 Y27.409 F1016.
G3 X96.191 Y29.43 Z-10.649 I0.902 J1.01
X94.386 Y27.409 Z-10.797 I-0.902 J-1.01
X96.191 Y29.43 Z-10.946 I0.902 J1.01
X94.386 Y27.409 Z-11.094 I-0.902 J-1.01
X96.191 Y29.43 Z-11.243 I0.902 J1.01
X94.386 Y27.409 Z-11.391 I-0.902 J-1.01
X96.643 Y28.408 Z-11.5 I0.902 J1.01
G1 Y28.419
Y28.628
G3 X95.085 Y30.186 I-1.558 J0.
G1 X94.64 F1816.
X94.626
X94.096 Y30.091
X94.082 Y30.087
X93.872 Y30.024
X93.858 Y30.018
X93.593 Y29.863
X93.579 Y29.854
X93.403 Y29.727
X93.39 Y29.713
X93.282 Y29.584
X93.118 Y29.372
X93.064 Y29.295
X93.056 Y29.281
X93.001 Y29.128
X92.926 Y28.905
X92.887 Y28.766
X92.884 Y28.752
X92.885 Y28.46
X92.896 Y28.237
X92.897 Y28.21
X92.9 Y28.196
X92.967 Y28.015
X93.033 Y27.836
X93.089 Y27.702
X93.099 Y27.68
X93.193 Y27.57
X93.379 Y27.35
X93.447 Y27.274
X93.472 Y27.253
X93.933 Y26.989
X93.953 Y26.981
X94.64 Y26.862
X94.654 Y26.861
X95.097
G0 Z5.
X95.379 Y29.803
Z-3.037
G1 Z-12.5 F1016.
G3 X94.944 Y29.922 I-0.277 J-0.156
G1 X94.706 Y29.784 F1816.
X94.686 Y29.767
X94.459 Y29.497
X94.336 Y29.35
X94.328 Y29.336
X94.17 Y28.905
X94.14 Y28.822
X94.136 Y28.808
X94.135 Y28.349
Y28.251
X94.136 Y28.237
X94.298 Y27.792
X94.328 Y27.709
X94.339 Y27.695
X94.459 Y27.551
X94.682 Y27.284
X94.703 Y27.265
X94.959 Y27.117
X94.987 Y27.1 Z-12.495 F1016.
X95.012 Y27.086 Z-12.48
X95.032 Y27.074 Z-12.457
X95.045 Y27.067 Z-12.428
X95.049 Y27.064 Z-12.396
G0 Z5.
X95.379 Y29.803
Z-3.037
G1 Z-13. F1016.
G3 X94.944 Y29.922 I-0.277 J-0.156
G1 X94.706 Y29.784 F1816.
X94.686 Y29.767
X94.584 Y29.646
X94.336 Y29.35
X94.328 Y29.336
X94.252 Y29.128
X94.14 Y28.822
X94.136 Y28.808
X94.135 Y28.683
Y28.349
Y28.251
X94.136 Y28.237
X94.217 Y28.015
X94.328 Y27.709
X94.339 Y27.695
X94.459 Y27.551
X94.682 Y27.285
X94.703 Y27.265
X94.906 Y27.148
X94.959 Y27.117
X94.981 Y27.104 Z-12.995 F1016.
X95. Y27.093 Z-12.981
X95.012 Y27.086 Z-12.959
X95.016 Y27.084 Z-12.934
G0 Z5.
X79.408 Y28.675
Z-3.69
G1 Z-5.682 F1016.
G19 G3 Y28.993 Z-6. J0.318 K0.
G1 Y29.869
G17 G3 X79.09 Y30.186 I-0.317 J0.
G1 X78.82 F1816.
X78.373 Y30.18
X77.926 Y30.162
X75.887
X75.873 Y30.16
X75.245 Y30.056
X75.231 Y30.054
X74.776 Y29.812
X74.753 Y29.796
X74.399 Y29.42
X74.391 Y29.406
X74.18 Y28.944
X74.174 Y28.931
X74.119 Y28.404
X74.122 Y28.39
X74.234 Y27.895
X74.242 Y27.875
X74.5 Y27.452
X74.516 Y27.428
X74.901 Y27.105
X74.924 Y27.087
X75.412 Y26.897
X75.426 Y26.895
X76.139 Y26.863
X76.585 Y26.861
X79.093
G3 X79.41 Y27.179 I0. J0.318 F1016.
G2 X79.894 Y27.449 I0.318 J0. F1816.
G3 X80.294 Y27.506 I0.166 J0.271
X78.293 Y29.333 I-1. J0.913
X78.383 Y27.417 I1. J-0.913
G1 X78.391 Y27.409 F1016.
G3 X80.196 Y29.43 Z-6.149 I0.902 J1.01
X78.391 Y27.409 Z-6.297 I-0.902 J-1.01
X80.196 Y29.43 Z-6.446 I0.902 J1.01
X78.391 Y27.409 Z-6.594 I-0.902 J-1.01
X80.196 Y29.43 Z-6.743 I0.902 J1.01
X78.391 Y27.409 Z-6.891 I-0.902 J-1.01
X80.648 Y28.408 Z-7. I0.902 J1.01
G1 Y28.419
Y28.628
G3 X79.09 Y30.186 I-1.558 J0.
G1 X78.82 F1816.
X78.373 Y30.179
X77.926 Y30.162
X75.887
X75.873 Y30.16
X75.245 Y30.056
X75.231 Y30.054
X74.776 Y29.812
X74.753 Y29.796
X74.399 Y29.42
X74.391 Y29.406
X74.18 Y28.944
X74.174 Y28.931
X74.119 Y28.404
X74.122 Y28.39
X74.234 Y27.895
X74.242 Y27.875
X74.5 Y27.452
X74.516 Y27.428
X74.901 Y27.105
X74.924 Y27.087
X75.412 Y26.897
X75.426 Y26.895
X76.139 Y26.863
X76.585 Y26.861
X79.093
G3 X79.41 Y27.179 I0. J0.318 F1016.
G2 X79.894 Y27.449 I0.318 J0. F1816.
G3 X80.294 Y27.506 I0.166 J0.271
X78.293 Y29.333 I-1. J0.913
X78.383 Y27.417 I1. J-0.913
G1 X78.391 Y27.409 F1016.
G3 X80.196 Y29.43 Z-7.149 I0.902 J1.01
X78.391 Y27.409 Z-7.297 I-0.902 J-1.01
X80.196 Y29.43 Z-7.446 I0.902 J1.01
X78.391 Y27.409 Z-7.594 I-0.902 J-1.01
X80.196 Y29.43 Z-7.743 I0.902 J1.01
X78.391 Y27.409 Z-7.891 I-0.902 J-1.01
X80.648 Y28.408 Z-8. I0.902 J1.01
G1 Y28.419
Y28.628
G3 X79.09 Y30.186 I-1.558 J0.
G1 X78.82 F1816.
X78.373 Y30.178
X77.926 Y30.162
X75.887
X75.873 Y30.16
X75.245 Y30.056
X75.231 Y30.054
X74.776 Y29.812
X74.753 Y29.796
X74.399 Y29.42
X74.391 Y29.406
X74.18 Y28.944
X74.174 Y28.931
X74.119 Y28.404
X74.122 Y28.39
X74.234 Y27.895
X74.242 Y27.875
X74.5 Y27.452
X74.516 Y27.428
X74.901 Y27.105
X74.924 Y27.087
X75.412 Y26.897
X75.426 Y26.895
X76.139 Y26.863
X76.585 Y26.861
X79.093
G3 X79.41 Y27.179 I0. J0.318 F1016.
G2 X79.894 Y27.449 I0.318 J0. F1816.
G3 X80.294 Y27.506 I0.166 J0.271
X78.293 Y29.333 I-1. J0.913
X78.383 Y27.417 I1. J-0.913
G1 X78.391 Y27.409 F1016.
G3 X80.196 Y29.43 Z-8.149 I0.902 J1.01
X78.391 Y27.409 Z-8.297 I-0.902 J-1.01
X80.196 Y29.43 Z-8.446 I0.902 J1.01
X78.391 Y27.409 Z-8.594 I-0.902 J-1.01
X80.196 Y29.43 Z-8.743 I0.902 J1.01
X78.391 Y27.409 Z-8.891 I-0.902 J-1.01
X80.648 Y28.408 Z-9. I0.902 J1.01
G1 Y28.419
Y28.628
G3 X79.09 Y30.186 I-1.558 J0.
G1 X78.82 F1816.
X78.373 Y30.177
X77.926 Y30.162
X76.585
X76.571 Y30.16
X75.931 Y29.755
X75.909 Y29.738
X75.579 Y29.323
X75.571 Y29.309
X75.396 Y28.808
X75.392 Y28.794
Y28.251
X75.397 Y28.237
X75.569 Y27.745
X75.574 Y27.731
X75.904 Y27.316
X75.92 Y27.299
X76.613 Y26.861
X79.093
G3 X79.41 Y27.179 I0. J0.318 F1016.
G2 X79.894 Y27.449 I0.318 J0. F1816.
G3 X80.294 Y27.506 I0.166 J0.271
X80.648 Y28.419 I-1. J0.913
X78.75 Y29.66 I-1.355 J0. F1016.
G1 X78.74 Y29.656
G3 X79.847 Y27.183 Z-9.149 I0.553 J-1.236
X78.74 Y29.656 Z-9.297 I-0.553 J1.236
X79.847 Y27.183 Z-9.446 I0.553 J-1.236
X80.648 Y28.408 Z-9.5 I-0.553 J1.236
G1 Y28.419
Y28.628
G3 X79.09 Y30.186 I-1.558 J0.
G1 X78.82 F1816.
X78.373 Y30.177
X77.926 Y30.162
X76.585
X76.571 Y30.16
X75.931 Y29.755
X75.909 Y29.738
X75.579 Y29.323
X75.571 Y29.309
X75.396 Y28.808
X75.392 Y28.794
Y28.251
X75.397 Y28.237
X75.569 Y27.745
X75.574 Y27.731
X75.904 Y27.316
X75.92 Y27.299
X76.613 Y26.861
X79.093
G3 X79.41 Y27.179 I0. J0.318 F1016.
G2 X79.894 Y27.449 I0.318 J0. F1816.
G3 X80.294 Y27.506 I0.166 J0.271
X78.293 Y29.333 I-1. J0.913
X78.383 Y27.417 I1. J-0.913
G1 X78.391 Y27.409 F1016.
G3 X80.196 Y29.43 Z-9.649 I0.902 J1.01
X78.391 Y27.409 Z-9.797 I-0.902 J-1.01
X80.196 Y29.43 Z-9.946 I0.902 J1.01
X78.391 Y27.409 Z-10.094 I-0.902 J-1.01
X80.196 Y29.43 Z-10.243 I0.902 J1.01
X78.391 Y27.409 Z-10.391 I-0.902 J-1.01
X80.648 Y28.408 Z-10.5 I0.902 J1.01
G1 Y28.419
Y28.628
G3 X79.09 Y30.186 I-1.558 J0.
G1 X78.54 F1816.
X78.512 Y30.185
X78.498 Y30.184
X78.484 Y30.183
X78.289 Y30.148
X78.275 Y30.145
X77.792 Y30.
X77.779 Y29.995
X77.765 Y29.988
X77.752 Y29.979
X77.347 Y29.687
X77.327 Y29.667
X77.301 Y29.634
X77.032 Y29.249
X77.019 Y29.227
X77.011 Y29.206
X76.999 Y29.163
X76.871 Y28.71
X76.87 Y28.697
Y28.683
X76.882 Y28.46
X76.9 Y28.168
X76.903 Y28.154
X76.913 Y28.126
X76.959 Y28.015
X77.102 Y27.67
X77.11 Y27.654
X77.124 Y27.637
X77.182 Y27.57
X77.457 Y27.263
X77.479 Y27.242
X77.687 Y27.124
X77.94 Y26.985
X77.954 Y26.979
X78.624 Y26.863
X78.638 Y26.861
X79.093
G3 X79.41 Y27.179 I0. J0.318 F1016.
G2 X79.894 Y27.449 I0.318 J0. F1816.
G3 X80.294 Y27.506 I0.166 J0.271
X78.293 Y29.333 I-1. J0.913
X78.383 Y27.417 I1. J-0.913
G1 X78.391 Y27.409 F1016.
G3 X80.196 Y29.43 Z-10.649 I0.902 J1.01
X78.391 Y27.409 Z-10.797 I-0.902 J-1.01
X80.196 Y29.43 Z-10.946 I0.902 J1.01
X78.391 Y27.409 Z-11.094 I-0.902 J-1.01
X80.196 Y29.43 Z-11.243 I0.902 J1.01
X78.391 Y27.409 Z-11.391 I-0.902 J-1.01
X80.648 Y28.408 Z-11.5 I0.902 J1.01
G1 Y28.419
Y28.628
G3 X79.09 Y30.186 I-1.558 J0.
G1 X78.638 F1816.
X78.624
X78.093 Y30.09
X78.08 Y30.086
X77.872 Y30.024
X77.859 Y30.018
X77.591 Y29.862
X77.578 Y29.854
X77.401 Y29.726
X77.384 Y29.706
X77.267 Y29.566
X77.103 Y29.35
X77.068 Y29.299
X77.057 Y29.282
X77.032 Y29.214
X76.926 Y28.905
X76.887 Y28.766
X76.884 Y28.752
X76.885 Y28.46
X76.896 Y28.237
X76.897 Y28.21
X76.9 Y28.196
X76.967 Y28.015
X77.032 Y27.838
X77.095 Y27.687
X77.107 Y27.67
X77.328 Y27.409
X77.398 Y27.329
X77.459 Y27.261
X77.479 Y27.249
X77.94 Y26.985
X77.954 Y26.981
X78.638 Y26.863
X78.652 Y26.861
X79.093
G0 Z5.
X79.374 Y29.8
Z-3.038
G1 Z-12.5 F1016.
G3 X78.939 Y29.919 I-0.277 J-0.156
G1 X78.703 Y29.783 F1816.
X78.68 Y29.76
X78.336 Y29.35
X78.328 Y29.336
X78.17 Y28.905
X78.14 Y28.822
X78.136 Y28.808
X78.135 Y28.349
Y28.251
X78.136 Y28.237
X78.282 Y27.835
X78.323 Y27.722
X78.335 Y27.699
X78.632 Y27.345
X78.679 Y27.288
X78.702 Y27.266
X78.961 Y27.116
G0 Z5.
X79.374 Y29.8
Z-3.038
G1 Z-13. F1016.
G3 X78.939 Y29.919 I-0.277 J-0.156
G1 X78.703 Y29.783 F1816.
X78.68 Y29.76
X78.561 Y29.619
X78.336 Y29.35
X78.328 Y29.336
X78.252 Y29.128
X78.14 Y28.822
X78.136 Y28.808
X78.135 Y28.683
Y28.349
Y28.251
X78.136 Y28.237
X78.217 Y28.015
X78.324 Y27.722
X78.335 Y27.699
X78.443 Y27.57
X78.679 Y27.289
X78.702 Y27.266
X78.946 Y27.124
X78.961 Y27.116
X79.004 Y27.091 Z-12.992 F1016.
X79.042 Y27.069 Z-12.97
X79.073 Y27.051 Z-12.934
X79.092 Y27.04 Z-12.89
X79.099 Y27.036 Z-12.841
G0 Z5.
X63.401 Y28.675
Z-3.69
G1 Z-5.682 F1016.
G19 G3 Y28.993 Z-6. J0.318 K0.
G1 Y29.869
G17 G3 X63.083 Y30.186 I-0.318 J0.
G1 X62.51 F1816.
X62.398 Y30.181
X62.287 Y30.173
X62.175 Y30.163
X62.063 Y30.162
X59.899
X59.885 Y30.161
X59.243 Y30.056
X59.229 Y30.053
X58.766 Y29.806
X58.753 Y29.796
X58.405 Y29.426
X58.395 Y29.413
X58.175 Y28.933
X58.173 Y28.919
X58.119 Y28.404
X58.122 Y28.39
X58.232 Y27.903
X58.238 Y27.881
X58.51 Y27.436
X58.529 Y27.417
X58.914 Y27.095
X58.931 Y27.084
X59.41 Y26.898
X59.424 Y26.895
X60.053 Y26.867
X60.499 Y26.861
X63.096
G3 X63.414 Y27.179 I0. J0.318 F1016.
G2 X63.894 Y27.452 I0.318 J0. F1816.
G3 X64.292 Y27.511 I0.163 J0.273
X62.282 Y29.327 I-1.005 J0.908
X62.376 Y27.417 I1.005 J-0.908
G1 X62.384 Y27.409 F1016.
G3 X64.189 Y29.43 Z-6.149 I0.902 J1.01
X62.384 Y27.409 Z-6.297 I-0.902 J-1.01
X64.189 Y29.43 Z-6.446 I0.902 J1.01
X62.384 Y27.409 Z-6.594 I-0.902 J-1.01
X64.189 Y29.43 Z-6.743 I0.902 J1.01
X62.384 Y27.409 Z-6.891 I-0.902 J-1.01
X64.641 Y28.408 Z-7. I0.902 J1.01
G1 Y28.419
Y28.628
G3 X63.083 Y30.186 I-1.558 J0.
G1 X62.51 F1816.
X62.398 Y30.181
X62.287 Y30.173
X62.175 Y30.163
X62.063 Y30.162
X59.899
X59.885 Y30.161
X59.243 Y30.056
X59.229 Y30.053
X58.766 Y29.806
X58.753 Y29.796
X58.405 Y29.426
X58.395 Y29.413
X58.175 Y28.933
X58.173 Y28.919
X58.119 Y28.404
X58.122 Y28.39
X58.232 Y27.903
X58.238 Y27.881
X58.51 Y27.436
X58.529 Y27.417
X58.914 Y27.095
X58.931 Y27.084
X59.41 Y26.898
X59.424 Y26.895
X60.053 Y26.867
X60.499 Y26.861
X63.096
G3 X63.414 Y27.179 I0. J0.318 F1016.
G2 X63.894 Y27.452 I0.318 J0. F1816.
G3 X64.292 Y27.511 I0.163 J0.273
X62.282 Y29.327 I-1.005 J0.908
X62.376 Y27.417 I1.005 J-0.908
G1 X62.384 Y27.409 F1016.
G3 X64.189 Y29.43 Z-7.149 I0.902 J1.01
X62.384 Y27.409 Z-7.297 I-0.902 J-1.01
X64.189 Y29.43 Z-7.446 I0.902 J1.01
X62.384 Y27.409 Z-7.594 I-0.902 J-1.01
X64.189 Y29.43 Z-7.743 I0.902 J1.01
X62.384 Y27.409 Z-7.891 I-0.902 J-1.01
X64.641 Y28.408 Z-8. I0.902 J1.01
G1 Y28.419
Y28.628
G3 X63.083 Y30.186 I-1.558 J0.
G1 X62.734 F1816.
X62.287 Y30.172
X61.84 Y30.162
X59.899
X59.885 Y30.161
X59.243 Y30.056
X59.229 Y30.053
X58.766 Y29.806
X58.753 Y29.796
X58.405 Y29.426
X58.395 Y29.413
X58.175 Y28.933
X58.173 Y28.919
X58.119 Y28.404
X58.122 Y28.39
X58.232 Y27.903
X58.238 Y27.881
X58.51 Y27.436
X58.529 Y27.417
X58.914 Y27.095
X58.931 Y27.084
X59.41 Y26.898
X59.424 Y26.895
X60.053 Y26.867
X60.499 Y26.861
X63.096
G3 X63.414 Y27.179 I0. J0.318 F1016.
G2 X63.894 Y27.452 I0.318 J0. F1816.
G3 X64.292 Y27.511 I0.163 J0.273
X62.282 Y29.327 I-1.005 J0.908
X62.376 Y27.417 I1.005 J-0.908
G1 X62.384 Y27.409 F1016.
G3 X64.189 Y29.43 Z-8.149 I0.902 J1.01
X62.384 Y27.409 Z-8.297 I-0.902 J-1.01
X64.189 Y29.43 Z-8.446 I0.902 J1.01
X62.384 Y27.409 Z-8.594 I-0.902 J-1.01
X64.189 Y29.43 Z-8.743 I0.902 J1.01
X62.384 Y27.409 Z-8.891 I-0.902 J-1.01
X64.641 Y28.408 Z-9. I0.902 J1.01
G1 Y28.419
Y28.628
G3 X63.083 Y30.186 I-1.558 J0.
G1 X62.734 F1816.
X62.287 Y30.171
X61.84 Y30.162
X60.583
X60.569 Y30.158
X59.931 Y29.755
X59.913 Y29.743
X59.579 Y29.323
X59.571 Y29.309
X59.396 Y28.808
X59.392 Y28.794
Y28.251
X59.397 Y28.237
X59.566 Y27.752
X59.574 Y27.731
X59.901 Y27.319
X59.917 Y27.301
X60.611 Y26.863
X60.625 Y26.861
X63.096
G3 X63.414 Y27.179 I0. J0.318 F1016.
G2 X63.894 Y27.452 I0.318 J0. F1816.
G3 X64.292 Y27.511 I0.163 J0.273
X64.641 Y28.419 I-1.005 J0.908
X62.744 Y29.66 I-1.355 J0. F1016.
G1 X62.733 Y29.656
G3 X63.84 Y27.183 Z-9.149 I0.553 J-1.236
X62.733 Y29.656 Z-9.297 I-0.553 J1.236
X63.84 Y27.183 Z-9.446 I0.553 J-1.236
X64.641 Y28.408 Z-9.5 I-0.553 J1.236
G1 Y28.419
Y28.628
G3 X63.083 Y30.186 I-1.558 J0.
G1 X62.734 F1816.
X62.287 Y30.171
X61.84 Y30.162
X60.583
X60.569 Y30.158
X59.931 Y29.755
X59.913 Y29.743
X59.579 Y29.323
X59.571 Y29.309
X59.396 Y28.808
X59.392 Y28.794
Y28.251
X59.397 Y28.237
X59.566 Y27.752
X59.574 Y27.731
X59.901 Y27.319
X59.917 Y27.301
X60.611 Y26.863
X60.625 Y26.861
X63.096
G3 X63.414 Y27.179 I0. J0.318 F1016.
G2 X63.894 Y27.452 I0.318 J0. F1816.
G3 X64.292 Y27.511 I0.163 J0.273
X62.282 Y29.327 I-1.005 J0.908
X62.376 Y27.417 I1.005 J-0.908
G1 X62.384 Y27.409 F1016.
G3 X64.189 Y29.43 Z-9.649 I0.902 J1.01
X62.384 Y27.409 Z-9.797 I-0.902 J-1.01
X64.189 Y29.43 Z-9.946 I0.902 J1.01
X62.384 Y27.409 Z-10.094 I-0.902 J-1.01
X64.189 Y29.43 Z-10.243 I0.902 J1.01
X62.384 Y27.409 Z-10.391 I-0.902 J-1.01
X64.641 Y28.408 Z-10.5 I0.902 J1.01
G1 Y28.419
Y28.628
G3 X63.083 Y30.186 I-1.558 J0.
G1 X62.734 F1816.
X62.51 Y30.185
X62.496 Y30.184
X62.482 Y30.182
X62.287 Y30.147
X62.273 Y30.144
X61.797 Y30.002
X61.776 Y29.994
X61.754 Y29.981
X61.345 Y29.685
X61.33 Y29.671
X61.318 Y29.657
X61.297 Y29.628
X61.022 Y29.234
X61.013 Y29.21
X60.999 Y29.164
X60.871 Y28.71
X60.87 Y28.697
Y28.683
X60.882 Y28.46
X60.9 Y28.162
X60.905 Y28.149
X60.946 Y28.045
X61.104 Y27.667
X61.111 Y27.653
X61.134 Y27.625
X61.182 Y27.57
X61.467 Y27.252
X61.485 Y27.239
X61.54 Y27.207
X61.687 Y27.124
X61.938 Y26.986
X61.952 Y26.979
X62.622 Y26.863
X62.636 Y26.861
X63.096
G3 X63.414 Y27.179 I0. J0.318 F1016.
G2 X63.894 Y27.452 I0.318 J0. F1816.
G3 X64.292 Y27.511 I0.163 J0.273
X62.282 Y29.327 I-1.005 J0.908
X62.376 Y27.417 I1.005 J-0.908
G1 X62.384 Y27.409 F1016.
G3 X64.189 Y29.43 Z-10.649 I0.902 J1.01
X62.384 Y27.409 Z-10.797 I-0.902 J-1.01
X64.189 Y29.43 Z-10.946 I0.902 J1.01
X62.384 Y27.409 Z-11.094 I-0.902 J-1.01
X64.189 Y29.43 Z-11.243 I0.902 J1.01
X62.384 Y27.409 Z-11.391 I-0.902 J-1.01
X64.641 Y28.408 Z-11.5 I0.902 J1.01
G1 Y28.419
Y28.628
G3 X63.083 Y30.186 I-1.558 J0.
G1 X62.636 F1816.
X62.622 Y30.185
X62.091 Y30.09
X61.868 Y30.023
X61.854 Y30.015
X61.605 Y29.87
X61.583 Y29.857
X61.406 Y29.729
X61.393 Y29.717
X61.103 Y29.35
X61.071 Y29.303
X61.056 Y29.28
X60.946 Y28.975
X60.926 Y28.905
X60.887 Y28.766
X60.884 Y28.752
X60.885 Y28.46
X60.894 Y28.265
X60.897 Y28.217
X60.901 Y28.192
X60.967 Y28.015
X61.052 Y27.792
X61.092 Y27.695
X61.099 Y27.681
X61.193 Y27.57
X61.393 Y27.334
X61.449 Y27.272
X61.469 Y27.254
X61.938 Y26.986
X61.952 Y26.981
X62.636 Y26.863
X62.65 Y26.861
X63.096
G0 Z5.
X63.377 Y29.802
Z-3.037
G1 Z-12.5 F1016.
G3 X62.942 Y29.921 I-0.277 J-0.156
G1 X62.71 Y29.787 F1816.
X62.694 Y29.777
X62.523 Y29.573
X62.336 Y29.35
X62.328 Y29.338
X62.17 Y28.905
X62.14 Y28.822
X62.136 Y28.808
X62.135 Y28.349
Y28.251
X62.136 Y28.237
X62.287 Y27.822
X62.328 Y27.71
X62.338 Y27.696
X62.578 Y27.409
X62.689 Y27.275
X62.712 Y27.26
X62.959 Y27.117
G0 Z5.
X63.377 Y29.802
Z-3.037
G1 Z-13. F1016.
G3 X62.941 Y29.921 I-0.277 J-0.156
G1 X62.71 Y29.787 F1816.
X62.694 Y29.777
X62.523 Y29.573
X62.336 Y29.35
X62.328 Y29.338
X62.287 Y29.224
X62.14 Y28.822
X62.136 Y28.808
X62.135 Y28.683
Y28.349
Y28.251
X62.136 Y28.237
X62.217 Y28.015
X62.328 Y27.71
X62.338 Y27.696
X62.443 Y27.57
X62.646 Y27.328
X62.69 Y27.276
X62.712 Y27.26
X62.959 Y27.117
G0 Z5.
X47.412 Y28.675
Z-3.69
G1 Z-5.682 F1016.
G19 G3 Y28.993 Z-6. J0.318 K0.
G1 Y29.869
G17 G3 X47.094 Y30.186 I-0.317 J0.
G1 X46.648 F1816.
X46.201 Y30.165
X45.754 Y30.162
X43.897
X43.883 Y30.161
X43.241 Y30.055
X43.227 Y30.051
X42.773 Y29.81
X42.753 Y29.796
X42.407 Y29.428
X42.392 Y29.409
X42.179 Y28.943
X42.173 Y28.924
X42.121 Y28.42
X42.12 Y28.399
X42.235 Y27.89
X42.241 Y27.876
X42.51 Y27.437
X42.525 Y27.42
X42.903 Y27.104
X42.927 Y27.086
X43.408 Y26.899
X43.422 Y26.895
X43.967 Y26.871
X44.413 Y26.861
X47.094
G3 X47.412 Y27.179 I0. J0.318 F1016.
G2 X47.896 Y27.449 I0.318 J0. F1816.
G3 X48.297 Y27.505 I0.167 J0.27
X46.299 Y29.334 I-0.999 J0.915
X46.387 Y27.417 I0.999 J-0.915
G1 X46.396 Y27.409 F1016.
G3 X48.2 Y29.43 Z-6.149 I0.902 J1.01
X46.396 Y27.409 Z-6.297 I-0.902 J-1.01
X48.2 Y29.43 Z-6.446 I0.902 J1.01
X46.396 Y27.409 Z-6.594 I-0.902 J-1.01
X48.2 Y29.43 Z-6.743 I0.902 J1.01
X46.396 Y27.409 Z-6.891 I-0.902 J-1.01
X48.653 Y28.408 Z-7. I0.902 J1.01
G1 Y28.419
Y28.628
G3 X47.094 Y30.186 I-1.558 J0.
G1 X46.648 F1816.
X46.201 Y30.165
X45.754 Y30.162
X43.897
X43.883 Y30.161
X43.241 Y30.055
X43.227 Y30.051
X42.773 Y29.81
X42.753 Y29.796
X42.407 Y29.428
X42.392 Y29.409
X42.179 Y28.943
X42.173 Y28.924
X42.121 Y28.42
X42.12 Y28.399
X42.235 Y27.89
X42.241 Y27.876
X42.51 Y27.437
X42.525 Y27.42
X42.903 Y27.104
X42.927 Y27.086
X43.408 Y26.899
X43.422 Y26.895
X43.967 Y26.871
X44.413 Y26.861
X47.094
G3 X47.412 Y27.179 I0. J0.318 F1016.
G2 X47.896 Y27.449 I0.318 J0. F1816.
G3 X48.297 Y27.505 I0.167 J0.27
X46.299 Y29.334 I-0.999 J0.915
X46.387 Y27.417 I0.999 J-0.915
G1 X46.396 Y27.409 F1016.
G3 X48.2 Y29.43 Z-7.149 I0.902 J1.01
X46.396 Y27.409 Z-7.297 I-0.902 J-1.01
X48.2 Y29.43 Z-7.446 I0.902 J1.01
X46.396 Y27.409 Z-7.594 I-0.902 J-1.01
X48.2 Y29.43 Z-7.743 I0.902 J1.01
X46.396 Y27.409 Z-7.891 I-0.902 J-1.01
X48.653 Y28.408 Z-8. I0.902 J1.01
G1 Y28.419
Y28.628
G3 X47.094 Y30.186 I-1.558 J0.
G1 X46.648 F1816.
X46.201 Y30.165
X45.754 Y30.162
X43.897
X43.883 Y30.161
X43.241 Y30.055
X43.227 Y30.051
X42.773 Y29.81
X42.753 Y29.796
X42.407 Y29.428
X42.392 Y29.409
X42.179 Y28.943
X42.173 Y28.924
X42.121 Y28.42
X42.12 Y28.399
X42.235 Y27.89
X42.241 Y27.876
X42.51 Y27.437
X42.525 Y27.42
X42.903 Y27.104
X42.927 Y27.086
X43.408 Y26.899
X43.422 Y26.895
X43.967 Y26.871
X44.413 Y26.861
X47.094
G3 X47.412 Y27.179 I0. J0.318 F1016.
G2 X47.896 Y27.449 I0.318 J0. F1816.
G3 X48.297 Y27.505 I0.167 J0.27
X46.299 Y29.334 I-0.999 J0.915
X46.387 Y27.417 I0.999 J-0.915
G1 X46.396 Y27.409 F1016.
G3 X48.2 Y29.43 Z-8.149 I0.902 J1.01
X46.396 Y27.409 Z-8.297 I-0.902 J-1.01
X48.2 Y29.43 Z-8.446 I0.902 J1.01
X46.396 Y27.409 Z-8.594 I-0.902 J-1.01
X48.2 Y29.43 Z-8.743 I0.902 J1.01
X46.396 Y27.409 Z-8.891 I-0.902 J-1.01
X48.653 Y28.408 Z-9. I0.902 J1.01
G1 Y28.419
Y28.628
G3 X47.094 Y30.186 I-1.558 J0.
G1 X46.648 F1816.
X46.201 Y30.165
X45.754 Y30.162
X44.581
X44.567 Y30.157
X43.925 Y29.751
X43.911 Y29.741
X43.582 Y29.327
X43.569 Y29.304
X43.396 Y28.808
X43.392 Y28.794
Y28.251
X43.397 Y28.237
X43.568 Y27.747
X43.577 Y27.727
X43.9 Y27.321
X43.924 Y27.297
X44.609 Y26.864
X44.623 Y26.861
X47.094
G3 X47.412 Y27.179 I0. J0.318 F1016.
G2 X47.896 Y27.449 I0.318 J0. F1816.
G3 X48.297 Y27.505 I0.167 J0.27
X48.653 Y28.419 I-0.999 J0.915
X46.755 Y29.66 I-1.355 J0. F1016.
G1 X46.745 Y29.656
G3 X47.851 Y27.183 Z-9.149 I0.553 J-1.236
X46.745 Y29.656 Z-9.297 I-0.553 J1.236
X47.851 Y27.183 Z-9.446 I0.553 J-1.236
X48.653 Y28.408 Z-9.5 I-0.553 J1.236
G1 Y28.419
Y28.628
G3 X47.094 Y30.186 I-1.558 J0.
G1 X46.648 F1816.
X46.201 Y30.165
X45.754 Y30.162
X44.581
X44.567 Y30.157
X43.925 Y29.751
X43.911 Y29.741
X43.582 Y29.327
X43.569 Y29.304
X43.396 Y28.808
X43.392 Y28.794
Y28.251
X43.397 Y28.237
X43.568 Y27.747
X43.577 Y27.727
X43.9 Y27.321
X43.924 Y27.297
X44.609 Y26.864
X44.623 Y26.861
X47.094
G3 X47.412 Y27.179 I0. J0.318 F1016.
G2 X47.896 Y27.449 I0.318 J0. F1816.
G3 X48.297 Y27.505 I0.167 J0.27
X46.299 Y29.334 I-0.999 J0.915
X46.387 Y27.417 I0.999 J-0.915
G1 X46.396 Y27.409 F1016.
G3 X48.2 Y29.43 Z-9.649 I0.902 J1.01
X46.396 Y27.409 Z-9.797 I-0.902 J-1.01
X48.2 Y29.43 Z-9.946 I0.902 J1.01
X46.396 Y27.409 Z-10.094 I-0.902 J-1.01
X48.2 Y29.43 Z-10.243 I0.902 J1.01
X46.396 Y27.409 Z-10.391 I-0.902 J-1.01
X48.653 Y28.408 Z-10.5 I0.902 J1.01
G1 Y28.419
Y28.628
G3 X47.094 Y30.186 I-1.558 J0.
G1 X46.536 F1816.
X46.508 Y30.185
X46.494 Y30.184
X46.48 Y30.182
X46.285 Y30.147
X46.271 Y30.143
X45.782 Y29.997
X45.768 Y29.989
X45.754 Y29.981
X45.341 Y29.682
X45.327 Y29.667
X45.307 Y29.642
X45.026 Y29.239
X45.018 Y29.225
X45.013 Y29.211
X45.005 Y29.183
X44.871 Y28.71
X44.87 Y28.697
Y28.683
X44.882 Y28.46
X44.9 Y28.168
X44.903 Y28.154
X44.913 Y28.126
X44.959 Y28.015
X45.104 Y27.667
X45.111 Y27.653
X45.134 Y27.625
X45.182 Y27.57
X45.459 Y27.26
X45.472 Y27.246
X45.497 Y27.232
X45.687 Y27.124
X45.935 Y26.987
X45.949 Y26.98
X46.634 Y26.861
X46.648
X47.094
G3 X47.412 Y27.179 I0. J0.318 F1016.
G2 X47.896 Y27.449 I0.318 J0. F1816.
G3 X48.297 Y27.505 I0.167 J0.27
X46.299 Y29.334 I-0.999 J0.915
X46.387 Y27.417 I0.999 J-0.915
G1 X46.396 Y27.409 F1016.
G3 X48.2 Y29.43 Z-10.649 I0.902 J1.01
X46.396 Y27.409 Z-10.797 I-0.902 J-1.01
X48.2 Y29.43 Z-10.946 I0.902 J1.01
X46.396 Y27.409 Z-11.094 I-0.902 J-1.01
X48.2 Y29.43 Z-11.243 I0.902 J1.01
X46.396 Y27.409 Z-11.391 I-0.902 J-1.01
X48.653 Y28.408 Z-11.5 I0.902 J1.01
G1 Y28.419
Y28.628
G3 X47.094 Y30.186 I-1.558 J0.
G1 X46.634 F1816.
X46.62 Y30.185
X46.103 Y30.092
