(AXIDRAW HOLDER)
(T1  D=3.175 CR=1.587 - ZMIN=-7.249 - BALL END MILL)
G0 G90 G94 G17
G21
G53 G0 Z0.

(ADAPTIVE1)
M5
M9
T1
S16500 M3
G4 P4.
G55
G0 X-0.912 Y-0.491
Z15.
Z5.
Z-0.565
G1 Z-0.882 F1016.
X-0.905 Y-0.487 Z-0.953
X-0.885 Y-0.475 Z-1.02
X-0.852 Y-0.456 Z-1.08
X-0.809 Y-0.43 Z-1.131
X-0.757 Y-0.399 Z-1.169
X-0.699 Y-0.365 Z-1.192
X-0.639 Y-0.329 Z-1.2
G3 X0.759 Y0.717 I-4.13 J6.975
G1 X0.816 Y0.774
X0.855 Y0.919
X0.874 Y1.068
X0.881 Y1.217
X0.878 Y1.367
X0.867 Y1.517
X0.818 Y1.913
X0.802 Y2.004
X0.775 Y2.092
X0.738 Y2.177
X0.572 Y2.503
X0.395 Y2.922
X0.388 Y2.94
X0.295 Y3.523
X0.248 Y3.814
X0.24 Y3.96
X0.23 Y4.251
X0.229 Y4.397
Y22.603
X0.23 Y22.749
X0.24 Y23.04
X0.248 Y23.186
X0.341 Y23.768
X0.388 Y24.06
X0.395 Y24.078
X0.572 Y24.497
X0.794 Y24.933
X0.901 Y25.092
X1.098 Y25.37
X1.193 Y25.474
X1.526 Y25.807
X1.63 Y25.902
X1.921 Y26.108
X2.067 Y26.206
X2.503 Y26.428
X2.922 Y26.605
X2.94 Y26.612
X3.523 Y26.705
X3.814 Y26.752
X3.96 Y26.76
X4.251 Y26.77
X4.397 Y26.771
X10.077
X10.223 Y26.763
X10.514 Y26.744
X10.532 Y26.739
X10.609 Y26.714
X10.947 Y26.657
X11.401 Y26.6
X12.041 Y26.544
X12.683 Y26.513
X13.325 Y26.496
X13.967 Y26.486
X14.609 Y26.48
X15.251 Y26.477
X15.775 Y26.476
X15.94 Y26.493
X16.099 Y26.544
X16.243 Y26.627
X16.304 Y26.671
X16.32 Y26.681
X16.468 Y26.739
X16.486 Y26.744
X16.777 Y26.763
X16.923 Y26.771
X22.603
X22.749 Y26.77
X23.04 Y26.76
X23.186 Y26.752
X23.768 Y26.659
X24.06 Y26.612
X24.078 Y26.605
X24.497 Y26.428
X24.933 Y26.206
X25.092 Y26.099
X25.37 Y25.902
X25.474 Y25.807
X25.807 Y25.474
X25.902 Y25.37
X26.108 Y25.079
X26.206 Y24.933
X26.428 Y24.497
X26.605 Y24.078
X26.612 Y24.06
X26.705 Y23.477
X26.752 Y23.186
X26.76 Y23.04
X26.77 Y22.749
X26.771 Y22.603
Y4.397
X26.77 Y4.251
X26.76 Y3.96
X26.752 Y3.814
X26.659 Y3.232
X26.612 Y2.94
X26.605 Y2.922
X26.428 Y2.503
X26.206 Y2.067
X26.099 Y1.908
X25.902 Y1.63
X25.807 Y1.526
X25.474 Y1.193
X25.37 Y1.098
X25.079 Y0.892
X24.933 Y0.794
X24.497 Y0.572
X24.078 Y0.395
X24.06 Y0.388
X23.477 Y0.295
X23.186 Y0.248
X23.04 Y0.24
X22.749 Y0.23
X22.603 Y0.229
X16.923
X16.777 Y0.237
X16.486 Y0.256
X16.468 Y0.261
X16.391 Y0.286
X16.053 Y0.343
X15.599 Y0.4
X14.959 Y0.456
X14.317 Y0.487
X13.675 Y0.504
X13.033 Y0.514
X12.391 Y0.52
X11.749 Y0.523
X11.225 Y0.524
X11.06 Y0.507
X10.901 Y0.456
X10.757 Y0.373
X10.696 Y0.329
X10.68 Y0.319
X10.532 Y0.261
X10.514 Y0.256
X10.223 Y0.237
X10.077 Y0.229
X4.397
X4.251 Y0.23
X3.96 Y0.24
X3.814 Y0.248
X3.232 Y0.341
X2.94 Y0.388
X2.922 Y0.395
X2.503 Y0.572
X2.067 Y0.794
X1.908 Y0.901
X1.63 Y1.098
X1.526 Y1.193
X1.193 Y1.526
X1.098 Y1.63
X0.892 Y1.921
X0.794 Y2.067
X0.738 Y2.177
G3 X0.147 Y2.074 I-0.278 J-0.154
G1 X0.135 Y2.004 Z-1.192
X0.124 Y1.938 Z-1.169
X0.115 Y1.879 Z-1.131
X0.107 Y1.829 Z-1.08
X0.101 Y1.792 Z-1.02
X0.097 Y1.769 Z-0.953
X0.095 Y1.761 Z-0.882
G0 Z5.
X17.286 Y-0.467
Z-0.565
G1 Z-0.882 F1016.
X17.281 Y-0.461 Z-0.953
X17.267 Y-0.442 Z-1.02
X17.243 Y-0.413 Z-1.08
X17.212 Y-0.373 Z-1.131
X17.175 Y-0.326 Z-1.169
X17.134 Y-0.273 Z-1.192
X17.09 Y-0.217 Z-1.2
G3 X16.468 Y0.261 I-1.246 J-0.976
G1 X16.32 Y0.319
X16.288 Y0.34
X16.144 Y0.445
X16.127 Y0.464
X16.029 Y0.586
X15.978 Y0.648
X15.873 Y0.754
X15.757 Y0.849
X15.632 Y0.933
X15.503 Y1.009
X15.369 Y1.076
X15.231 Y1.136
X15.087 Y1.192
X14.922 Y1.248
X14.73 Y1.305
X14.499 Y1.364
X14.22 Y1.423
X13.866 Y1.483
X13.398 Y1.543
X12.758 Y1.599
X12.302 Y1.623
X12.08 Y1.625
X11.891 Y1.619
X11.864 Y1.617
X11.648 Y1.574
X11.45 Y1.476
X11.285 Y1.33
X11.163 Y1.147
X11.092 Y0.938
X11.059 Y0.774
X11.053 Y0.756
X10.98 Y0.598
X10.951 Y0.561
X10.873 Y0.464
X10.856 Y0.445
X10.757 Y0.373
G3 X10.971 Y-0.194 I0.195 J-0.25
G1 X15.669 Y0.083
X15.785 Y0.09
G3 X16.029 Y0.586 I-0.019 J0.317
G1 X16.02 Y0.598
X15.947 Y0.756
X15.941 Y0.774
X15.908 Y0.938
X15.907 Y0.956
X15.902 Y1.036
X15.854 Y1.178
X15.784 Y1.311
X15.698 Y1.434
X15.601 Y1.548
X15.494 Y1.653
X15.379 Y1.75
X15.259 Y1.84
X15.134 Y1.922
X15.004 Y1.998
X14.871 Y2.068
X14.725 Y2.137
X14.568 Y2.204
X14.383 Y2.274
X14.162 Y2.348
X13.931 Y2.415
X13.659 Y2.482
X13.387 Y2.538
X13.127 Y2.58
X12.943 Y2.603
X12.755 Y2.618
X12.6 Y2.625
X12.45
X12.3 Y2.618
X12.15 Y2.604
X12.002 Y2.582
X11.855 Y2.551
X11.711 Y2.511
X11.633 Y2.485
X11.457 Y2.398
X11.307 Y2.272
X11.192 Y2.112
X11.121 Y1.929
X11.096 Y1.734
Y1.338
X11.093 Y0.956
X11.092 Y0.938
G3 X11.412 Y0.612 I0.317 J-0.008
G1 X11.688 Y0.615
X15.294 Y0.645
X15.592 Y0.647
G3 X15.907 Y0.956 I-0.003 J0.317
G1 X15.904 Y1.484
Y1.528
X15.9 Y1.608
X15.88 Y1.757
X15.838 Y1.901
X15.778 Y2.038
X15.705 Y2.169
X15.62 Y2.293
X15.525 Y2.409
X15.422 Y2.518
X15.313 Y2.621
X15.198 Y2.718
X15.078 Y2.808
X14.954 Y2.892
X14.827 Y2.971
X14.691 Y3.048
X14.538 Y3.126
X14.381 Y3.198
X14.215 Y3.267
X14.041 Y3.331
X13.863 Y3.389
X13.685 Y3.439
X13.508 Y3.48
X13.332 Y3.515
X13.157 Y3.542
X12.989 Y3.561
X12.828 Y3.572
X12.667 Y3.577
X12.517 Y3.576
X12.367 Y3.569
X12.218 Y3.555
X12.069 Y3.534
X11.922 Y3.505
X11.777 Y3.467
X11.634 Y3.421
X11.598 Y3.407
X11.394 Y3.289
X11.234 Y3.115
X11.131 Y2.902
X11.096 Y2.669
Y1.734
G3 X11.398 Y1.427 I0.317 J0.011
G1 X11.711 Y1.412
X15.289 Y1.236
X15.571 Y1.222
G3 X15.904 Y1.528 I0.016 J0.317
G1 Y2.328
X15.9 Y2.409
X15.886 Y2.558
X15.851 Y2.704
X15.8 Y2.845
X15.735 Y2.98
X15.658 Y3.109
X15.572 Y3.232
X15.478 Y3.348
X15.376 Y3.459
X15.269 Y3.563
X15.155 Y3.661
X15.037 Y3.754
X14.915 Y3.841
X14.789 Y3.922
X14.66 Y3.998
X14.523 Y4.071
X14.381 Y4.139
X14.233 Y4.204
X14.078 Y4.264
X13.918 Y4.319
X13.753 Y4.368
X13.585 Y4.41
X13.416 Y4.446
X13.246 Y4.475
X13.08 Y4.497
X12.918 Y4.511
X12.756 Y4.519
X12.595 Y4.521
X12.445 Y4.516
X12.295 Y4.505
X12.146 Y4.486
X11.998 Y4.461
X11.852 Y4.428
X11.708 Y4.386
X11.617 Y4.352
X11.406 Y4.236
X11.239 Y4.062
X11.133 Y3.845
X11.096 Y3.607
Y2.669
G3 X11.388 Y2.364 I0.317 J0.011
G1 X11.71 Y2.337
X15.29 Y2.045
X15.561 Y2.023
G3 X15.904 Y2.328 I0.026 J0.316
G1 Y3.232
X15.9 Y3.312
X15.887 Y3.461
X15.854 Y3.608
X15.805 Y3.75
X15.743 Y3.886
X15.669 Y4.017
X15.586 Y4.141
X15.494 Y4.26
X15.395 Y4.372
X15.289 Y4.479
X15.178 Y4.579
X15.061 Y4.674
X14.94 Y4.763
X14.816 Y4.846
X14.687 Y4.924
X14.556 Y4.996
X14.417 Y5.065
X14.272 Y5.13
X14.123 Y5.19
X13.967 Y5.246
X13.805 Y5.296
X13.64 Y5.34
X13.473 Y5.378
X13.305 Y5.409
X13.138 Y5.432
X12.972 Y5.449
X12.812 Y5.459
X12.653 Y5.462
X12.503 Y5.459
X12.353 Y5.451
X12.204 Y5.434
X12.055 Y5.411
X11.909 Y5.381
X11.764 Y5.343
X11.622 Y5.294
X11.59 Y5.281
X11.389 Y5.162
X11.231 Y4.989
X11.131 Y4.778
X11.096 Y4.547
Y3.607
G3 X11.385 Y3.302 I0.317 J0.011
G1 X11.71 Y3.273
X15.29 Y2.951
X15.558 Y2.927
G3 X15.904 Y3.232 I0.028 J0.316
G1 Y4.186
X15.9 Y4.266
X15.884 Y4.415
X15.849 Y4.561
X15.799 Y4.702
X15.736 Y4.838
X15.662 Y4.969
X15.578 Y5.093
X15.485 Y5.211
X15.386 Y5.323
X15.279 Y5.429
X15.168 Y5.529
X15.051 Y5.624
X14.93 Y5.712
X14.805 Y5.795
X14.676 Y5.872
X14.545 Y5.944
X14.408 Y6.012
X14.263 Y6.076
X14.111 Y6.137
X13.954 Y6.192
X13.793 Y6.241
X13.629 Y6.285
X13.465 Y6.321
X13.299 Y6.351
X13.132 Y6.374
X12.964 Y6.391
X12.8 Y6.4
X12.645 Y6.403
X12.492 Y6.4
X12.342 Y6.39
X12.193 Y6.374
X12.045 Y6.35
X11.898 Y6.319
X11.753 Y6.28
X11.611 Y6.231
X11.585 Y6.22
X11.386 Y6.1
X11.23 Y5.928
X11.13 Y5.718
X11.096 Y5.487
Y4.547
G3 X11.386 Y4.241 I0.317 J0.011
G1 X11.71 Y4.213
X15.29 Y3.904
X15.559 Y3.88
G3 X15.904 Y4.186 I0.027 J0.316
G1 Y5.125
X15.9 Y5.205
X15.884 Y5.355
X15.85 Y5.501
X15.8 Y5.642
X15.737 Y5.778
X15.663 Y5.909
X15.579 Y6.033
X15.487 Y6.151
X15.387 Y6.263
X15.281 Y6.37
X15.17 Y6.47
X15.053 Y6.564
X14.932 Y6.653
X14.807 Y6.736
X14.679 Y6.813
X14.547 Y6.885
X14.41 Y6.953
X14.265 Y7.017
X14.113 Y7.078
X13.957 Y7.133
X13.797 Y7.182
X13.632 Y7.225
X13.467 Y7.262
X13.301 Y7.292
X13.134 Y7.315
X12.966 Y7.332
X12.802 Y7.341
X12.647 Y7.344
X12.492 Y7.341
X12.343 Y7.331
X12.193 Y7.315
X12.045 Y7.291
X11.899 Y7.26
X11.754 Y7.221
X11.612 Y7.172
X11.585 Y7.161
X11.386 Y7.041
X11.23 Y6.869
X11.13 Y6.658
X11.096 Y6.428
Y5.487
G3 X11.386 Y5.182 I0.317 J0.011
G1 X11.71 Y5.154
X15.29 Y4.843
X15.559 Y4.82
G3 X15.904 Y5.125 I0.027 J0.316
G1 Y6.079
X15.9 Y6.159
X15.883 Y6.308
X15.847 Y6.454
X15.796 Y6.595
X15.732 Y6.731
X15.657 Y6.861
X15.572 Y6.985
X15.479 Y7.102
X15.379 Y7.214
X15.273 Y7.32
X15.161 Y7.419
X15.044 Y7.513
X14.922 Y7.601
X14.797 Y7.684
X14.668 Y7.761
X14.536 Y7.832
X14.399 Y7.899
X14.254 Y7.963
X14.102 Y8.023
X13.945 Y8.078
X13.784 Y8.127
X13.619 Y8.17
X13.453 Y8.206
X13.287 Y8.235
X13.121 Y8.258
X12.954 Y8.274
X12.789 Y8.283
X12.633 Y8.285
X12.481 Y8.281
X12.331 Y8.271
X12.182 Y8.254
X12.034 Y8.23
X11.887 Y8.198
X11.743 Y8.159
X11.601 Y8.109
X11.582 Y8.101
X11.384 Y7.981
X11.229 Y7.809
X11.13 Y7.599
X11.096 Y7.37
Y6.428
G3 X11.387 Y6.123 I0.317 J0.011
G1 X11.71 Y6.096
X15.29 Y5.796
X15.56 Y5.774
G3 X15.904 Y6.079 I0.026 J0.316
G1 Y7.019
X15.9 Y7.099
X15.883 Y7.248
X15.848 Y7.394
X15.797 Y7.535
X15.733 Y7.67
X15.658 Y7.8
X15.574 Y7.924
X15.481 Y8.042
X15.381 Y8.154
X15.274 Y8.26
X15.163 Y8.36
X15.046 Y8.454
X14.924 Y8.542
X14.799 Y8.624
X14.67 Y8.701
X14.538 Y8.773
X14.401 Y8.84
X14.255 Y8.904
X14.103 Y8.964
X13.946 Y9.019
X13.786 Y9.068
X13.621 Y9.111
X13.455 Y9.147
X13.289 Y9.176
X13.122 Y9.199
X12.954 Y9.215
X12.79 Y9.224
X12.636 Y9.226
X12.481 Y9.222
X12.331 Y9.213
X12.182 Y9.196
X12.034 Y9.171
X11.888 Y9.14
X11.743 Y9.1
X11.601 Y9.05
X11.582 Y9.042
X11.384 Y8.922
X11.229 Y8.75
X11.13 Y8.54
X11.096 Y8.311
Y7.37
G3 X11.387 Y7.064 I0.317 J0.011
G1 X11.71 Y7.037
X15.29 Y6.736
X15.56 Y6.713
G3 X15.904 Y7.019 I0.027 J0.316
G1 Y7.937
X15.9 Y8.017
X15.887 Y8.166
X15.854 Y8.313
X15.805 Y8.455
X15.744 Y8.591
X15.67 Y8.722
X15.587 Y8.847
X15.496 Y8.966
X15.397 Y9.079
X15.291 Y9.185
X15.18 Y9.286
X15.064 Y9.381
X14.943 Y9.47
X14.819 Y9.553
X14.69 Y9.631
X14.559 Y9.703
X14.422 Y9.771
X14.277 Y9.837
X14.126 Y9.897
X13.971 Y9.952
X13.812 Y10.002
X13.647 Y10.046
X13.48 Y10.083
X13.313 Y10.114
X13.146 Y10.137
X12.978 Y10.154
X12.816 Y10.164
X12.659 Y10.168
X12.503 Y10.165
X12.353 Y10.156
X12.204 Y10.14
X12.055 Y10.116
X11.909 Y10.086
X11.764 Y10.047
X11.621 Y9.999
X11.588 Y9.986
X11.388 Y9.866
X11.231 Y9.693
X11.131 Y9.482
X11.096 Y9.252
Y8.311
G3 X11.385 Y8.006 I0.317 J0.011
G1 X11.71 Y7.977
X15.29 Y7.655
X15.558 Y7.631
G3 X15.904 Y7.937 I0.028 J0.316
G1 Y8.883
X15.9 Y8.963
X15.886 Y9.112
X15.853 Y9.258
X15.804 Y9.4
X15.741 Y9.537
X15.668 Y9.667
X15.584 Y9.792
X15.493 Y9.911
X15.393 Y10.023
X15.288 Y10.13
X15.177 Y10.23
X15.06 Y10.325
X14.939 Y10.414
X14.814 Y10.497
X14.686 Y10.575
X14.555 Y10.647
X14.418 Y10.714
X14.274 Y10.779
X14.122 Y10.84
X13.966 Y10.895
X13.806 Y10.944
X13.641 Y10.988
X13.475 Y11.025
X13.309 Y11.056
X13.142 Y11.079
X12.975 Y11.096
X12.81 Y11.106
X12.654 Y11.109
X12.5 Y11.106
X12.35 Y11.097
X12.201 Y11.081
X12.053 Y11.057
X11.906 Y11.026
X11.761 Y10.988
X11.619 Y10.939
X11.587 Y10.926
X11.387 Y10.807
X11.23 Y10.634
X11.131 Y10.423
X11.096 Y10.193
Y9.252
G3 X11.386 Y8.946 I0.317 J0.011
G1 X11.71 Y8.918
X15.29 Y8.601
X15.558 Y8.577
G3 X15.904 Y8.883 I0.028 J0.316
G1 Y9.83
X15.9 Y9.91
X15.885 Y10.059
X15.851 Y10.206
X15.801 Y10.347
X15.739 Y10.483
X15.664 Y10.614
X15.581 Y10.738
X15.489 Y10.857
X15.389 Y10.969
X15.283 Y11.075
X15.172 Y11.176
X15.055 Y11.27
X14.934 Y11.359
X14.809 Y11.441
X14.681 Y11.519
X14.549 Y11.591
X14.413 Y11.658
X14.268 Y11.723
X14.116 Y11.783
X13.959 Y11.838
X13.799 Y11.888
X13.635 Y11.931
X13.469 Y11.968
X13.303 Y11.998
X13.136 Y12.021
X12.968 Y12.038
X12.804 Y12.047
X12.648 Y12.05
X12.494 Y12.047
X12.344 Y12.037
X12.195 Y12.021
X12.047 Y11.997
X11.9 Y11.966
X11.756 Y11.927
X11.614 Y11.878
X11.586 Y11.867
X11.386 Y11.747
X11.23 Y11.574
X11.131 Y11.364
X11.096 Y11.134
Y10.193
G3 X11.386 Y9.887 I0.317 J0.011
G1 X11.71 Y9.859
X15.29 Y9.548
X15.559 Y9.525
G3 X15.904 Y9.83 I0.027 J0.316
G1 Y10.776
X15.9 Y10.856
X15.884 Y11.005
X15.85 Y11.151
X15.8 Y11.293
X15.736 Y11.429
X15.662 Y11.559
X15.578 Y11.683
X15.486 Y11.801
X15.386 Y11.914
X15.28 Y12.02
X15.168 Y12.12
X15.052 Y12.214
X14.93 Y12.302
X14.805 Y12.385
X14.677 Y12.462
X14.545 Y12.534
X14.408 Y12.602
X14.263 Y12.666
X14.111 Y12.726
X13.955 Y12.781
X13.794 Y12.83
X13.629 Y12.874
X13.464 Y12.91
X13.298 Y12.94
X13.131 Y12.963
X12.963 Y12.979
X12.799 Y12.988
X12.643 Y12.991
X12.489 Y12.987
X12.34 Y12.978
X12.191 Y12.961
X12.042 Y12.937
X11.896 Y12.906
X11.751 Y12.867
X11.609 Y12.818
X11.584 Y12.807
X11.385 Y12.688
X11.23 Y12.515
X11.13 Y12.305
X11.096 Y12.075
Y11.134
G3 X11.387 Y10.828 I0.317 J0.011
G1 X11.71 Y10.801
X15.29 Y10.494
X15.559 Y10.471
G3 X15.904 Y10.776 I0.027 J0.316
G1 Y11.723
X15.9 Y11.804
X15.883 Y11.953
X15.848 Y12.099
X15.797 Y12.24
X15.734 Y12.376
X15.659 Y12.506
X15.575 Y12.63
X15.482 Y12.747
X15.382 Y12.859
X15.276 Y12.965
X15.164 Y13.065
X15.047 Y13.159
X14.925 Y13.247
X14.8 Y13.33
X14.671 Y13.407
X14.54 Y13.478
X14.402 Y13.545
X14.257 Y13.61
X14.105 Y13.67
X13.948 Y13.724
X13.787 Y13.773
X13.623 Y13.816
X13.457 Y13.853
X13.291 Y13.882
X13.124 Y13.905
X12.956 Y13.921
X12.792 Y13.93
X12.637 Y13.932
X12.483 Y13.928
X12.333 Y13.919
X12.184 Y13.902
X12.036 Y13.877
X11.89 Y13.846
X11.745 Y13.806
X11.603 Y13.757
X11.583 Y13.748
X11.384 Y13.628
X11.229 Y13.456
X11.13 Y13.246
X11.096 Y13.016
Y12.075
G3 X11.387 Y11.77 I0.317 J0.011
G1 X11.71 Y11.742
X15.29 Y11.441
X15.56 Y11.418
G3 X15.904 Y11.723 I0.027 J0.316
G1 Y12.633
X15.9 Y12.714
X15.888 Y12.863
X15.856 Y13.01
X15.809 Y13.152
X15.748 Y13.289
X15.675 Y13.42
X15.593 Y13.546
X15.502 Y13.665
X15.403 Y13.778
X15.298 Y13.885
X15.187 Y13.986
X15.071 Y14.081
X14.951 Y14.171
X14.826 Y14.254
X14.698 Y14.332
X14.567 Y14.405
X14.43 Y14.473
X14.286 Y14.539
X14.136 Y14.599
X13.982 Y14.655
X13.822 Y14.705
X13.657 Y14.749
X13.491 Y14.787
X13.323 Y14.818
X13.156 Y14.842
X12.988 Y14.859
X12.826 Y14.87
X12.669 Y14.873
X12.512 Y14.871
X12.362 Y14.862
X12.213 Y14.847
X12.065 Y14.824
X11.918 Y14.794
X11.772 Y14.756
X11.63 Y14.708
X11.591 Y14.692
X11.389 Y14.573
X11.231 Y14.4
X11.131 Y14.189
X11.096 Y13.957
Y13.016
G3 X11.385 Y12.711 I0.317 J0.011
G1 X11.71 Y12.681
X15.29 Y12.353
X15.557 Y12.328
G3 X15.904 Y12.633 I0.029 J0.316
G1 Y13.573
X15.9 Y13.653
X15.888 Y13.803
X15.857 Y13.949
X15.809 Y14.092
X15.748 Y14.229
X15.676 Y14.36
X15.594 Y14.485
X15.503 Y14.605
X15.404 Y14.718
X15.299 Y14.825
X15.188 Y14.926
X15.073 Y15.021
X14.952 Y15.111
X14.828 Y15.194
X14.7 Y15.273
X14.568 Y15.345
X14.433 Y15.413
X14.289 Y15.479
X14.138 Y15.54
X13.982 Y15.595
X13.823 Y15.645
X13.659 Y15.69
X13.493 Y15.728
X13.326 Y15.759
X13.159 Y15.783
X12.992 Y15.8
X12.827 Y15.811
X12.67 Y15.815
X12.515 Y15.812
X12.366 Y15.804
X12.216 Y15.788
X12.068 Y15.765
X11.921 Y15.736
X11.776 Y15.698
X11.634 Y15.65
X11.592 Y15.634
X11.39 Y15.514
X11.232 Y15.341
X11.131 Y15.13
X11.096 Y14.898
Y13.957
G3 X11.385 Y13.652 I0.317 J0.011
G1 X11.71 Y13.622
X15.29 Y13.292
X15.557 Y13.268
G3 X15.904 Y13.573 I0.029 J0.316
G1 Y14.527
X15.9 Y14.607
X15.886 Y14.756
X15.853 Y14.903
X15.805 Y15.045
X15.743 Y15.181
X15.669 Y15.312
X15.586 Y15.437
X15.494 Y15.556
X15.395 Y15.668
X15.29 Y15.775
X15.179 Y15.876
X15.062 Y15.97
X14.942 Y16.059
X14.817 Y16.143
X14.689 Y16.22
X14.557 Y16.292
X14.421 Y16.36
X14.277 Y16.425
X14.126 Y16.485
X13.969 Y16.541
X13.809 Y16.591
X13.645 Y16.634
X13.479 Y16.672
X13.314 Y16.702
X13.147 Y16.726
X12.98 Y16.742
X12.814 Y16.752
X12.657 Y16.756
X12.504 Y16.753
X12.354 Y16.744
X12.205 Y16.728
X12.057 Y16.704
X11.91 Y16.674
X11.765 Y16.636
X11.623 Y16.587
X11.589 Y16.573
X11.388 Y16.454
X11.231 Y16.281
X11.131 Y16.07
X11.096 Y15.839
Y14.898
G3 X11.386 Y14.593 I0.317 J0.011
G1 X11.71 Y14.564
X15.29 Y14.246
X15.558 Y14.222
G3 X15.904 Y14.527 I0.028 J0.316
G1 Y15.466
X15.9 Y15.546
X15.886 Y15.696
X15.854 Y15.842
X15.805 Y15.984
X15.743 Y16.121
X15.67 Y16.252
X15.587 Y16.377
X15.495 Y16.495
X15.396 Y16.608
X15.291 Y16.715
X15.18 Y16.816
X15.064 Y16.91
X14.943 Y16.999
X14.818 Y17.083
X14.69 Y17.161
X14.559 Y17.233
X14.422 Y17.301
X14.278 Y17.365
X14.127 Y17.426
X13.971 Y17.481
X13.811 Y17.531
X13.647 Y17.575
X13.481 Y17.612
X13.315 Y17.643
X13.148 Y17.666
X12.98 Y17.683
X12.815 Y17.693
X12.66 Y17.697
X12.505 Y17.694
X12.355 Y17.685
X12.206 Y17.669
X12.058 Y17.646
X11.911 Y17.615
X11.766 Y17.577
X11.624 Y17.529
X11.589 Y17.515
X11.388 Y17.395
X11.231 Y17.222
X11.131 Y17.011
X11.096 Y16.78
Y15.839
G3 X11.385 Y15.534 I0.317 J0.011
G1 X11.71 Y15.505
X15.29 Y15.185
X15.558 Y15.161
G3 X15.904 Y15.466 I0.028 J0.316
G1 Y16.42
X15.9 Y16.5
X15.885 Y16.65
X15.85 Y16.796
X15.801 Y16.937
X15.738 Y17.073
X15.663 Y17.204
X15.58 Y17.328
X15.487 Y17.446
X15.388 Y17.559
X15.282 Y17.665
X15.17 Y17.765
X15.054 Y17.859
X14.933 Y17.948
X14.808 Y18.031
X14.679 Y18.108
X14.547 Y18.18
X14.411 Y18.247
X14.266 Y18.311
X14.115 Y18.372
X13.958 Y18.427
X13.797 Y18.476
X13.632 Y18.52
X13.467 Y18.556
X13.301 Y18.586
X13.135 Y18.609
X12.967 Y18.626
X12.802 Y18.635
X12.646 Y18.638
X12.493 Y18.634
X12.343 Y18.625
X12.194 Y18.608
X12.046 Y18.584
X11.899 Y18.554
X11.755 Y18.514
X11.613 Y18.466
X11.586 Y18.454
X11.386 Y18.335
X11.23 Y18.162
X11.13 Y17.952
X11.096 Y17.721
Y16.78
G3 X11.386 Y16.475 I0.317 J0.011
G1 X11.71 Y16.447
X15.29 Y16.138
X15.559 Y16.115
G3 X15.904 Y16.42 I0.027 J0.316
G1 Y17.36
X15.9 Y17.44
X15.885 Y17.589
X15.851 Y17.735
X15.801 Y17.877
X15.738 Y18.013
X15.664 Y18.143
X15.581 Y18.268
X15.488 Y18.386
X15.389 Y18.499
X15.283 Y18.605
X15.172 Y18.705
X15.055 Y18.799
X14.934 Y18.888
X14.809 Y18.971
X14.68 Y19.048
X14.549 Y19.12
X14.412 Y19.188
X14.267 Y19.252
X14.115 Y19.313
X13.959 Y19.368
X13.799 Y19.417
X13.635 Y19.46
X13.469 Y19.497
X13.302 Y19.527
X13.135 Y19.55
X12.968 Y19.567
X12.803 Y19.576
X12.648 Y19.579
X12.493 Y19.575
X12.344 Y19.566
X12.195 Y19.55
X12.046 Y19.526
X11.9 Y19.495
X11.755 Y19.456
X11.613 Y19.407
X11.586 Y19.396
X11.386 Y19.276
X11.23 Y19.103
X11.13 Y18.893
X11.096 Y18.663
Y17.721
G3 X11.386 Y17.416 I0.317 J0.011
G1 X11.71 Y17.388
X15.29 Y17.078
X15.559 Y17.054
G3 X15.904 Y17.36 I0.027 J0.316
G1 Y18.314
X15.9 Y18.394
X15.883 Y18.543
X15.848 Y18.689
X15.797 Y18.83
X15.733 Y18.966
X15.658 Y19.095
X15.573 Y19.219
X15.48 Y19.337
X15.38 Y19.449
X15.274 Y19.555
X15.162 Y19.654
X15.045 Y19.748
X14.924 Y19.836
X14.798 Y19.919
X14.669 Y19.996
X14.538 Y20.067
X14.401 Y20.134
X14.255 Y20.198
X14.103 Y20.258
X13.946 Y20.313
X13.785 Y20.362
X13.62 Y20.405
X13.454 Y20.441
X13.289 Y20.47
X13.122 Y20.493
X12.955 Y20.509
X12.79 Y20.518
X12.634 Y20.52
X12.481 Y20.516
X12.332 Y20.506
X12.183 Y20.489
X12.035 Y20.465
X11.888 Y20.433
X11.743 Y20.393
X11.602 Y20.344
X11.582 Y20.336
X11.384 Y20.215
X11.229 Y20.043
X11.13 Y19.833
X11.096 Y19.604
Y18.663
G3 X11.387 Y18.357 I0.317 J0.011
G1 X11.71 Y18.33
X15.29 Y18.031
X15.56 Y18.008
G3 X15.904 Y18.314 I0.026 J0.316
G1 Y19.253
X15.9 Y19.333
X15.883 Y19.482
X15.848 Y19.628
X15.797 Y19.769
X15.734 Y19.905
X15.659 Y20.035
X15.574 Y20.159
X15.482 Y20.277
X15.382 Y20.389
X15.275 Y20.495
X15.163 Y20.595
X15.046 Y20.688
X14.925 Y20.777
X14.8 Y20.859
X14.671 Y20.936
X14.539 Y21.008
X14.402 Y21.075
X14.256 Y21.139
X14.104 Y21.199
X13.947 Y21.254
X13.787 Y21.303
X13.622 Y21.346
X13.456 Y21.382
X13.29 Y21.411
X13.123 Y21.434
X12.955 Y21.45
X12.791 Y21.459
X12.636 Y21.461
X12.482 Y21.457
X12.332 Y21.447
X12.183 Y21.431
X12.035 Y21.406
X11.888 Y21.375
X11.744 Y21.335
X11.602 Y21.285
X11.582 Y21.277
X11.384 Y21.157
X11.229 Y20.985
X11.13 Y20.775
X11.096 Y20.545
Y19.604
G3 X11.387 Y19.299 I0.317 J0.011
G1 X11.71 Y19.272
X15.29 Y18.971
X15.56 Y18.948
G3 X15.904 Y19.253 I0.027 J0.316
G1 Y20.171
X15.9 Y20.251
X15.887 Y20.401
X15.854 Y20.547
X15.806 Y20.689
X15.744 Y20.826
X15.671 Y20.957
X15.588 Y21.082
X15.496 Y21.2
X15.397 Y21.313
X15.292 Y21.42
X15.181 Y21.521
X15.065 Y21.616
X14.944 Y21.705
X14.819 Y21.788
X14.691 Y21.866
X14.559 Y21.938
X14.422 Y22.006
X14.277 Y22.071
X14.127 Y22.132
X13.972 Y22.187
X13.812 Y22.236
X13.648 Y22.28
X13.481 Y22.318
X13.314 Y22.349
X13.146 Y22.372
X12.979 Y22.389
X12.816 Y22.399
X12.66 Y22.402
X12.503 Y22.399
X12.353 Y22.391
X12.204 Y22.375
X12.056 Y22.351
X11.909 Y22.321
X11.764 Y22.282
X11.622 Y22.234
X11.588 Y22.22
X11.388 Y22.101
X11.231 Y21.928
X11.131 Y21.717
X11.096 Y21.486
Y20.545
G3 X11.385 Y20.24 I0.317 J0.011
G1 X11.71 Y20.211
X15.29 Y19.89
X15.558 Y19.866
G3 X15.904 Y20.171 I0.028 J0.316
G1 Y21.117
X15.9 Y21.197
X15.886 Y21.347
X15.853 Y21.493
X15.804 Y21.635
X15.742 Y21.771
X15.668 Y21.902
X15.585 Y22.027
X15.493 Y22.145
X15.394 Y22.258
X15.288 Y22.364
X15.177 Y22.465
X15.061 Y22.56
X14.94 Y22.649
X14.815 Y22.732
X14.687 Y22.809
X14.555 Y22.881
X14.419 Y22.949
X14.274 Y23.014
X14.123 Y23.074
X13.967 Y23.13
X13.806 Y23.179
X13.642 Y23.223
X13.476 Y23.26
X13.31 Y23.29
X13.143 Y23.314
X12.975 Y23.331
X12.81 Y23.341
X12.654 Y23.344
X12.5 Y23.341
X12.35 Y23.331
X12.201 Y23.315
X12.053 Y23.292
X11.906 Y23.261
X11.761 Y23.223
X11.619 Y23.174
X11.588 Y23.161
X11.387 Y23.042
X11.231 Y22.869
X11.131 Y22.658
X11.096 Y22.427
Y21.486
G3 X11.386 Y21.181 I0.317 J0.011
G1 X11.71 Y21.152
X15.29 Y20.836
X15.558 Y20.812
G3 X15.904 Y21.117 I0.028 J0.316
G1 Y22.065
X15.9 Y22.145
X15.885 Y22.294
X15.851 Y22.44
X15.802 Y22.582
X15.739 Y22.718
X15.665 Y22.848
X15.581 Y22.973
X15.489 Y23.091
X15.39 Y23.204
X15.284 Y23.31
X15.172 Y23.41
X15.056 Y23.505
X14.935 Y23.593
X14.81 Y23.676
X14.681 Y23.754
X14.55 Y23.826
X14.413 Y23.893
X14.268 Y23.957
X14.117 Y24.018
X13.96 Y24.073
X13.8 Y24.122
X13.635 Y24.166
X13.469 Y24.203
X13.303 Y24.233
X13.137 Y24.256
X12.969 Y24.272
X12.804 Y24.282
X12.649 Y24.285
X12.495 Y24.281
X12.345 Y24.272
X12.196 Y24.256
X12.048 Y24.232
X11.901 Y24.201
X11.756 Y24.162
X11.614 Y24.113
X11.586 Y24.102
X11.386 Y23.982
X11.23 Y23.809
X11.131 Y23.599
X11.096 Y23.369
Y22.427
G3 X11.386 Y22.122 I0.317 J0.011
G1 X11.71 Y22.094
X15.29 Y21.783
X15.559 Y21.759
G3 X15.904 Y22.065 I0.028 J0.316
G1 Y23.011
Y23.04
Y23.084
X15.872 Y23.725
X15.896 Y23.999
X15.798 Y24.299
X15.502 Y24.631
X14.92 Y24.902
X14.353 Y25.202
X13.712 Y25.253
X13.61 Y25.295
X13.141 Y25.448
X12.502 Y25.389
X11.998 Y25.427
X11.63 Y25.299
X11.414 Y25.184
X11.243 Y25.009
X11.134 Y24.791
X11.096 Y24.549
Y23.369
G3 X11.392 Y23.063 I0.317 J0.011
G1 X11.711 Y23.041
X15.289 Y22.797
X15.565 Y22.778
G3 X15.904 Y23.084 I0.022 J0.317
G1 Y25.662
X15.907 Y26.044
X15.908 Y26.062
X15.941 Y26.226
X15.947 Y26.244
X16.02 Y26.402
X16.049 Y26.439
X16.127 Y26.536
X16.144 Y26.555
X16.243 Y26.627
G3 X16.057 Y27.195 I-0.195 J0.25
G1 X16.05
X10.666 Y27.348
G3 X10.532 Y26.739 I-0.009 J-0.317
G1 X10.68 Y26.681
X10.712 Y26.66
X10.856 Y26.555
X10.873 Y26.536
X10.971 Y26.414
X10.98 Y26.402
X11.053 Y26.244
X11.059 Y26.226
X11.092 Y26.062
X11.093 Y26.026
X11.096 Y25.516
Y24.549
G3 X11.523 Y24.262 I0.317 J0.011
G1 X11.698 Y24.326
X13.099 Y24.841
X13.506 Y24.99
G3 X13.712 Y25.253 I-0.109 J0.298
G1 X13.725 Y25.413
X13.769 Y25.567
X13.844 Y25.709
X13.946 Y25.833
X14.07 Y25.934
X14.213 Y26.009
X14.367 Y26.052
X14.527 Y26.064
X14.687 Y26.044
X14.838 Y25.992
X14.977 Y25.91
X15.036 Y25.856
G3 X15.463 Y25.871 I0.205 J0.243
G1 X15.491 Y25.918 Z-1.195
X15.518 Y25.963 Z-1.181
X15.544 Y26.005 Z-1.158
X15.552 Y26.056 Z-1.121
X15.558 Y26.099 Z-1.074
X15.555 Y26.134 Z-1.015
X15.553 Y26.155 Z-0.95
X15.552 Y26.162 Z-0.883
G0 Z5.
X6.255 Y13.475
Z2.5
G3 X7.047 Y13.526 Z2.456 I0.396 J0.026 F1016.
X6.255 Y13.475 Z2.413 I-0.396 J-0.026
X7.047 Y13.526 Z2.369 I0.396 J0.026
X6.255 Y13.475 Z2.326 I-0.396 J-0.026
X7.047 Y13.526 Z2.282 I0.396 J0.026
X6.255 Y13.475 Z2.239 I-0.396 J-0.026
X7.047 Y13.526 Z2.195 I0.396 J0.026
X6.255 Y13.475 Z2.152 I-0.396 J-0.026
X7.047 Y13.526 Z2.108 I0.396 J0.026
X6.255 Y13.475 Z2.065 I-0.396 J-0.026
X7.047 Y13.526 Z2.021 I0.396 J0.026
X6.255 Y13.475 Z1.978 I-0.396 J-0.026
X7.047 Y13.526 Z1.934 I0.396 J0.026
X6.255 Y13.475 Z1.89 I-0.396 J-0.026
X7.047 Y13.526 Z1.847 I0.396 J0.026
X6.255 Y13.475 Z1.803 I-0.396 J-0.026
X7.047 Y13.526 Z1.76 I0.396 J0.026
X6.255 Y13.475 Z1.716 I-0.396 J-0.026
X7.047 Y13.526 Z1.673 I0.396 J0.026
X6.255 Y13.475 Z1.629 I-0.396 J-0.026
X7.047 Y13.526 Z1.586 I0.396 J0.026
X6.255 Y13.475 Z1.542 I-0.396 J-0.026
X7.047 Y13.526 Z1.499 I0.396 J0.026
X6.255 Y13.475 Z1.455 I-0.396 J-0.026
X7.047 Y13.526 Z1.412 I0.396 J0.026
X6.255 Y13.475 Z1.368 I-0.396 J-0.026
X7.047 Y13.526 Z1.324 I0.396 J0.026
X6.255 Y13.475 Z1.281 I-0.396 J-0.026
X7.047 Y13.526 Z1.237 I0.396 J0.026
X6.255 Y13.475 Z1.194 I-0.396 J-0.026
X7.047 Y13.526 Z1.15 I0.396 J0.026
X6.255 Y13.475 Z1.107 I-0.396 J-0.026
X7.047 Y13.526 Z1.063 I0.396 J0.026
X6.255 Y13.475 Z1.02 I-0.396 J-0.026
X7.047 Y13.526 Z0.976 I0.396 J0.026
X6.255 Y13.475 Z0.933 I-0.396 J-0.026
X7.047 Y13.526 Z0.889 I0.396 J0.026
X6.255 Y13.475 Z0.845 I-0.396 J-0.026
X7.047 Y13.526 Z0.802 I0.396 J0.026
X6.255 Y13.475 Z0.758 I-0.396 J-0.026
X7.047 Y13.526 Z0.715 I0.396 J0.026
X6.255 Y13.475 Z0.671 I-0.396 J-0.026
X7.047 Y13.526 Z0.628 I0.396 J0.026
X6.255 Y13.475 Z0.584 I-0.396 J-0.026
X7.047 Y13.526 Z0.541 I0.396 J0.026
X6.255 Y13.475 Z0.497 I-0.396 J-0.026
X7.047 Y13.526 Z0.454 I0.396 J0.026
X6.255 Y13.475 Z0.41 I-0.396 J-0.026
X7.047 Y13.526 Z0.367 I0.396 J0.026
X6.255 Y13.475 Z0.323 I-0.396 J-0.026
X7.047 Y13.526 Z0.279 I0.396 J0.026
X6.255 Y13.475 Z0.236 I-0.396 J-0.026
X7.047 Y13.526 Z0.192 I0.396 J0.026
X6.255 Y13.475 Z0.149 I-0.396 J-0.026
X7.047 Y13.526 Z0.105 I0.396 J0.026
X6.255 Y13.475 Z0.062 I-0.396 J-0.026
X7.047 Y13.526 Z0.018 I0.396 J0.026
X6.255 Y13.475 Z-0.025 I-0.396 J-0.026
X7.047 Y13.526 Z-0.069 I0.396 J0.026
X6.255 Y13.475 Z-0.112 I-0.396 J-0.026
X7.047 Y13.526 Z-0.156 I0.396 J0.026
X6.255 Y13.475 Z-0.199 I-0.396 J-0.026
X7.047 Y13.526 Z-0.243 I0.396 J0.026
X6.255 Y13.475 Z-0.287 I-0.396 J-0.026
X7.047 Y13.526 Z-0.33 I0.396 J0.026
X6.255 Y13.475 Z-0.374 I-0.396 J-0.026
X7.047 Y13.526 Z-0.417 I0.396 J0.026
X6.255 Y13.475 Z-0.461 I-0.396 J-0.026
X7.047 Y13.526 Z-0.504 I0.396 J0.026
X6.255 Y13.475 Z-0.548 I-0.396 J-0.026
X7.047 Y13.526 Z-0.591 I0.396 J0.026
X6.255 Y13.475 Z-0.635 I-0.396 J-0.026
X7.047 Y13.526 Z-0.678 I0.396 J0.026
X6.255 Y13.475 Z-0.722 I-0.396 J-0.026
X7.047 Y13.526 Z-0.765 I0.396 J0.026
X6.255 Y13.475 Z-0.809 I-0.396 J-0.026
X7.047 Y13.526 Z-0.853 I0.396 J0.026
X6.255 Y13.475 Z-0.896 I-0.396 J-0.026
X7.047 Y13.526 Z-0.94 I0.396 J0.026
X6.255 Y13.475 Z-0.983 I-0.396 J-0.026
X7.047 Y13.526 Z-1.027 I0.396 J0.026
X6.255 Y13.475 Z-1.07 I-0.396 J-0.026
X7.047 Y13.526 Z-1.114 I0.396 J0.026
X6.255 Y13.475 Z-1.157 I-0.396 J-0.026
X7.048 Y13.501 Z-1.2 I0.396 J0.026
X6.254 I-0.397 J0.
X7.048 I0.397 J0.
G1 X7.074 Y13.659
X7.101 Y13.729
X7.114 Y13.878
X7.062 Y14.019
X6.969 Y14.136
X6.847 Y14.223
X6.707 Y14.278
X6.558 Y14.299
X6.409 Y14.289
X6.264 Y14.248
X6.131 Y14.18
X6.012 Y14.088
X5.913 Y13.976
X5.835 Y13.848
X5.781 Y13.708
X5.753 Y13.56
X5.75 Y13.41
X5.773 Y13.262
X5.82 Y13.12
X5.891 Y12.987
X5.983 Y12.869
X6.093 Y12.767
X6.218 Y12.684
X6.355 Y12.623
X6.5 Y12.586
X6.65 Y12.572
X6.799 Y12.583
X6.945 Y12.618
X7.084 Y12.676
X7.211 Y12.756
X7.326 Y12.851
X7.43 Y12.959
X7.523 Y13.077
X7.601 Y13.205
X7.661 Y13.343
X7.705 Y13.486
X7.729 Y13.634
X7.733 Y13.784
X7.725 Y13.852
X7.72 Y13.886
X7.712 Y13.92
X7.708 Y13.937
X7.697 Y13.973
X7.681 Y14.01
X7.665 Y14.037
X7.645 Y14.064
X7.423 Y14.343
X7.404 Y14.364
X7.383 Y14.385
X7.346 Y14.413
X7.31 Y14.436
X6.985 Y14.592
X6.929 Y14.614
X6.873 Y14.626
X6.727 Y14.63
X6.582
X6.436 Y14.628
X6.406 Y14.624
X6.375 Y14.617
X6.315 Y14.592
X5.999 Y14.44
X5.963 Y14.421
X5.926 Y14.394
X5.886 Y14.353
X5.844 Y14.301
X5.66 Y14.07
X5.637 Y14.04
X5.619 Y14.01
X5.603 Y13.973
X5.592 Y13.937
X5.508 Y13.573
X5.501 Y13.536
X5.499 Y13.5
X5.501 Y13.464
X5.508 Y13.427
X5.592 Y13.063
X5.603 Y13.027
X5.619 Y12.99
X5.637 Y12.96
X5.66 Y12.93
X5.853 Y12.687
X5.886 Y12.647
X5.926 Y12.606
X5.963 Y12.579
X5.999 Y12.56
X6.315 Y12.408
X6.375 Y12.383
X6.406 Y12.376
X6.436 Y12.372
X6.582 Y12.37
X6.727
X6.873 Y12.374
X6.929 Y12.386
X6.985 Y12.408
X7.31 Y12.564
X7.346 Y12.587
X7.383 Y12.615
X7.404 Y12.636
X7.423 Y12.657
X7.645 Y12.936
X7.665 Y12.963
X7.681 Y12.99
X7.697 Y13.027
X7.708 Y13.063
X7.792 Y13.427
X7.799 Y13.464
X7.801 Y13.5
X7.799 Y13.536
X7.792 Y13.573
X7.712 Y13.92
G3 X7.353 Y14.15 I-0.306 J-0.084
G1 X7.303 Y14.128 Z-1.195
X7.255 Y14.106 Z-1.181
X7.21 Y14.086 Z-1.158
X7.18 Y14.047 Z-1.122
X7.154 Y14.014 Z-1.078
X7.135 Y13.988 Z-1.027
X7.121 Y13.971 Z-0.971
X7.114 Y13.962 Z-0.911
Y13.961 Z-0.882
G0 Z5.
X19.954 Y13.475
Z2.5
G3 X20.746 Y13.526 Z2.456 I0.396 J0.026 F1016.
X19.954 Y13.475 Z2.413 I-0.396 J-0.026
X20.746 Y13.526 Z2.369 I0.396 J0.026
X19.954 Y13.475 Z2.326 I-0.396 J-0.026
X20.746 Y13.526 Z2.282 I0.396 J0.026
X19.954 Y13.475 Z2.239 I-0.396 J-0.026
X20.746 Y13.526 Z2.195 I0.396 J0.026
X19.954 Y13.475 Z2.152 I-0.396 J-0.026
X20.746 Y13.526 Z2.108 I0.396 J0.026
X19.954 Y13.475 Z2.065 I-0.396 J-0.026
X20.746 Y13.526 Z2.021 I0.396 J0.026
X19.954 Y13.475 Z1.978 I-0.396 J-0.026
X20.746 Y13.526 Z1.934 I0.396 J0.026
X19.954 Y13.475 Z1.89 I-0.396 J-0.026
X20.746 Y13.526 Z1.847 I0.396 J0.026
X19.954 Y13.475 Z1.803 I-0.396 J-0.026
X20.746 Y13.526 Z1.76 I0.396 J0.026
X19.954 Y13.475 Z1.716 I-0.396 J-0.026
X20.746 Y13.526 Z1.673 I0.396 J0.026
X19.954 Y13.475 Z1.629 I-0.396 J-0.026
X20.746 Y13.526 Z1.586 I0.396 J0.026
X19.954 Y13.475 Z1.542 I-0.396 J-0.026
X20.746 Y13.526 Z1.499 I0.396 J0.026
X19.954 Y13.475 Z1.455 I-0.396 J-0.026
X20.746 Y13.526 Z1.412 I0.396 J0.026
X19.954 Y13.475 Z1.368 I-0.396 J-0.026
X20.746 Y13.526 Z1.324 I0.396 J0.026
X19.954 Y13.475 Z1.281 I-0.396 J-0.026
X20.746 Y13.526 Z1.237 I0.396 J0.026
X19.954 Y13.475 Z1.194 I-0.396 J-0.026
X20.746 Y13.526 Z1.15 I0.396 J0.026
X19.954 Y13.475 Z1.107 I-0.396 J-0.026
X20.746 Y13.526 Z1.063 I0.396 J0.026
X19.954 Y13.475 Z1.02 I-0.396 J-0.026
X20.746 Y13.526 Z0.976 I0.396 J0.026
X19.954 Y13.475 Z0.933 I-0.396 J-0.026
X20.746 Y13.526 Z0.889 I0.396 J0.026
X19.954 Y13.475 Z0.845 I-0.396 J-0.026
X20.746 Y13.526 Z0.802 I0.396 J0.026
X19.954 Y13.475 Z0.758 I-0.396 J-0.026
X20.746 Y13.526 Z0.715 I0.396 J0.026
X19.954 Y13.475 Z0.671 I-0.396 J-0.026
X20.746 Y13.526 Z0.628 I0.396 J0.026
X19.954 Y13.475 Z0.584 I-0.396 J-0.026
X20.746 Y13.526 Z0.541 I0.396 J0.026
X19.954 Y13.475 Z0.497 I-0.396 J-0.026
X20.746 Y13.526 Z0.454 I0.396 J0.026
X19.954 Y13.475 Z0.41 I-0.396 J-0.026
X20.746 Y13.526 Z0.367 I0.396 J0.026
X19.954 Y13.475 Z0.323 I-0.396 J-0.026
X20.746 Y13.526 Z0.279 I0.396 J0.026
X19.954 Y13.475 Z0.236 I-0.396 J-0.026
X20.746 Y13.526 Z0.192 I0.396 J0.026
X19.954 Y13.475 Z0.149 I-0.396 J-0.026
X20.746 Y13.526 Z0.105 I0.396 J0.026
X19.954 Y13.475 Z0.062 I-0.396 J-0.026
X20.746 Y13.526 Z0.018 I0.396 J0.026
X19.954 Y13.475 Z-0.025 I-0.396 J-0.026
X20.746 Y13.526 Z-0.069 I0.396 J0.026
X19.954 Y13.475 Z-0.112 I-0.396 J-0.026
X20.746 Y13.526 Z-0.156 I0.396 J0.026
X19.954 Y13.475 Z-0.199 I-0.396 J-0.026
X20.746 Y13.526 Z-0.243 I0.396 J0.026
X19.954 Y13.475 Z-0.287 I-0.396 J-0.026
X20.746 Y13.526 Z-0.33 I0.396 J0.026
X19.954 Y13.475 Z-0.374 I-0.396 J-0.026
X20.746 Y13.526 Z-0.417 I0.396 J0.026
X19.954 Y13.475 Z-0.461 I-0.396 J-0.026
X20.746 Y13.526 Z-0.504 I0.396 J0.026
X19.954 Y13.475 Z-0.548 I-0.396 J-0.026
X20.746 Y13.526 Z-0.591 I0.396 J0.026
X19.954 Y13.475 Z-0.635 I-0.396 J-0.026
X20.746 Y13.526 Z-0.678 I0.396 J0.026
X19.954 Y13.475 Z-0.722 I-0.396 J-0.026
X20.746 Y13.526 Z-0.765 I0.396 J0.026
X19.954 Y13.475 Z-0.809 I-0.396 J-0.026
X20.746 Y13.526 Z-0.853 I0.396 J0.026
X19.954 Y13.475 Z-0.896 I-0.396 J-0.026
X20.746 Y13.526 Z-0.94 I0.396 J0.026
X19.954 Y13.475 Z-0.983 I-0.396 J-0.026
X20.746 Y13.526 Z-1.027 I0.396 J0.026
X19.954 Y13.475 Z-1.07 I-0.396 J-0.026
X20.746 Y13.526 Z-1.114 I0.396 J0.026
X19.954 Y13.475 Z-1.157 I-0.396 J-0.026
X20.747 Y13.5 Z-1.2 I0.396 J0.026
X19.953 I-0.397 J0.
X20.747 I0.397 J0.
G1 X20.774 Y13.658
X20.801 Y13.728
X20.813 Y13.878
X20.762 Y14.019
X20.668 Y14.136
X20.546 Y14.223
X20.406 Y14.277
X20.258 Y14.299
X20.108 Y14.288
X19.964 Y14.248
X19.83 Y14.18
X19.712 Y14.088
X19.612 Y13.976
X19.535 Y13.847
X19.481 Y13.707
X19.452 Y13.56
X19.45 Y13.41
X19.472 Y13.262
X19.52 Y13.119
X19.591 Y12.987
X19.682 Y12.868
X19.792 Y12.766
X19.918 Y12.684
X20.055 Y12.623
X20.2 Y12.585
X20.349 Y12.572
X20.499 Y12.583
X20.645 Y12.617
X20.783 Y12.676
X20.91 Y12.755
X21.026 Y12.851
X21.13 Y12.959
X21.222 Y13.077
X21.3 Y13.205
X21.361 Y13.342
X21.404 Y13.486
X21.428 Y13.634
X21.432 Y13.784
X21.424 Y13.857
X21.419 Y13.891
X21.411 Y13.925
X21.408 Y13.937
X21.397 Y13.973
X21.381 Y14.01
X21.363 Y14.04
X21.34 Y14.07
X21.147 Y14.313
X21.114 Y14.353
X21.074 Y14.394
X21.037 Y14.421
X21.001 Y14.44
X20.685 Y14.592
X20.625 Y14.617
X20.594 Y14.624
X20.564 Y14.628
X20.418 Y14.63
X20.273
X20.127 Y14.626
X20.071 Y14.614
X20.015 Y14.592
X19.69 Y14.436
X19.654 Y14.413
X19.617 Y14.385
X19.596 Y14.364
X19.577 Y14.343
X19.355 Y14.064
X19.335 Y14.037
X19.319 Y14.01
X19.303 Y13.973
X19.292 Y13.937
X19.208 Y13.573
X19.201 Y13.536
X19.199 Y13.5
X19.201 Y13.464
X19.208 Y13.427
X19.292 Y13.063
X19.303 Y13.027
X19.319 Y12.99
X19.335 Y12.963
X19.355 Y12.936
X19.577 Y12.657
X19.596 Y12.636
X19.617 Y12.615
X19.654 Y12.587
X19.69 Y12.564
X20.015 Y12.408
X20.071 Y12.386
X20.127 Y12.374
X20.273 Y12.37
X20.418
X20.564 Y12.372
X20.594 Y12.376
X20.625 Y12.383
X20.685 Y12.408
X21.001 Y12.56
X21.037 Y12.579
X21.074 Y12.606
X21.114 Y12.647
X21.156 Y12.699
X21.34 Y12.93
X21.363 Y12.96
X21.381 Y12.99
X21.397 Y13.027
X21.408 Y13.063
X21.492 Y13.427
X21.499 Y13.464
X21.501 Y13.5
X21.499 Y13.536
X21.492 Y13.573
X21.411 Y13.925
G3 X21.051 Y14.154 I-0.306 J-0.084
G1 X21.002 Y14.132 Z-1.195
X20.954 Y14.11 Z-1.181
X20.909 Y14.09 Z-1.158
X20.879 Y14.051 Z-1.122
X20.853 Y14.018 Z-1.078
X20.834 Y13.992 Z-1.027
X20.82 Y13.975 Z-0.971
X20.813 Y13.966 Z-0.911
Y13.965 Z-0.882
G0 Z5.
X20.899 Y14.294
Z-0.445
G1 Z-0.762 F1016.
X20.895 Y14.287 Z-0.833
X20.884 Y14.266 Z-0.9
X20.865 Y14.233 Z-0.96
X20.84 Y14.19 Z-1.011
X20.809 Y14.138 Z-1.049
X20.776 Y14.08 Z-1.072
X20.741 Y14.018 Z-1.08
G3 X20.036 Y12.421 I7.022 J-4.049
G1 X20.019 Y12.358
X20.025 Y12.284
X20.116 Y12.177
X20.242 Y12.115
X20.382 Y12.109
X20.71 Y12.163
X20.855 Y12.19
X20.928 Y12.221
X21.001 Y12.257
X21.01 Y12.262
X21.147 Y12.376
X21.438 Y12.628
X21.476 Y12.664
X21.506 Y12.699
X21.584 Y12.796
X21.62 Y12.845
X21.64 Y12.881
X21.655 Y12.917
X21.673 Y12.99
X21.773 Y13.427
X21.779 Y13.464
X21.781 Y13.5
X21.779 Y13.536
X21.773 Y13.573
X21.673 Y14.01
X21.655 Y14.083
X21.64 Y14.119
X21.62 Y14.155
X21.584 Y14.204
X21.506 Y14.301
X21.476 Y14.336
X21.438 Y14.372
X21.147 Y14.624
X21.01 Y14.738
X21.001 Y14.743
X20.928 Y14.779
X20.855 Y14.81
X20.71 Y14.837
X20.346 Y14.897
X20.309 Y14.902
X20.273 Y14.903
X20.219 Y14.898
X20.127 Y14.873
X19.763 Y14.771
X19.686 Y14.738
X19.615 Y14.7
X19.544 Y14.642
X19.315 Y14.447
X19.253 Y14.376
X19.107 Y14.193
X19.08 Y14.155
X19.06 Y14.119
X19.045 Y14.083
X19.027 Y14.01
X18.927 Y13.573
X18.921 Y13.536
X18.919 Y13.5
X18.921 Y13.464
X18.927 Y13.427
X19.027 Y12.99
X19.045 Y12.917
X19.06 Y12.881
X19.08 Y12.845
X19.107 Y12.807
X19.253 Y12.624
X19.315 Y12.553
X19.544 Y12.358
X19.615 Y12.3
X19.69 Y12.26
X19.763 Y12.229
X20.164 Y12.116
X20.219 Y12.102
X20.273 Y12.097
X20.309 Y12.098
X20.382 Y12.109
G3 X20.636 Y12.452 I-0.062 J0.311
G1 X20.617 Y12.504 Z-1.075
X20.599 Y12.553 Z-1.061
X20.582 Y12.599 Z-1.038
X20.545 Y12.632 Z-1.002
X20.514 Y12.66 Z-0.958
X20.49 Y12.681 Z-0.907
X20.473 Y12.696 Z-0.851
X20.465 Y12.703 Z-0.791
X20.464 Y12.704 Z-0.763
G0 Z5.
X7.015 Y12.594
Z-0.445
G1 Z-0.762 F1016.
X7.011 Y12.601 Z-0.833
X7.001 Y12.622 Z-0.9
X6.984 Y12.656 Z-0.96
X6.962 Y12.701 Z-1.011
X6.935 Y12.755 Z-1.049
X6.905 Y12.815 Z-1.072
X6.873 Y12.878 Z-1.08
G3 X5.927 Y14.346 I-7.248 J-3.629
G1 X5.86 Y14.423
X5.741 Y14.433
X5.626 Y14.403
X5.526 Y14.338
X5.494 Y14.301
X5.416 Y14.204
X5.38 Y14.155
X5.36 Y14.119
X5.345 Y14.083
X5.327 Y14.01
X5.227 Y13.573
X5.221 Y13.536
X5.219 Y13.5
X5.221 Y13.464
X5.227 Y13.427
X5.327 Y12.99
X5.345 Y12.917
X5.36 Y12.881
X5.38 Y12.845
X5.416 Y12.796
X5.494 Y12.699
X5.524 Y12.664
X5.562 Y12.628
X5.853 Y12.376
X5.99 Y12.262
X5.999 Y12.257
X6.072 Y12.221
X6.145 Y12.19
X6.29 Y12.163
X6.654 Y12.103
X6.691 Y12.098
X6.727 Y12.097
X6.781 Y12.102
X6.873 Y12.127
X7.237 Y12.229
X7.314 Y12.262
X7.385 Y12.3
X7.456 Y12.358
X7.685 Y12.553
X7.747 Y12.624
X7.893 Y12.807
X7.92 Y12.845
X7.94 Y12.881
X7.955 Y12.917
X7.973 Y12.99
X8.073 Y13.427
X8.079 Y13.464
X8.081 Y13.5
X8.079 Y13.536
X8.073 Y13.573
X7.973 Y14.01
X7.955 Y14.083
X7.94 Y14.119
X7.92 Y14.155
X7.893 Y14.193
X7.747 Y14.376
X7.685 Y14.447
X7.456 Y14.642
X7.385 Y14.7
X7.31 Y14.74
X7.237 Y14.771
X6.836 Y14.884
X6.781 Y14.898
X6.727 Y14.903
X6.691 Y14.902
X6.582 Y14.885
X6.29 Y14.837
X6.145 Y14.81
X6.072 Y14.779
X5.999 Y14.743
X5.99 Y14.738
X5.853 Y14.624
X5.562 Y14.372
X5.526 Y14.338
X5.525 Y14.31
Y14.239 Z-1.072
X5.524 Y14.172 Z-1.049
X5.523 Y14.112 Z-1.011
Y14.061 Z-0.96
X5.522 Y14.024 Z-0.9
Y14. Z-0.833
Y13.992 Z-0.762
G0 Z5.
X-0.188 Y0.067
Z-0.445
G1 Z-0.762 F1016.
X-0.182 Y0.072 Z-0.833
X-0.162 Y0.084 Z-0.9
X-0.129 Y0.104 Z-0.96
X-0.087 Y0.13 Z-1.011
X-0.036 Y0.162 Z-1.049
X0.021 Y0.198 Z-1.072
X0.081 Y0.235 Z-1.08
G3 X1.457 Y1.311 I-4.279 J6.884
G1 X1.539 Y1.398
X1.543 Y1.483
X1.52 Y1.565
X1.472 Y1.635
X1.176 Y1.944
X1.161 Y1.961
X1.14 Y1.996
X1.101 Y2.067
X0.73 Y2.795
X0.698 Y2.868
X0.676 Y2.922
X0.67 Y2.94
X0.595 Y3.377
X0.526 Y3.814
X0.516 Y3.96
X0.505 Y4.251
X0.502 Y4.397
Y22.603
X0.505 Y22.749
X0.516 Y23.04
X0.526 Y23.186
X0.595 Y23.623
X0.67 Y24.06
X0.676 Y24.078
X0.698 Y24.132
X0.73 Y24.205
X1.101 Y24.933
X1.14 Y25.004
X1.161 Y25.039
X1.176 Y25.056
X1.484 Y25.378
X1.63 Y25.523
X1.944 Y25.824
X1.961 Y25.839
X1.996 Y25.86
X2.067 Y25.899
X2.795 Y26.27
X2.868 Y26.302
X2.922 Y26.324
X2.94 Y26.33
X3.377 Y26.405
X3.814 Y26.474
X3.96 Y26.484
X4.251 Y26.495
X4.397 Y26.498
X10.077
X10.223 Y26.486
X10.303 Y26.478
X10.478 Y26.461
X10.496 Y26.456
X10.674 Y26.344
X10.688 Y26.325
X10.778 Y26.19
X10.787 Y26.171
X10.815 Y26.061
X10.818 Y26.043
X10.822 Y25.662
X10.823 Y24.788
Y1.484
X10.821 Y1.193
X10.819 Y1.076
G3 X11.454 Y1.07 I0.317 J-0.003
X11.107 Y1.389 I-0.317 J0.003
X10.826 Y1.011 I0.03 J-0.316
G1 X10.973 Y0.276
G3 X11.596 Y0.402 I0.311 J0.063
X11.273 Y0.656 I-0.311 J-0.063
X10.496 Y0.544 I0.129 J-3.643
G1 X10.478 Y0.539
X10.223 Y0.514
X10.077 Y0.502
X4.397
X4.251 Y0.505
X3.96 Y0.516
X3.814 Y0.526
X3.377 Y0.595
X2.94 Y0.67
X2.922 Y0.676
X2.868 Y0.698
X2.795 Y0.73
X2.067 Y1.101
X1.996 Y1.14
X1.961 Y1.161
X1.944 Y1.176
X1.622 Y1.484
X1.472 Y1.635
G3 X0.935 Y1.366 I-0.221 J-0.228
G1 X0.945 Y1.296 Z-1.072
X0.953 Y1.229 Z-1.049
X0.961 Y1.17 Z-1.011
X0.968 Y1.12 Z-0.96
X0.973 Y1.082 Z-0.9
X0.976 Y1.059 Z-0.833
X0.977 Y1.051 Z-0.762
G0 Z5.
X27.188 Y26.933
Z-0.445
G1 Z-0.762 F1016.
X27.182 Y26.928 Z-0.833
X27.162 Y26.916 Z-0.9
X27.129 Y26.896 Z-0.96
X27.087 Y26.87 Z-1.011
X27.036 Y26.838 Z-1.049
X26.979 Y26.802 Z-1.072
X26.919 Y26.765 Z-1.08
G3 X25.543 Y25.689 I4.279 J-6.884
G1 X25.461 Y25.602
X25.457 Y25.517
X25.48 Y25.435
X25.528 Y25.365
X25.824 Y25.056
X25.839 Y25.039
X25.86 Y25.004
X25.899 Y24.933
X26.27 Y24.205
X26.302 Y24.132
X26.324 Y24.078
X26.33 Y24.06
X26.405 Y23.623
X26.474 Y23.186
X26.484 Y23.04
X26.495 Y22.749
X26.498 Y22.603
Y4.397
X26.495 Y4.251
X26.484 Y3.96
X26.474 Y3.814
X26.405 Y3.377
X26.33 Y2.94
X26.324 Y2.922
X26.302 Y2.868
X26.27 Y2.795
X25.899 Y2.067
X25.86 Y1.996
X25.839 Y1.961
X25.824 Y1.944
X25.516 Y1.622
X25.37 Y1.477
X25.056 Y1.176
X25.039 Y1.161
X25.004 Y1.14
X24.933 Y1.101
X24.205 Y0.73
X24.132 Y0.698
X24.078 Y0.676
X24.06 Y0.67
X23.623 Y0.595
X23.186 Y0.526
X23.04 Y0.516
X22.749 Y0.505
X22.603 Y0.502
X16.923
X16.777 Y0.514
X16.697 Y0.522
X16.522 Y0.539
X16.504 Y0.544
X16.326 Y0.656
X16.312 Y0.675
X16.222 Y0.81
X16.213 Y0.829
X16.185 Y0.939
X16.182 Y0.957
X16.178 Y1.338
X16.177 Y2.212
Y25.516
X16.179 Y25.807
X16.181 Y25.924
G3 X15.546 Y25.93 I-0.317 J0.003
X15.893 Y25.611 I0.317 J-0.003
X16.174 Y25.989 I-0.03 J0.316
G1 X16.027 Y26.724
G3 X15.404 Y26.598 I-0.311 J-0.063
X15.727 Y26.344 I0.311 J0.063
X16.504 Y26.456 I-0.129 J3.643
G1 X16.522 Y26.461
X16.777 Y26.486
X16.923 Y26.498
X22.603
X22.749 Y26.495
X23.04 Y26.484
X23.186 Y26.474
X23.623 Y26.405
X24.06 Y26.33
X24.078 Y26.324
X24.132 Y26.302
X24.205 Y26.27
X24.933 Y25.899
X25.004 Y25.86
X25.039 Y25.839
X25.056 Y25.824
X25.378 Y25.516
X25.528 Y25.365
G3 X25.955 Y25.35 I0.221 J0.228
G1 X25.986 Y25.394 Z-1.075
X26.017 Y25.437 Z-1.061
X26.046 Y25.477 Z-1.038
X26.054 Y25.522 Z-1.006
X26.061 Y25.561 Z-0.966
X26.067 Y25.593 Z-0.92
X26.066 Y25.615 Z-0.87
X26.065 Y25.629 Z-0.817
Y25.634 Z-0.763
G0 Z5.
X0.589 Y0.467
Z-0.325
G1 Z-0.642 F1016.
X0.59 Y0.474 Z-0.713
X0.596 Y0.497 Z-0.78
X0.606 Y0.534 Z-0.84
X0.618 Y0.583 Z-0.891
X0.633 Y0.641 Z-0.929
X0.65 Y0.706 Z-0.952
X0.667 Y0.774 Z-0.96
G3 X0.916 Y2.503 I-7.852 J2.011
G1 Y2.663
X1.045 Y3.292
X1.118 Y3.423
X1.182 Y3.559
X1.239 Y3.698
X1.292 Y3.846
X1.346 Y4.02
X1.401 Y4.229
X1.457 Y4.485
X1.514 Y4.81
X1.572 Y5.246
X1.63 Y5.885
X1.661 Y6.527
X1.678 Y7.169
X1.687 Y7.811
X1.693 Y8.453
X1.695 Y9.095
X1.698 Y10.38
X1.699 Y15.517
Y21.297
X1.7 Y21.939
X1.73 Y22.58
X1.841 Y23.213
X2.079 Y23.809
X2.228 Y24.094
X2.4 Y24.365
X2.886 Y24.784
X3.477 Y25.037
X4.108 Y25.154
X4.747 Y25.219
X5.388 Y25.256
X6.03 Y25.276
X6.672 Y25.288
X7.314 Y25.294
X7.957 Y25.297
X8.591 Y25.199
X8.902 Y25.117
X9.223 Y25.113
X9.865
X10.022 Y25.081
X10.17 Y25.018
X10.302 Y24.926
X10.412 Y24.81
X10.497 Y24.673
X10.525 Y24.598
X10.565 Y24.443
X10.573 Y24.282
X10.549 Y24.124
X10.327 Y23.521
X10.248 Y23.394
X10.179 Y23.26
X10.118 Y23.123
X10.064 Y22.983
X10.011 Y22.825
X9.957 Y22.637
X9.901 Y22.411
X9.844 Y22.13
X9.787 Y21.765
X9.729 Y21.258
X9.682 Y20.618
X9.657 Y19.976
X9.643 Y19.334
X9.635 Y18.692
X9.631 Y18.05
X9.629 Y17.408
X9.627 Y16.123
X9.497 Y15.494
X9.437 Y15.179
X9.44 Y14.537
X9.438 Y14.135
X9.439 Y13.413
X9.522 Y12.776
X9.569 Y12.136
X9.594 Y11.494
X9.609 Y10.852
X9.617 Y10.21
X9.621 Y9.568
X9.623 Y8.925
X9.625 Y7.641
X9.626 Y5.072
Y3.306
X9.497 Y2.677
X9.437 Y2.362
X9.439 Y1.96
X9.438 Y1.559
X9.406 Y1.402
X9.343 Y1.254
X9.251 Y1.123
X9.134 Y1.012
X8.998 Y0.927
X8.848 Y0.871
X8.689 Y0.847
X8.528 Y0.855
X7.907 Y1.016
X7.778 Y1.093
X7.644 Y1.16
X7.506 Y1.219
X7.365 Y1.272
X7.202 Y1.325
X7.007 Y1.38
X6.771 Y1.435
X6.476 Y1.492
X6.089 Y1.55
X5.45 Y1.618
X4.809 Y1.66
X4.171 Y1.726
X3.549 Y1.887
X2.989 Y2.201
X2.842 Y2.266
X2.579 Y2.45
X2.374 Y2.698
X2.278 Y2.826
X2.239 Y2.896
X2.163 Y3.038
X2.116 Y3.191
X2.101 Y3.351
X2.173 Y3.989
X2.24 Y4.142
X2.311 Y4.323
X2.384 Y4.538
X2.451 Y4.761
X2.521 Y5.039
X2.589 Y5.365
X2.658 Y5.781
X2.724 Y6.324
X2.775 Y6.965
X2.806 Y7.606
X2.824 Y8.248
X2.834 Y8.89
X2.84 Y9.532
X2.844 Y10.174
X2.847 Y11.378
X2.849 Y13.947
Y21.653
X2.852 Y22.296
X2.954 Y22.93
X3.217 Y23.515
X3.326 Y23.633
X3.444 Y23.742
X3.719 Y23.907
X4.349 Y24.034
X4.99 Y24.072
X5.629 Y24.132
X7.877 Y24.146
X8.511 Y24.046
X8.991 Y23.927
X9.149 Y23.953
X9.229 Y23.956
X9.55 Y23.964
X9.63 Y23.963
X9.726 Y23.964
G3 X9.718 Y24.599 I-0.004 J0.317
X9.417 Y24.194 I0.004 J-0.317
G1 X9.562 Y23.683
X9.801 Y22.85
G3 X10.411 Y23.024 I0.305 J0.087
X10.262 Y23.214 I-0.305 J-0.087
G1 X10.179 Y23.26
X10.065 Y23.319
X9.823 Y23.5
X9.587 Y23.555
X9.323 Y23.508
X9.244 Y23.351
X9.16 Y23.165
X9.082 Y22.973
X8.999 Y22.738
X8.922 Y22.488
X8.843 Y22.188
X8.767 Y21.84
X8.692 Y21.413
X8.622 Y20.883
X8.565 Y20.243
X8.529 Y19.602
X8.508 Y18.96
X8.495 Y18.318
X8.487 Y17.676
X8.481 Y17.034
X8.473 Y16.392
X8.458 Y16.071
X8.375 Y15.761
X8.243 Y15.05
X8.314 Y14.737
X8.286 Y14.417
X8.287 Y14.256
X8.292 Y14.214
X8.302 Y14.172
X8.515 Y13.506
X8.998 Y12.
X9.294 Y11.079
G3 X9.898 Y11.273 I0.302 J0.097
X9.594 Y11.494 I-0.302 J-0.097
G1 X9.447 Y11.488
X9.331 Y11.393
X9.231 Y11.28
X9.145 Y11.158
X9.069 Y11.029
X9.002 Y10.894
X8.944 Y10.756
X8.892 Y10.615
X8.839 Y10.451
X8.785 Y10.255
X8.73 Y10.015
X8.674 Y9.714
X8.617 Y9.316
X8.559 Y8.743
X8.521 Y8.102
X8.5 Y7.46
X8.489 Y6.818
X8.483 Y6.176
X8.48 Y5.534
X8.477 Y4.249
X8.474 Y3.607
X8.467 Y3.286
X8.295 Y2.667
X8.286 Y2.346
X8.288 Y1.865
X8.286 Y1.784
X8.276 Y1.705
X8.267 Y1.61
G3 X8.899 Y1.55 I0.316 J-0.03
X8.498 Y1.886 I-0.316 J0.03
G1 X8.04 Y1.758
X7.234 Y1.534
G3 X7.404 Y0.922 I0.085 J-0.306
X7.598 Y1.076 I-0.085 J0.306
G1 X7.644 Y1.16
X7.701 Y1.275
X7.879 Y1.52
X7.932 Y1.757
X7.881 Y2.021
X7.721 Y2.099
X7.532 Y2.183
X7.332 Y2.261
X7.097 Y2.342
X6.814 Y2.427
X6.51 Y2.504
X6.041 Y2.602
X5.408 Y2.707
X4.776 Y2.825
X4.456 Y2.852
X4.142 Y2.918
X3.838 Y3.021
X3.57 Y3.198
X3.427 Y3.271
X3.302 Y3.372
X3.2 Y3.496
X3.125 Y3.638
X3.08 Y3.792
X3.067 Y3.952
X3.087 Y4.111
X3.291 Y4.72
X3.367 Y4.895
X3.439 Y5.082
X3.512 Y5.296
X3.59 Y5.562
X3.66 Y5.846
X3.734 Y6.213
X3.805 Y6.653
X3.875 Y7.255
X3.923 Y7.895
X3.953 Y8.537
X3.971 Y9.179
X3.982 Y9.821
X3.989 Y10.463
X4.006 Y11.105
X3.984 Y11.747
X4.001 Y12.067
X3.998 Y12.388
X4. Y13.111
X3.999 Y13.753
X4.001 Y14.395
X3.998 Y15.037
X3.999 Y17.606
X4. Y22.101
X4.033 Y22.421
X4.067 Y22.578
X4.128 Y22.726
X4.197 Y22.871
X4.294 Y22.999
X4.414 Y23.105
X4.554 Y23.185
X4.707 Y23.234
X5.345 Y23.306
X5.575 Y23.252
X5.86 Y23.198
X6.495 Y23.103
X6.884 Y22.971
X7.524 Y23.024
X7.684 Y23.007
X7.843 Y22.985
X8.161 Y22.937
X8.318 Y22.905
X8.465 Y22.842
X8.531 Y22.796
X8.592 Y22.743
X8.648 Y22.685
X8.697 Y22.622
X8.739 Y22.554
X8.775 Y22.482
X8.82 Y22.398
G3 X9.379 Y22.697 I0.28 J0.15
X8.784 Y22.58 I-0.28 J-0.15
G1 X8.44 Y19.205
X8.059 Y15.461
G3 X8.69 Y15.397 I0.316 J-0.032
X8.467 Y15.733 I-0.316 J0.032
G1 X8.375 Y15.761
X8.298 Y15.781
X7.976 Y15.852
X7.785 Y15.886
X7.603 Y15.911
X7.389 Y15.931
X7.171 Y15.942
X7.01 Y15.943
X6.85 Y15.937
X6.21 Y15.994
X5.907 Y16.101
X5.521 Y16.061
X5.256 Y15.913
X5.192 Y15.864
X4.686 Y15.469
X4.249 Y14.998
X4.214 Y14.926
G3 X4.652 Y14.516 I0.29 J-0.129
G1 X4.715 Y14.549 Z-0.952
X4.774 Y14.581 Z-0.929
X4.827 Y14.609 Z-0.891
X4.872 Y14.632 Z-0.84
X4.905 Y14.65 Z-0.78
X4.926 Y14.661 Z-0.713
X4.933 Y14.665 Z-0.642
G0 Z5.
X9.3 Y10.396
Z-0.325
G1 Z-0.642 F1016.
X9.302 Y10.404 Z-0.713
X9.307 Y10.427 Z-0.78
X9.315 Y10.464 Z-0.84
X9.325 Y10.513 Z-0.891
X9.338 Y10.572 Z-0.929
X9.352 Y10.638 Z-0.952
X9.366 Y10.707 Z-0.96
G3 X9.447 Y11.488 I-3.565 J0.762
G1 X9.442 Y11.614
X9.405 Y11.803
X9.28 Y11.987
X9.074 Y12.117
X8.81 Y12.158
X8.511 Y12.081
X8.203 Y11.841
X8.069 Y11.513
X7.951 Y11.186
X7.844 Y10.846
X7.748 Y10.487
X7.652 Y10.062
X7.566 Y9.582
X7.488 Y9.017
X7.427 Y8.378
X7.388 Y7.737
X7.364 Y7.095
X7.348 Y6.453
X7.339 Y5.811
X7.334 Y5.169
X7.319 Y4.527
X7.338 Y3.885
X7.321 Y3.564
X7.309 Y3.485
X7.278 Y3.327
X7.239 Y3.171
X7.199 Y3.016
X7.128 Y2.872
X7.03 Y2.745
X6.969 Y2.693
X6.903 Y2.647
X6.833 Y2.608
X6.759 Y2.576
X6.683 Y2.552
X6.604 Y2.536
X6.524 Y2.527
X6.43 Y2.514
G3 X6.517 Y1.885 I0.044 J-0.315
X6.634 Y2.474 I-0.044 J0.315
G1 X5.136 Y3.354
X3.118 Y4.539
G3 X2.797 Y3.991 I-0.161 J-0.274
X2.972 Y3.948 I0.161 J0.274
G1 X3.067 Y3.952
X3.227 Y3.965
X3.757 Y3.901
X3.851 Y4.017
X3.942 Y4.142
X4.029 Y4.273
X4.122 Y4.425
X4.209 Y4.582
X4.303 Y4.77
X4.39 Y4.965
X4.437 Y5.083
X4.528 Y5.323
X4.616 Y5.592
X4.707 Y5.913
X4.791 Y6.267
X4.874 Y6.697
X4.955 Y7.235
X5.024 Y7.874
X5.069 Y8.514
X5.098 Y9.156
X5.119 Y9.798
X5.158 Y10.438
X5.126 Y11.08
X5.132 Y11.16
X5.162 Y11.801
X5.147 Y12.122
X5.148 Y12.283
G3 X4.576 Y12.462 I-0.317 J-0.01
G1 X4.533 Y12.406 Z-0.952
X4.493 Y12.352 Z-0.929
X4.458 Y12.303 Z-0.891
X4.428 Y12.263 Z-0.84
X4.405 Y12.232 Z-0.78
X4.391 Y12.214 Z-0.713
X4.386 Y12.207 Z-0.642
G0 Z5.
X2.033 Y4.432
Z-0.325
G1 Z-0.642 F1016.
X2.04 Y4.429 Z-0.713
X2.062 Y4.421 Z-0.78
X2.097 Y4.407 Z-0.84
X2.144 Y4.389 Z-0.891
X2.2 Y4.367 Z-0.929
X2.263 Y4.342 Z-0.952
X2.329 Y4.317 Z-0.96
G3 X3.087 Y4.111 I1.326 J3.396
G1 X3.884 Y4.014
X4.492 Y3.81
X4.606 Y3.907
X5.067 Y4.354
X5.337 Y4.502
X5.593 Y4.829
X5.754 Y5.451
X5.955 Y6.06
X5.986 Y6.702
X6.151 Y7.206
X6.121 Y7.525
X6.178 Y7.841
X6.254 Y9.123
X6.261 Y9.766
X6.319 Y10.405
X6.306 Y10.565
X6.279 Y11.046
X6.286 Y11.206
X6.326 Y11.362
X6.395 Y11.507
X6.493 Y11.634
X6.614 Y11.74
X6.754 Y11.819
X6.906 Y11.868
X7.066 Y11.885
X7.226 Y11.87
X7.379 Y11.823
X7.52 Y11.747
X7.643 Y11.643
X7.742 Y11.517
X7.814 Y11.373
X7.855 Y11.218
X7.865 Y11.058
X7.842 Y10.899
X7.787 Y10.748
X7.704 Y10.611
X7.594 Y10.494
X7.463 Y10.401
X6.875 Y10.143
X6.631 Y9.985
X6.431 Y9.684
X6.316 Y9.053
X6.308 Y8.41
X6.201 Y7.777
X6.245 Y7.459
X6.178 Y6.821
X6.242 Y6.182
X6.133 Y5.549
X6.177 Y5.394
X6.227 Y4.754
X6.135 Y4.235
X6.172 Y4.079
X6.18 Y3.919
X6.178 Y3.838
X6.172 Y3.758
X6.152 Y3.599
X6.117 Y3.442
X6.051 Y3.296
X5.956 Y3.166
X5.838 Y3.057
X5.7 Y2.975
X5.549 Y2.922
X5.39 Y2.9
X5.23 Y2.911
X5.075 Y2.954
X4.932 Y3.028
X4.807 Y3.128
X4.756 Y3.19
X4.711 Y3.257
X4.673 Y3.327
X4.643 Y3.402
X4.62 Y3.479
G3 X4.449 Y3.668 I-0.301 J-0.101
G2 X4.265 Y3.918 I0.131 J0.289
G1 X4.24 Y4.115
X2.827 Y15.446
G2 X3.221 Y15.792 I0.315 J0.039
G3 X3.999 Y15.68 I0.909 J3.531
G1 X4.334 Y15.679
X4.571 Y15.676
X4.814 Y15.778
X5.023 Y15.994
X5.162 Y16.368
X5.13 Y17.009
X5.139 Y17.651
X5.144 Y18.294
X5.147 Y18.936
X5.149 Y20.22
X5.151 Y21.505
X5.15 Y21.826
X5.152 Y21.986
X5.164 Y22.146
X5.208 Y22.301
X5.282 Y22.443
X5.383 Y22.568
X5.507 Y22.67
X5.649 Y22.744
X5.803 Y22.789
X5.963 Y22.802
X6.123 Y22.782
X6.275 Y22.73
X6.413 Y22.649
X6.891 Y22.22
X7.097 Y22.009
X7.527 Y21.832
X7.607 Y21.834
X7.767 Y21.825
X7.926 Y21.805
X8.078 Y21.753
X8.216 Y21.671
X8.335 Y21.563
X8.43 Y21.434
X8.497 Y21.288
X8.533 Y21.131
X8.537 Y20.971
X8.508 Y20.813
X8.449 Y20.664
X8.012 Y20.003
X7.939 Y19.872
X7.874 Y19.736
X7.816 Y19.598
X7.762 Y19.448
X7.705 Y19.273
X7.648 Y19.062
X7.589 Y18.805
X7.472 Y18.174
X7.354 Y17.875
X7.312 Y17.234
X7.318 Y17.154
X7.321 Y17.074
X7.325 Y16.914
Y16.753
X7.293 Y16.596
X7.23 Y16.448
X7.138 Y16.316
X7.022 Y16.206
X6.886 Y16.121
X6.736 Y16.065
X6.577 Y16.04
X6.416 Y16.048
X6.261 Y16.088
X6.117 Y16.159
X5.99 Y16.257
X5.885 Y16.378
X5.807 Y16.518
X5.758 Y16.672
X5.742 Y16.831
X5.758 Y16.991
X5.806 Y17.144
X6.116 Y17.706
X6.152 Y17.778
X6.299 Y18.135
X6.288 Y18.777
X6.31 Y19.419
X6.281 Y20.061
X6.323 Y20.701
X6.292 Y21.021
X6.296 Y21.181
X6.302 Y21.503
X6.301 Y21.743
X6.303 Y21.824
G3 X5.733 Y22.011 I-0.317 J-0.005
G1 X5.69 Y21.955 Z-0.952
X5.649 Y21.901 Z-0.929
X5.613 Y21.853 Z-0.891
X5.582 Y21.813 Z-0.84
X5.559 Y21.783 Z-0.78
X5.545 Y21.765 Z-0.713
X5.54 Y21.758 Z-0.642
G0 Z5.
X4.046 Y4.856
Z-0.325
G1 Z-0.642 F1016.
X4.05 Y4.849 Z-0.713
X4.06 Y4.827 Z-0.78
X4.077 Y4.794 Z-0.84
X4.099 Y4.748 Z-0.891
X4.125 Y4.694 Z-0.929
X4.155 Y4.634 Z-0.952
X4.186 Y4.571 Z-0.96
G3 X4.606 Y3.907 I3.272 J1.607
G1 X4.695 Y3.804
X4.854 Y3.535
X5.056 Y3.389
X5.356 Y3.322
X5.435 Y3.338
X5.513 Y3.357
X5.544 Y3.374
X5.566 Y3.401
X5.577 Y3.434
X5.652 Y4.109
X6.351 Y10.381
X6.389 Y10.726
X6.386 Y10.762
X6.369 Y10.794
X6.34 Y10.816
X6.305 Y10.826
X6.269 Y10.821
X6.238 Y10.802
X6.217 Y10.773
X6.209 Y10.737
X6.215 Y10.702
X6.235 Y10.672
X6.266 Y10.652
X6.301 Y10.645
X6.462 Y10.655
X6.812 Y10.605
X6.967 Y10.647
X7.04 Y10.68
G3 X6.964 Y11.275 I-0.141 J0.284
G1 X6.895 Y11.29 Z-0.952
X6.829 Y11.304 Z-0.929
X6.77 Y11.316 Z-0.891
X6.721 Y11.327 Z-0.84
X6.684 Y11.334 Z-0.78
X6.661 Y11.339 Z-0.713
X6.653 Y11.341 Z-0.642
G0 Z5.
X8.007 Y22.629
Z-0.325
G1 Z-0.642 F1016.
X8. Y22.625 Z-0.713
X7.98 Y22.613 Z-0.78
X7.947 Y22.595 Z-0.84
X7.904 Y22.57 Z-0.891
X7.851 Y22.54 Z-0.929
X7.793 Y22.506 Z-0.952
X7.732 Y22.471 Z-0.96
G3 X7.097 Y22.009 I1.815 J-3.162
G1 X7.03 Y21.944
X6.852 Y21.807
X6.74 Y21.605
X6.714 Y21.351
X6.8 Y21.084
X7.004 Y20.85
X7.338 Y20.691
X7.498 Y20.686
X7.578 Y20.678
X7.673 Y20.673
G3 X7.709 Y21.307 I0.018 J0.317
X7.383 Y20.912 I-0.018 J-0.317
G1 X7.486 Y20.504
X7.68 Y19.736
G3 X8.296 Y19.892 I0.308 J0.078
X8.172 Y20.073 I-0.308 J-0.078
G1 X8.095 Y20.128
X7.902 Y20.255
X7.726 Y20.406
X7.493 Y20.478
X7.223 Y20.449
X6.953 Y20.295
X6.697 Y19.956
X6.547 Y19.331
X6.366 Y18.715
X6.351 Y17.993
X6.209 Y17.366
X6.169 Y17.048
Y16.968
G3 X6.742 Y16.791 I0.317 J0.011
G1 X6.784 Y16.848 Z-0.952
X6.824 Y16.902 Z-0.929
X6.859 Y16.95 Z-0.891
X6.889 Y16.991 Z-0.84
X6.911 Y17.021 Z-0.78
X6.925 Y17.04 Z-0.713
X6.93 Y17.047 Z-0.642
G0 Z5.
X26.599 Y0.589
Z-0.325
G1 Z-0.642 F1016.
X26.592 Y0.59 Z-0.713
X26.569 Y0.596 Z-0.78
X26.532 Y0.606 Z-0.84
X26.483 Y0.618 Z-0.891
X26.425 Y0.633 Z-0.929
X26.36 Y0.65 Z-0.952
X26.292 Y0.667 Z-0.96
G3 X24.563 Y0.916 I-2.011 J-7.852
G1 X24.403
X23.774 Y1.045
X23.643 Y1.118
X23.507 Y1.182
X23.368 Y1.239
X23.22 Y1.292
X23.046 Y1.346
X22.837 Y1.401
X22.581 Y1.457
X22.256 Y1.514
X21.82 Y1.572
X21.18 Y1.63
X20.539 Y1.661
X19.897 Y1.678
X19.254 Y1.687
X18.933 Y1.69
X18.325 Y1.896
X17.683 Y1.873
X17.603 Y1.877
X17.282 Y1.888
X17.122 Y1.887
X16.964 Y1.919
X16.816 Y1.981
X16.684 Y2.072
X16.628 Y2.13
X16.579 Y2.193
X16.536 Y2.261
X16.5 Y2.332
X16.471 Y2.407
X16.451 Y2.485
X16.425 Y2.643
X16.432 Y2.804
X16.471 Y2.96
X16.749 Y3.538
X16.819 Y3.671
X16.88 Y3.808
X16.934 Y3.948
X16.987 Y4.106
X17.041 Y4.292
X17.097 Y4.517
X17.153 Y4.796
X17.211 Y5.156
X17.269 Y5.656
X17.317 Y6.297
X17.343 Y6.938
X17.357 Y7.58
X17.364 Y8.223
X17.369 Y8.865
X17.371 Y9.507
X17.373 Y10.872
X17.503 Y11.501
X17.563 Y11.816
X17.56 Y12.458
X17.562 Y12.859
X17.561 Y13.582
X17.478 Y14.219
X17.431 Y14.859
X17.406 Y15.501
X17.391 Y16.143
X17.383 Y16.785
X17.379 Y17.427
X17.377 Y18.069
X17.375 Y19.354
X17.374 Y23.688
X17.503 Y24.318
X17.563 Y24.633
X17.561 Y25.034
X17.562 Y25.436
X17.594 Y25.593
X17.657 Y25.74
X17.749 Y25.872
X17.866 Y25.983
X18.002 Y26.068
X18.152 Y26.123
X18.311 Y26.148
X18.471 Y26.14
X19.093 Y25.979
X19.223 Y25.903
X19.357 Y25.836
X19.495 Y25.777
X19.636 Y25.725
X19.801 Y25.672
X19.998 Y25.617
X20.237 Y25.561
X20.537 Y25.504
X20.931 Y25.447
X21.57 Y25.38
X22.211 Y25.339
X22.849 Y25.272
X23.47 Y25.108
X24.038 Y24.809
X24.18 Y24.732
X24.426 Y24.526
X24.641 Y24.288
X24.822 Y24.023
X25.089 Y23.439
X25.183 Y22.804
X25.236 Y22.164
X25.265 Y21.522
X25.281 Y20.88
X25.29 Y20.238
X25.295 Y19.596
X25.298 Y18.954
X25.3 Y17.669
X25.301 Y13.816
Y5.468
X25.296 Y4.826
X25.25 Y4.185
X25.101 Y3.56
X24.82 Y2.983
X24.744 Y2.842
X24.538 Y2.595
X24.305 Y2.374
X24.176 Y2.279
X24.035 Y2.201
X23.882 Y2.153
X23.723 Y2.136
X23.084 Y2.2
X22.917 Y2.269
X22.717 Y2.342
X22.488 Y2.415
X22.238 Y2.484
X21.924 Y2.556
X21.562 Y2.623
X21.084 Y2.691
X20.445 Y2.755
X19.805 Y2.812
X19.165 Y2.862
X18.532 Y2.972
X18.068 Y3.073
X17.91 Y3.042
X17.83 Y3.036
X17.509 Y3.027
X17.429 Y3.03
X17.349 Y3.037
X17.254 Y3.043
G3 X17.218 Y2.409 I-0.018 J-0.317
X17.543 Y2.809 I0.018 J0.317
G1 X17.416 Y3.274
X17.199 Y4.078
G3 X16.586 Y3.912 I-0.306 J-0.083
X16.736 Y3.718 I0.306 J0.083
G1 X16.819 Y3.671
X16.932 Y3.612
X17.174 Y3.431
X17.41 Y3.375
X17.673 Y3.422
X17.753 Y3.578
X17.837 Y3.764
X17.914 Y3.955
X17.998 Y4.189
X18.075 Y4.437
X18.154 Y4.736
X18.23 Y5.082
X18.305 Y5.506
X18.375 Y6.03
X18.434 Y6.669
X18.47 Y7.31
X18.492 Y7.952
X18.505 Y8.594
X18.513 Y9.236
X18.517 Y9.878
X18.53 Y10.521
X18.522 Y10.842
X18.608 Y11.151
X18.757 Y11.939
X18.686 Y12.252
X18.714 Y12.572
X18.713 Y12.732
X18.708 Y12.775
X18.698 Y12.817
X18.485 Y13.483
X18.002 Y14.991
X17.706 Y15.915
G3 X17.101 Y15.722 I-0.302 J-0.097
X17.406 Y15.501 I0.302 J0.097
G1 X17.553 Y15.507
X17.669 Y15.602
X17.769 Y15.714
X17.855 Y15.837
X17.931 Y15.966
X17.998 Y16.101
X18.056 Y16.239
X18.108 Y16.379
X18.161 Y16.544
X18.215 Y16.74
X18.27 Y16.98
X18.326 Y17.281
X18.383 Y17.679
X18.441 Y18.252
X18.479 Y18.893
X18.5 Y19.535
X18.511 Y20.177
X18.517 Y20.819
X18.52 Y21.461
X18.523 Y22.746
X18.526 Y23.388
X18.533 Y23.709
X18.705 Y24.328
X18.714 Y24.649
X18.712 Y25.13
X18.714 Y25.21
X18.724 Y25.29
X18.733 Y25.385
G3 X18.101 Y25.445 I-0.316 J0.03
X18.503 Y25.109 I0.316 J-0.03
G1 X18.961 Y25.238
X19.767 Y25.463
G3 X19.596 Y26.075 I-0.086 J0.306
X19.402 Y25.92 I0.086 J-0.306
G1 X19.357 Y25.836
X19.3 Y25.721
X19.123 Y25.475
X19.071 Y25.237
X19.123 Y24.974
X19.284 Y24.895
X19.474 Y24.812
X19.676 Y24.733
X19.912 Y24.653
X20.198 Y24.568
X20.506 Y24.491
X20.989 Y24.391
X21.623 Y24.288
X22.254 Y24.17
X22.574 Y24.146
X22.887 Y24.074
X23.192 Y23.973
X23.467 Y23.807
X23.597 Y23.712
X23.708 Y23.597
X23.894 Y23.335
X24.006 Y23.034
X24.055 Y22.394
X24.126 Y21.756
X24.137 Y20.471
X24.144 Y19.829
X24.146 Y19.187
X24.15 Y18.545
X24.151 Y13.728
Y5.38
X24.144 Y4.738
X24.081 Y4.099
X23.806 Y3.518
X23.701 Y3.397
X23.586 Y3.285
X23.451 Y3.198
X23.301 Y3.14
X23.143 Y3.114
X22.983 Y3.12
X22.359 Y3.272
X22.21 Y3.34
X22.034 Y3.412
X21.821 Y3.489
X21.57 Y3.568
X21.249 Y3.654
X20.622 Y3.794
X20.217 Y3.957
X19.575 Y3.941
X19.262 Y4.015
X18.867 Y4.081
X18.709 Y4.113
X18.561 Y4.175
X18.495 Y4.221
X18.434 Y4.273
X18.378 Y4.33
X18.329 Y4.394
X18.286 Y4.461
X18.25 Y4.533
X18.221 Y4.608
X18.202 Y4.639
X18.174 Y4.662
X18.14 Y4.675
X18.099 Y4.676
X18.06 Y4.664
X18.027 Y4.64
X18.003 Y4.606
X17.993 Y4.566
X17.995 Y4.525
X18.011 Y4.487
X18.039 Y4.457
X18.075 Y4.437
X18.465 Y4.316
X18.707 Y4.286
X18.967 Y4.363
X19.05 Y4.57
X19.128 Y4.79
X19.209 Y5.05
X19.29 Y5.36
X19.367 Y5.713
X19.444 Y6.151
X19.519 Y6.721
X19.577 Y7.361
X19.613 Y8.002
X19.637 Y8.644
X19.652 Y9.286
X19.683 Y9.927
X19.659 Y10.569
X19.69 Y10.726
X19.707 Y10.805
X19.773 Y11.119
X19.803 Y11.277
X19.863 Y11.425
X19.952 Y11.559
X20.066 Y11.672
X20.201 Y11.76
X20.35 Y11.818
X20.983 Y11.928
X21.132 Y11.908
X21.282 Y11.91
X21.923 Y11.883
X22.08 Y11.847
X22.354 Y11.854
X22.639 Y11.985
X22.898 Y12.273
X22.923 Y12.349
X22.947 Y12.426
X23.126 Y13.043
X23.195 Y13.681
X22.983 Y14.288
X22.785 Y14.534
X22.588 Y14.758
X22.461 Y14.891
X22.344 Y15.003
X22.232 Y15.103
X22.115 Y15.198
X21.994 Y15.286
X21.868 Y15.367
X21.739 Y15.443
X21.602 Y15.514
X21.466 Y15.578
X21.327 Y15.636
X21.186 Y15.685
X21.041 Y15.726
X20.884 Y15.758
X20.287 Y15.994
X20.028 Y16.141
X19.641 Y16.182
X19.334 Y16.087
X19.207 Y16.034
X18.737 Y15.814
X18.311 Y15.333
X17.948 Y15.007
X17.68 Y14.423
X17.658 Y14.264
X17.642 Y14.185
X17.643 Y14.15
X17.658 Y14.118
X17.683 Y14.094
X17.716 Y14.081
X17.751 Y14.082
X17.783 Y14.096
X17.808 Y14.122
X17.821 Y14.155
X17.909 Y14.649
X18.165 Y16.075
X18.231 Y16.447
X18.23 Y16.484
X18.215 Y16.517
X18.187 Y16.542
X18.152 Y16.553
X18.116 Y16.55
X18.083 Y16.532
X18.061 Y16.503
X18.052 Y16.467
X18.058 Y16.431
X18.077 Y16.4
X18.108 Y16.379
X18.233 Y16.334
X18.502 Y16.179
X18.746 Y16.152
X19.007 Y16.232
X19.246 Y16.436
X19.346 Y16.883
X19.433 Y17.366
X19.512 Y17.948
X19.573 Y18.587
X19.611 Y19.228
X19.636 Y19.87
X19.651 Y20.512
X19.661 Y21.154
X19.666 Y21.796
X19.681 Y22.438
X19.662 Y23.08
X19.678 Y23.401
X19.687 Y23.481
X19.743 Y23.797
X19.789 Y23.95
X19.866 Y24.091
X19.969 Y24.214
X20.095 Y24.314
X20.239 Y24.386
X20.394 Y24.428
X20.554 Y24.437
X20.713 Y24.415
X20.864 Y24.36
X21.001 Y24.277
X21.446 Y23.863
X21.559 Y23.765
X22.072 Y23.379
X22.267 Y23.128
X22.548 Y22.973
X22.698 Y22.916
X22.835 Y22.833
X22.953 Y22.724
X23.046 Y22.593
X23.111 Y22.447
X23.146 Y22.29
X23.154 Y21.648
X23.1 Y21.195
X23.052 Y20.555
X23.027 Y19.913
X23.014 Y19.271
X23.008 Y18.629
X23.004 Y17.987
X22.993 Y17.345
X23.01 Y16.703
X22.987 Y16.061
X22.991 Y15.981
X23.014 Y15.339
X22.998 Y15.018
X23. Y14.697
X23.008 Y14.663
X23.316 Y13.979
X23.608 Y13.33
X23.901 Y12.682
X24.065 Y12.317
X24.085 Y12.288
X24.115 Y12.269
X24.149 Y12.263
X24.183 Y12.27
X24.212 Y12.29
X24.231 Y12.319
X24.238 Y12.353
X24.232 Y12.387
X24.213 Y12.416
X24.185 Y12.436
X24.151 Y12.444
X24.006
X23.681 Y12.504
X23.435 Y12.448
X23.208 Y12.281
X23.036 Y11.986
X22.959 Y11.348
X23.085 Y10.718
X23.047 Y10.077
X23.026 Y9.436
X23.014 Y8.793
X23.008 Y8.151
X23.005 Y7.509
X23.002 Y6.225
X22.999 Y5.583
X23.001 Y4.94
X22.978 Y4.62
X22.961 Y4.461
X22.912 Y4.307
X22.834 Y4.167
X22.729 Y4.046
X22.602 Y3.948
X22.457 Y3.878
X22.302 Y3.838
X22.142 Y3.83
X21.983 Y3.855
X21.833 Y3.911
X21.56 Y4.082
X21.107 Y4.536
X20.951 Y4.808
X20.656 Y5.029
X20.539 Y5.057
X20.403 Y5.079
X20.084 Y5.108
X19.923 Y5.102
X19.896 Y5.1
X19.862 Y5.091
X19.833 Y5.068
X19.816 Y5.037
X19.812 Y5.001
X19.823 Y4.967
X19.846 Y4.939
X19.877 Y4.923
X19.913 Y4.92
X19.947 Y4.931
X19.974 Y4.955
X19.99 Y4.987
X19.992 Y5.023
X19.98 Y5.057
X19.955 Y5.083
X19.751 Y5.231
X19.727 Y5.249
X19.702 Y5.267
X19.343 Y5.527
X19.312 Y5.542
X19.277 Y5.544
X19.244 Y5.532
X19.218 Y5.509
X19.203 Y5.478
X19.2 Y5.443
X19.211 Y5.41
X19.233 Y5.384
X19.264 Y5.367
X19.29 Y5.36
X19.596 Y5.279
X19.822 Y5.221
X20.077 Y5.261
X20.325 Y5.418
X20.412 Y5.752
X20.498 Y6.147
X20.582 Y6.633
X20.663 Y7.246
X20.719 Y7.885
X20.758 Y8.526
X20.792 Y9.168
X20.838 Y9.808
X20.816 Y10.45
X20.845 Y10.608
X20.891 Y10.844
X20.953 Y10.992
X21.044 Y11.125
X21.16 Y11.236
X21.295 Y11.322
X21.445 Y11.379
X21.604 Y11.405
X21.764 Y11.398
X21.92 Y11.359
X22.065 Y11.29
X22.192 Y11.192
X22.298 Y11.072
X22.377 Y10.932
X22.427 Y10.779
X22.444 Y10.62
X22.429 Y10.46
X22.383 Y10.306
X22.076 Y9.742
X22.036 Y9.672
X21.877 Y9.336
X21.856 Y8.695
X21.866 Y8.053
X21.841 Y7.411
X21.872 Y6.769
X21.826 Y6.129
X21.858 Y5.809
X21.853 Y5.649
X21.846 Y4.927
X21.84 Y4.847
G3 X22.398 Y4.626 I0.317 J-0.014
G1 X22.444 Y4.679 Z-0.952
X22.488 Y4.73 Z-0.929
X22.527 Y4.776 Z-0.891
X22.56 Y4.814 Z-0.84
X22.585 Y4.842 Z-0.78
X22.6 Y4.86 Z-0.713
X22.605 Y4.866 Z-0.642
G0 Z5.
X21.283 Y14.476
Z-0.325
G1 Z-0.642 F1016.
X21.29 Y14.481 Z-0.713
X21.308 Y14.495 Z-0.78
X21.339 Y14.517 Z-0.84
X21.379 Y14.547 Z-0.891
X21.428 Y14.583 Z-0.929
X21.482 Y14.623 Z-0.952
X21.538 Y14.665 Z-0.96
G3 X22.115 Y15.198 I-2.17 J2.93
G1 X22.196 Y15.297
X22.423 Y15.498
X22.525 Y15.717
X22.532 Y15.985
X22.418 Y16.27
X21.841 Y16.552
X21.54 Y16.784
X20.918 Y16.943
X20.685 Y17.091
X20.588 Y17.139
X20.292 Y17.262
X20.133 Y17.284
X19.981 Y17.337
X19.844 Y17.419
X19.725 Y17.528
X19.678 Y17.593
X19.638 Y17.663
X19.605 Y17.736
X19.58 Y17.812
X19.545 Y17.969
X19.542 Y18.129
X19.571 Y18.287
X19.632 Y18.436
X19.989 Y18.969
X20.08 Y19.089
X20.16 Y19.216
X20.231 Y19.348
X20.294 Y19.484
X20.35 Y19.623
X20.405 Y19.78
X20.462 Y19.964
X20.519 Y20.183
X20.578 Y20.456
X20.688 Y21.089
X20.8 Y21.39
X20.836 Y22.031
X20.815 Y22.673
Y22.833
X20.814 Y23.154
X20.831 Y23.314
X20.844 Y23.393
X20.855 Y23.488
G3 X20.225 Y23.564 I-0.315 J0.038
X20.563 Y23.209 I0.315 J-0.038
G1 X21.062 Y23.245
X21.881 Y23.304
G3 X21.835 Y23.937 I-0.023 J0.317
X21.624 Y23.836 I0.023 J-0.317
G1 X21.559 Y23.765
X21.471 Y23.662
X21.23 Y23.463
X21.117 Y23.241
X21.098 Y22.935
X21.239 Y22.542
X21.603 Y22.154
X21.898 Y22.027
X22.041 Y21.952
X22.165 Y21.851
X22.266 Y21.727
X22.341 Y21.584
X22.385 Y21.43
X22.397 Y21.27
X22.377 Y21.111
X22.325 Y20.959
X22. Y20.405
X21.945 Y20.254
X21.916 Y20.123
X21.89 Y19.481
X21.83 Y18.842
X21.907 Y18.205
X21.878 Y18.047
X21.87 Y17.967
X21.864 Y17.887
X21.825 Y17.246
X21.834 Y17.166
G3 X22.423 Y17.053 I0.314 J0.046
G1 X22.458 Y17.114 Z-0.952
X22.492 Y17.172 Z-0.929
X22.522 Y17.224 Z-0.891
X22.547 Y17.268 Z-0.84
X22.566 Y17.3 Z-0.78
X22.578 Y17.321 Z-0.713
X22.582 Y17.328 Z-0.642
G0 Z5.
X19.915 Y4.435
Z-0.325
G1 Z-0.642 F1016.
X19.923 Y4.437 Z-0.713
X19.945 Y4.443 Z-0.78
X19.982 Y4.453 Z-0.84
X20.03 Y4.466 Z-0.891
X20.088 Y4.482 Z-0.929
X20.153 Y4.5 Z-0.952
X20.221 Y4.519 Z-0.96
G3 X20.951 Y4.808 I-0.968 J3.515
G1 X21.032 Y4.854
X21.239 Y4.942
X21.407 Y5.119
X21.628 Y5.722
X21.627 Y6.043
X21.782 Y6.666
X21.78 Y6.747
X21.783 Y6.827
G3 X21.681 Y7.06 I-0.317 J0.001
G1 X21.65 Y7.094
X21.624 Y7.132
X21.405 Y7.504
X19.694 Y10.405
G2 X20.099 Y10.855 I0.273 J0.161
G3 X20.845 Y10.608 I1.513 J3.317
G1 X21.003 Y10.58
X21.152 Y10.52
X21.286 Y10.432
X21.343 Y10.375
X21.374 Y10.356
X21.41 Y10.351
X21.445 Y10.361
X21.474 Y10.383
X21.491 Y10.416
X21.494 Y10.452
X21.428 Y11.013
X20.734 Y16.873
X20.701 Y17.152
X20.69 Y17.186
X20.666 Y17.213
X20.634 Y17.229
X20.598 Y17.231
X20.565 Y17.22
X20.538 Y17.196
X20.523 Y17.163
X20.521 Y17.128
X20.534 Y17.094
X20.558 Y17.068
X20.591 Y17.053
X20.627
X20.66 Y17.066
X20.685 Y17.091
X20.751 Y17.193
X20.942 Y17.412
X21.015 Y17.638
X20.989 Y17.894
X20.852 Y18.142
X20.725 Y18.24
X20.585 Y18.319
X20.464 Y18.425
X20.367 Y18.553
X20.298 Y18.697
X20.259 Y18.853
X20.253 Y19.014
X20.278 Y19.172
X20.336 Y19.322
X20.422 Y19.458
X20.533 Y19.573
X20.666 Y19.663
X20.814 Y19.725
X21.277 Y19.816
X21.521 Y19.984
X21.726 Y20.31
X21.823 Y20.945
X21.936 Y21.246
X21.943 Y21.326
G3 X21.364 Y21.521 I-0.317 J0.016
G1 X20.079 Y19.649
X19.913 Y19.407
G3 X19.989 Y18.969 I0.262 J-0.18
G1 X20.328 Y18.742
X20.509 Y18.606
X20.779 Y18.54
X21.095 Y18.594
X21.173 Y18.614
G3 X21.396 Y18.977 I-0.089 J0.305
G1 X21.373 Y19.027 Z-0.955
X21.351 Y19.075 Z-0.941
X21.33 Y19.119 Z-0.918
X21.291 Y19.149 Z-0.882
X21.257 Y19.174 Z-0.838
X21.231 Y19.193 Z-0.787
X21.214 Y19.206 Z-0.731
X21.205 Y19.213 Z-0.671
X21.203 Z-0.643
G0 Z5.
X-0.959 Y-0.565
Z-1.765
G1 Z-2.082 F1016.
X-0.953 Y-0.561 Z-2.153
X-0.932 Y-0.549 Z-2.22
X-0.9 Y-0.53 Z-2.28
X-0.857 Y-0.504 Z-2.331
X-0.805 Y-0.474 Z-2.369
X-0.747 Y-0.44 Z-2.392
X-0.686 Y-0.404 Z-2.4
G3 X0.712 Y0.643 I-4.13 J6.975
G1 X0.768 Y0.699
X0.777 Y0.75
X0.767 Y0.8
X0.738 Y0.842
X0.464 Y1.116
X0.397 Y1.193
X0.319 Y1.283
X0.281 Y1.338
X0.189 Y1.484
X0.173 Y1.514
X0.039 Y1.775
X-0.258 Y2.358
X-0.321 Y2.503
X-0.369 Y2.649
X-0.402 Y2.795
X-0.428 Y2.94
X-0.497 Y3.377
X-0.564 Y3.814
X-0.57 Y3.96
X-0.575 Y4.251
X-0.576 Y4.543
Y22.603
X-0.575 Y22.749
X-0.57 Y23.04
X-0.564 Y23.186
X-0.497 Y23.623
X-0.428 Y24.06
X-0.402 Y24.205
X-0.369 Y24.351
X-0.321 Y24.497
X-0.258 Y24.642
X0.113 Y25.37
X0.173 Y25.486
X0.189 Y25.516
X0.281 Y25.662
X0.319 Y25.717
X0.397 Y25.807
X0.464 Y25.884
X1.116 Y26.536
X1.193 Y26.603
X1.283 Y26.681
X1.338 Y26.719
X1.484 Y26.811
X1.514 Y26.827
X1.775 Y26.961
X2.358 Y27.258
X2.503 Y27.321
X2.649 Y27.369
X2.795 Y27.402
X2.94 Y27.428
X3.377 Y27.497
X3.814 Y27.564
X3.96 Y27.57
X4.251 Y27.575
X4.543 Y27.576
X10.077
X10.223 Y27.572
X10.514 Y27.56
X10.571 Y27.555
X10.66 Y27.536
X10.805 Y27.498
X10.951 Y27.446
X11.097 Y27.374
X11.242 Y27.281
X11.265 Y27.264
X11.328 Y27.215
X11.459 Y27.141
X11.594 Y27.076
X11.732 Y27.018
X11.873 Y26.967
X12.036 Y26.914
X12.228 Y26.861
X12.459 Y26.806
X12.744 Y26.75
X13.109 Y26.694
X13.608 Y26.636
X14.248 Y26.587
X14.707 Y26.567
X14.906 Y26.583
X15.094 Y26.649
X15.26 Y26.76
X15.394 Y26.908
X15.439 Y26.973
X15.466 Y27.008
X15.57 Y27.118
X15.612 Y27.159
X15.735 Y27.264
X15.758 Y27.281
X15.903 Y27.374
X16.049 Y27.446
X16.195 Y27.498
X16.34 Y27.536
X16.429 Y27.555
X16.486 Y27.56
X16.777 Y27.572
X16.923 Y27.576
X22.603
X22.749 Y27.575
X23.04 Y27.57
X23.186 Y27.564
X23.623 Y27.497
X24.06 Y27.428
X24.205 Y27.402
X24.351 Y27.369
X24.497 Y27.321
X24.642 Y27.258
X25.37 Y26.887
X25.486 Y26.827
X25.516 Y26.811
X25.662 Y26.719
X25.717 Y26.681
X25.807 Y26.603
X25.884 Y26.536
X26.536 Y25.884
X26.603 Y25.807
X26.681 Y25.717
X26.719 Y25.662
X26.811 Y25.516
X26.827 Y25.486
X26.961 Y25.225
X27.258 Y24.642
X27.321 Y24.497
X27.369 Y24.351
X27.402 Y24.205
X27.428 Y24.06
X27.497 Y23.623
X27.564 Y23.186
X27.57 Y23.04
X27.575 Y22.749
X27.576 Y22.457
Y4.397
X27.575 Y4.251
X27.57 Y3.96
X27.564 Y3.814
X27.497 Y3.377
X27.428 Y2.94
X27.402 Y2.795
X27.369 Y2.649
X27.321 Y2.503
X27.258 Y2.358
X26.887 Y1.63
X26.827 Y1.514
X26.811 Y1.484
X26.719 Y1.338
X26.681 Y1.283
X26.603 Y1.193
X26.536 Y1.116
X25.884 Y0.464
X25.807 Y0.397
X25.717 Y0.319
X25.662 Y0.281
X25.516 Y0.189
X25.486 Y0.173
X25.225 Y0.039
X24.642 Y-0.258
X24.497 Y-0.321
X24.351 Y-0.369
X24.205 Y-0.402
X24.06 Y-0.428
X23.623 Y-0.497
X23.186 Y-0.564
X23.04 Y-0.57
X22.749 Y-0.575
X22.457 Y-0.576
X16.923
X16.777 Y-0.572
X16.486 Y-0.56
X16.429 Y-0.555
X16.34 Y-0.536
X16.195 Y-0.498
X16.049 Y-0.446
X15.903 Y-0.374
X15.758 Y-0.281
X15.735 Y-0.264
X15.672 Y-0.215
X15.541 Y-0.141
X15.406 Y-0.076
X15.268 Y-0.018
X15.127 Y0.033
X14.964 Y0.086
X14.772 Y0.139
X14.541 Y0.194
X14.256 Y0.25
X13.891 Y0.306
X13.392 Y0.364
X12.752 Y0.413
X12.293 Y0.433
X12.094 Y0.417
X11.906 Y0.351
X11.74 Y0.24
X11.606 Y0.092
X11.561 Y0.027
X11.534 Y-0.008
X11.43 Y-0.118
X11.388 Y-0.159
X11.265 Y-0.264
X11.242 Y-0.281
X11.097 Y-0.374
X10.951 Y-0.446
X10.805 Y-0.498
X10.66 Y-0.536
X10.571 Y-0.555
X10.514 Y-0.56
X10.223 Y-0.572
X10.077 Y-0.576
X4.397
X4.251 Y-0.575
X3.96 Y-0.57
X3.814 Y-0.564
X3.377 Y-0.497
X2.94 Y-0.428
X2.795 Y-0.402
X2.649 Y-0.369
X2.503 Y-0.321
X2.358 Y-0.258
X1.63 Y0.113
X1.514 Y0.173
X1.484 Y0.189
X1.338 Y0.281
X1.283 Y0.319
X1.193 Y0.397
X1.116 Y0.464
X0.738 Y0.842
G3 X0.208 Y0.562 I-0.217 J-0.232
G1 X0.219 Y0.492 Z-2.392
X0.229 Y0.425 Z-2.369
X0.238 Y0.366 Z-2.331
X0.246 Y0.316 Z-2.28
X0.251 Y0.279 Z-2.22
X0.255 Y0.256 Z-2.153
X0.256 Y0.248 Z-2.082
G0 Z5.
X16.271 Y-1.22
Z-1.765
G1 Z-2.082 F1016.
X16.269 Y-1.212 Z-2.153
X16.261 Y-1.19 Z-2.22
X16.249 Y-1.154 Z-2.28
X16.232 Y-1.107 Z-2.331
X16.213 Y-1.05 Z-2.369
X16.191 Y-0.986 Z-2.392
X16.168 Y-0.919 Z-2.4
G3 X15.735 Y-0.264 I-1.496 J-0.516
G1 X15.612 Y-0.159
X15.57 Y-0.118
X15.466 Y-0.008
X15.439 Y0.027
X15.338 Y0.173
X15.321 Y0.203
X15.278 Y0.271
X15.191 Y0.394
X15.091 Y0.505
X14.98 Y0.606
X14.861 Y0.698
X14.737 Y0.781
X14.607 Y0.858
X14.474 Y0.927
X14.338 Y0.99
X14.184 Y1.054
X14.018 Y1.116
X13.829 Y1.177
X13.62 Y1.236
X13.453 Y1.277
X13.281 Y1.311
X13.133 Y1.335
X12.984 Y1.352
X12.834 Y1.362
X12.684 Y1.364
X12.624 Y1.362
X12.418 Y1.327
X12.229 Y1.239
X12.069 Y1.106
X11.95 Y0.935
X11.879 Y0.739
X11.85 Y0.61
X11.825 Y0.513
X11.806 Y0.464
X11.745 Y0.319
X11.662 Y0.173
X11.606 Y0.092
G3 X11.887 Y-0.397 I0.267 J-0.172
G1 X11.979 Y-0.393
X14.904 Y-0.267
X15.053 Y-0.26
G3 X15.321 Y0.203 I-0.014 J0.317
G1 X15.255 Y0.319
X15.194 Y0.464
X15.175 Y0.513
X15.15 Y0.61
X15.118 Y0.756
X15.1 Y0.834
X15.053 Y0.976
X14.985 Y1.11
X14.903 Y1.235
X14.808 Y1.352
X14.705 Y1.461
X14.594 Y1.562
X14.476 Y1.655
X14.353 Y1.741
X14.226 Y1.82
X14.094 Y1.892
X13.959 Y1.957
X13.821 Y2.015
X13.68 Y2.066
X13.536 Y2.109
X13.39 Y2.145
X13.243 Y2.172
X13.094 Y2.189
X12.944 Y2.195
X12.794 Y2.192
X12.645 Y2.177
X12.556 Y2.161
X12.347 Y2.092
X12.165 Y1.969
X12.024 Y1.8
X11.935 Y1.599
X11.904 Y1.381
X11.902 Y1.047
X11.899 Y0.901
X11.882 Y0.756
X11.879 Y0.739
G3 X12.197 Y0.365 I0.312 J-0.057
G1 X12.42 Y0.369
X14.539 Y0.409
X14.807 Y0.414
G3 X15.118 Y0.756 I-0.006 J0.317
G1 X15.101 Y0.901
X15.098 Y1.047
X15.096 Y1.338
X15.092 Y1.418
X15.074 Y1.567
X15.034 Y1.712
X14.976 Y1.85
X14.904 Y1.982
X14.819 Y2.106
X14.725 Y2.222
X14.622 Y2.331
X14.511 Y2.432
X14.393 Y2.525
X14.27 Y2.611
X14.142 Y2.688
X14.009 Y2.758
X13.872 Y2.819
X13.731 Y2.872
X13.588 Y2.917
X13.443 Y2.953
X13.295 Y2.98
X13.146 Y2.998
X12.996 Y3.006
X12.846 Y3.002
X12.697 Y2.988
X12.549 Y2.963
X12.499 Y2.95
X12.306 Y2.872
X12.14 Y2.746
X12.012 Y2.581
X11.931 Y2.388
X11.904 Y2.181
Y1.381
G3 X12.216 Y1.074 I0.317 J0.011
G1 X12.518 Y1.069
X14.482 Y1.036
X14.774 Y1.031
G3 X15.096 Y1.338 I0.005 J0.317
G1 Y2.147
X15.092 Y2.227
X15.075 Y2.376
X15.036 Y2.521
X14.979 Y2.66
X14.909 Y2.792
X14.826 Y2.917
X14.732 Y3.034
X14.63 Y3.144
X14.52 Y3.246
X14.402 Y3.339
X14.279 Y3.424
X14.15 Y3.502
X14.017 Y3.571
X13.88 Y3.632
X13.74 Y3.684
X13.596 Y3.728
X13.45 Y3.764
X13.303 Y3.79
X13.154 Y3.807
X13.004 Y3.814
X12.854 Y3.811
X12.705 Y3.796
X12.557 Y3.771
X12.503 Y3.757
X12.308 Y3.679
X12.141 Y3.553
X12.012 Y3.388
X11.932 Y3.195
X11.904 Y2.988
Y2.181
G3 X12.217 Y1.875 I0.317 J0.011
G1 X12.519 Y1.871
X14.481 Y1.844
X14.774 Y1.84
G3 X15.096 Y2.147 I0.004 J0.317
G1 Y2.984
X15.092 Y3.065
X15.072 Y3.213
X15.03 Y3.357
X14.972 Y3.496
X14.899 Y3.627
X14.814 Y3.751
X14.719 Y3.867
X14.615 Y3.975
X14.503 Y4.075
X14.385 Y4.167
X14.261 Y4.25
X14.131 Y4.326
X13.997 Y4.393
X13.859 Y4.452
X13.718 Y4.503
X13.574 Y4.545
X13.428 Y4.579
X13.28 Y4.603
X13.13 Y4.618
X12.98 Y4.623
X12.831 Y4.618
X12.681 Y4.601
X12.534 Y4.574
X12.491 Y4.563
X12.3 Y4.483
X12.136 Y4.357
X12.01 Y4.193
X11.931 Y4.001
X11.904 Y3.796
Y2.988
G3 X12.221 Y2.681 I0.317 J0.011
G1 X12.519
X14.481 Y2.678
X14.778
G3 X15.096 Y2.984 I0. J0.317
G1 Y3.785
X15.092 Y3.865
X15.074 Y4.014
X15.035 Y4.159
X14.978 Y4.297
X14.906 Y4.429
X14.822 Y4.554
X14.728 Y4.67
X14.624 Y4.779
X14.513 Y4.879
X14.395 Y4.972
X14.27 Y5.056
X14.141 Y5.132
X14.007 Y5.199
X13.87 Y5.259
X13.728 Y5.31
X13.585 Y5.352
X13.439 Y5.386
X13.291 Y5.412
X13.142 Y5.427
X12.992 Y5.433
X12.842 Y5.429
X12.693 Y5.412
X12.545 Y5.386
X12.496 Y5.373
X12.304 Y5.294
X12.138 Y5.168
X12.011 Y5.003
X11.931 Y4.811
X11.904 Y4.605
Y3.796
G3 X12.22 Y3.49 I0.317 J0.011
G1 X12.519 Y3.488
X14.481 Y3.48
X14.777 Y3.478
G3 X15.096 Y3.785 I0.001 J0.317
G1 Y4.587
X15.092 Y4.667
X15.076 Y4.816
X15.038 Y4.961
X14.982 Y5.1
X14.911 Y5.232
X14.828 Y5.357
X14.734 Y5.474
X14.631 Y5.583
X14.52 Y5.684
X14.402 Y5.777
X14.278 Y5.861
X14.149 Y5.938
X14.015 Y6.006
X13.878 Y6.066
X13.737 Y6.117
X13.593 Y6.16
X13.447 Y6.194
X13.299 Y6.22
X13.15 Y6.236
X13. Y6.242
X12.85 Y6.239
X12.701 Y6.223
X12.553 Y6.197
X12.499 Y6.183
X12.306 Y6.105
X12.14 Y5.979
X12.012 Y5.814
X11.931 Y5.621
X11.904 Y5.415
Y4.605
G3 X12.219 Y4.299 I0.317 J0.011
G1 X12.519 Y4.297
X14.481 Y4.282
X14.776 Y4.28
G3 X15.096 Y4.587 I0.002 J0.317
G1 Y5.387
X15.092 Y5.467
X15.077 Y5.616
X15.041 Y5.762
X14.986 Y5.901
X14.916 Y6.034
X14.833 Y6.159
X14.74 Y6.277
X14.638 Y6.386
X14.527 Y6.488
X14.41 Y6.581
X14.286 Y6.666
X14.157 Y6.743
X14.024 Y6.811
X13.886 Y6.872
X13.746 Y6.924
X13.602 Y6.967
X13.456 Y7.002
X13.309 Y7.028
X13.159 Y7.045
X13.01 Y7.052
X12.86 Y7.049
X12.71 Y7.034
X12.563 Y7.008
X12.503 Y6.993
X12.309 Y6.916
X12.141 Y6.79
X12.013 Y6.625
X11.932 Y6.432
X11.904 Y6.224
Y5.415
G3 X12.218 Y5.108 I0.317 J0.011
G1 X12.519 Y5.105
X14.481 Y5.084
X14.775 Y5.081
G3 X15.096 Y5.387 I0.003 J0.317
G1 Y6.22
X15.092 Y6.3
X15.074 Y6.449
X15.034 Y6.593
X14.976 Y6.732
X14.904 Y6.863
X14.82 Y6.987
X14.725 Y7.104
X14.621 Y7.212
X14.51 Y7.312
X14.391 Y7.404
X14.267 Y7.488
X14.137 Y7.563
X14.003 Y7.631
X13.865 Y7.69
X13.724 Y7.74
X13.58 Y7.782
X13.434 Y7.816
X13.286 Y7.841
X13.137 Y7.856
X12.987 Y7.861
X12.837 Y7.857
X12.688 Y7.84
X12.54 Y7.813
X12.493 Y7.801
X12.302 Y7.721
X12.137 Y7.595
X12.011 Y7.431
X11.931 Y7.239
X11.904 Y7.033
Y6.224
G3 X12.221 Y5.917 I0.317 J0.011
G1 X12.519
X14.481 Y5.914
X14.778 Y5.913
G3 X15.096 Y6.22 I0.001 J0.317
G1 Y7.019
X15.092 Y7.099
X15.075 Y7.248
X15.037 Y7.393
X14.981 Y7.532
X14.91 Y7.664
X14.826 Y7.789
X14.732 Y7.906
X14.629 Y8.014
X14.518 Y8.115
X14.4 Y8.208
X14.276 Y8.292
X14.146 Y8.368
X14.013 Y8.436
X13.875 Y8.495
X13.734 Y8.547
X13.59 Y8.589
X13.444 Y8.624
X13.296 Y8.649
X13.147 Y8.665
X12.997 Y8.671
X12.847 Y8.667
X12.698 Y8.651
X12.551 Y8.625
X12.498 Y8.611
X12.305 Y8.533
X12.139 Y8.407
X12.012 Y8.242
X11.931 Y8.05
X11.904 Y7.843
Y7.033
G3 X12.219 Y6.727 I0.317 J0.011
G1 X12.519 Y6.725
X14.481 Y6.714
X14.777 Y6.712
G3 X15.096 Y7.019 I0.002 J0.317
G1 Y7.827
X15.092 Y7.907
X15.076 Y8.056
X15.037 Y8.201
X14.981 Y8.34
X14.91 Y8.473
X14.827 Y8.597
X14.733 Y8.714
X14.63 Y8.823
X14.519 Y8.924
X14.401 Y9.017
X14.277 Y9.101
X14.148 Y9.177
X14.014 Y9.245
X13.876 Y9.305
X13.735 Y9.356
X13.591 Y9.399
X13.445 Y9.433
X13.298 Y9.459
X13.148 Y9.474
X12.999 Y9.481
X12.849 Y9.477
X12.699 Y9.461
X12.552 Y9.435
X12.499 Y9.421
X12.305 Y9.343
X12.139 Y9.217
X12.012 Y9.052
X11.931 Y8.859
X11.904 Y8.653
Y7.843
G3 X12.219 Y7.537 I0.317 J0.011
G1 X12.519 Y7.535
X14.481 Y7.522
X14.777 Y7.521
G3 X15.096 Y7.827 I0.002 J0.317
G1 Y8.621
X15.092 Y8.701
X15.078 Y8.85
X15.042 Y8.996
X14.988 Y9.136
X14.918 Y9.269
X14.836 Y9.394
X14.743 Y9.512
X14.641 Y9.622
X14.531 Y9.723
X14.413 Y9.817
X14.29 Y9.902
X14.161 Y9.979
X14.028 Y10.048
X13.891 Y10.108
X13.75 Y10.16
X13.607 Y10.204
X13.461 Y10.239
X13.313 Y10.266
X13.164 Y10.283
X13.014 Y10.29
X12.864 Y10.287
X12.715 Y10.273
X12.567 Y10.247
X12.505 Y10.232
X12.31 Y10.155
X12.142 Y10.029
X12.013 Y9.864
X11.932 Y9.67
X11.904 Y9.462
Y8.653
G3 X12.217 Y8.346 I0.317 J0.011
G1 X12.519 Y8.342
X14.481 Y8.318
X14.775 Y8.314
G3 X15.096 Y8.621 I0.004 J0.317
G1 Y9.429
X15.092 Y9.509
X15.079 Y9.659
X15.042 Y9.804
X14.988 Y9.944
X14.919 Y10.077
X14.837 Y10.203
X14.744 Y10.321
X14.642 Y10.43
X14.532 Y10.532
X14.414 Y10.626
X14.291 Y10.711
X14.162 Y10.788
X14.029 Y10.857
X13.892 Y10.917
X13.751 Y10.97
X13.608 Y11.013
X13.462 Y11.049
X13.314 Y11.075
X13.165 Y11.092
X13.015 Y11.099
X12.865 Y11.097
X12.716 Y11.082
X12.568 Y11.057
X12.506 Y11.042
X12.31 Y10.964
X12.142 Y10.839
X12.013 Y10.673
X11.932 Y10.48
X11.904 Y10.271
Y9.462
G3 X12.217 Y9.156 I0.317 J0.011
G1 X12.519 Y9.152
X14.481 Y9.126
X14.775 Y9.123
G3 X15.096 Y9.429 I0.004 J0.317
G1 Y10.267
X15.092 Y10.347
X15.074 Y10.496
X15.034 Y10.641
X14.976 Y10.779
X14.904 Y10.911
X14.82 Y11.035
X14.725 Y11.151
X14.622 Y11.259
X14.51 Y11.36
X14.392 Y11.452
X14.267 Y11.535
X14.138 Y11.611
X14.003 Y11.678
X13.866 Y11.737
X13.724 Y11.788
X13.58 Y11.83
X13.434 Y11.864
X13.286 Y11.889
X13.137 Y11.903
X12.987 Y11.909
X12.837 Y11.904
X12.688 Y11.888
X12.541 Y11.861
X12.494 Y11.848
X12.302 Y11.769
X12.137 Y11.643
X12.011 Y11.478
X11.931 Y11.287
X11.904 Y11.081
Y10.271
G3 X12.221 Y9.965 I0.317 J0.011
G1 X12.519 Y9.964
X14.481 Y9.961
X14.778
G3 X15.096 Y10.267 I0.001 J0.317
G1 Y11.067
X15.092 Y11.147
X15.075 Y11.297
X15.037 Y11.441
X14.98 Y11.581
X14.909 Y11.713
X14.826 Y11.837
X14.732 Y11.954
X14.628 Y12.063
X14.517 Y12.163
X14.399 Y12.256
X14.275 Y12.34
X14.146 Y12.416
X14.012 Y12.484
X13.874 Y12.544
X13.733 Y12.595
X13.589 Y12.637
X13.443 Y12.672
X13.295 Y12.697
X13.146 Y12.712
X12.996 Y12.719
X12.846 Y12.715
X12.697 Y12.699
X12.55 Y12.672
X12.498 Y12.659
X12.305 Y12.58
X12.139 Y12.454
X12.011 Y12.29
X11.931 Y12.097
X11.904 Y11.891
Y11.081
G3 X12.22 Y10.775 I0.317 J0.011
G1 X12.519 Y10.773
X14.481 Y10.762
X14.777 Y10.761
G3 X15.096 Y11.067 I0.002 J0.317
G1 Y11.869
X15.092 Y11.949
X15.077 Y12.098
X15.039 Y12.244
X14.984 Y12.383
X14.913 Y12.516
X14.83 Y12.641
X14.737 Y12.758
X14.634 Y12.867
X14.523 Y12.968
X14.405 Y13.061
X14.281 Y13.146
X14.152 Y13.222
X14.019 Y13.29
X13.881 Y13.35
X13.74 Y13.402
X13.597 Y13.445
X13.451 Y13.48
X13.303 Y13.506
X13.154 Y13.521
X13.004 Y13.528
X12.854 Y13.525
X12.705 Y13.509
X12.557 Y13.483
X12.501 Y13.469
X12.307 Y13.391
X12.14 Y13.265
X12.012 Y13.1
X11.931 Y12.907
X11.904 Y12.7
Y11.891
G3 X12.219 Y11.584 I0.317 J0.011
G1 X12.519 Y11.582
X14.481 Y11.565
X14.776 Y11.563
G3 X15.096 Y11.869 I0.003 J0.317
G1 Y12.669
X15.092 Y12.75
X15.078 Y12.899
X15.042 Y13.044
X14.987 Y13.184
X14.918 Y13.317
X14.836 Y13.443
X14.743 Y13.56
X14.64 Y13.67
X14.53 Y13.772
X14.413 Y13.865
X14.289 Y13.95
X14.16 Y14.027
X14.027 Y14.096
X13.89 Y14.156
X13.749 Y14.208
X13.606 Y14.252
X13.46 Y14.287
X13.312 Y14.314
X13.163 Y14.33
X13.013 Y14.337
X12.863 Y14.335
X12.714 Y14.32
X12.566 Y14.295
X12.505 Y14.28
X12.31 Y14.202
X12.142 Y14.076
X12.013 Y13.911
X11.932 Y13.717
X11.904 Y13.51
Y12.7
G3 X12.217 Y12.394 I0.317 J0.011
G1 X12.519 Y12.39
X14.481 Y12.367
X14.775 Y12.363
G3 X15.096 Y12.669 I0.004 J0.317
G1 Y13.507
X15.092 Y13.587
X15.073 Y13.736
X15.033 Y13.881
X14.976 Y14.019
X14.903 Y14.151
X14.819 Y14.275
X14.724 Y14.391
X14.62 Y14.499
X14.508 Y14.599
X14.39 Y14.691
X14.265 Y14.775
X14.136 Y14.85
X14.002 Y14.917
X13.864 Y14.976
X13.722 Y15.027
X13.578 Y15.069
X13.432 Y15.102
X13.284 Y15.127
X13.135 Y15.142
X12.985 Y15.147
X12.835 Y15.142
X12.686 Y15.125
X12.539 Y15.098
X12.493 Y15.086
X12.301 Y15.007
X12.137 Y14.881
X12.01 Y14.716
X11.931 Y14.525
X11.904 Y14.319
Y13.51
G3 X12.221 Y13.203 I0.317 J0.011
G1 X12.519
X14.481 Y13.201
X14.778
G3 X15.096 Y13.507 I0. J0.318
G1 Y14.301
X15.092 Y14.381
X15.076 Y14.53
X15.038 Y14.675
X14.982 Y14.815
X14.911 Y14.947
X14.828 Y15.072
X14.735 Y15.189
X14.631 Y15.298
X14.52 Y15.399
X14.402 Y15.491
X14.279 Y15.576
X14.149 Y15.652
X14.016 Y15.72
X13.878 Y15.78
X13.737 Y15.831
X13.593 Y15.874
X13.447 Y15.909
X13.3 Y15.935
X13.151 Y15.95
X13.001 Y15.957
X12.851 Y15.953
X12.702 Y15.937
X12.554 Y15.911
X12.5 Y15.897
X12.306 Y15.819
X12.14 Y15.693
X12.012 Y15.528
X11.931 Y15.336
X11.904 Y15.129
Y14.319
G3 X12.219 Y14.013 I0.317 J0.011
G1 X12.519 Y14.011
X14.481 Y13.997
X14.777 Y13.995
G3 X15.096 Y14.301 I0.002 J0.317
G1 Y15.109
X15.092 Y15.19
X15.076 Y15.339
X15.038 Y15.484
X14.983 Y15.623
X14.912 Y15.756
X14.829 Y15.88
X14.735 Y15.997
X14.632 Y16.107
X14.521 Y16.208
X14.403 Y16.3
X14.28 Y16.385
X14.15 Y16.461
X14.017 Y16.529
X13.879 Y16.589
X13.738 Y16.641
X13.595 Y16.684
X13.449 Y16.718
X13.301 Y16.744
X13.152 Y16.76
X13.002 Y16.766
X12.852 Y16.763
X12.703 Y16.747
X12.555 Y16.721
X12.5 Y16.707
X12.306 Y16.629
X12.14 Y16.503
X12.012 Y16.338
X11.931 Y16.145
X11.904 Y15.938
Y15.129
G3 X12.219 Y14.822 I0.317 J0.011
G1 X12.519 Y14.82
X14.481 Y14.805
X14.776 Y14.803
G3 X15.096 Y15.109 I0.002 J0.317
G1 Y15.947
X15.092 Y16.027
X15.072 Y16.176
X15.03 Y16.32
X14.971 Y16.458
X14.898 Y16.589
X14.812 Y16.712
X14.717 Y16.828
X14.612 Y16.935
X14.5 Y17.035
X14.381 Y17.126
X14.256 Y17.209
X14.126 Y17.284
X13.992 Y17.351
X13.853 Y17.409
X13.712 Y17.459
X13.568 Y17.5
X13.421 Y17.533
X13.273 Y17.557
X13.124 Y17.571
X12.974 Y17.576
X12.824 Y17.57
X12.675 Y17.553
X12.528 Y17.525
X12.488 Y17.514
X12.298 Y17.434
X12.135 Y17.308
X12.009 Y17.143
X11.931 Y16.953
X11.904 Y16.748
Y15.938
G3 X12.222 Y15.632 I0.317 J0.011
G1 X12.519 Y15.633
X14.481 Y15.64
X14.78 Y15.641
G3 X15.096 Y15.947 I-0.001 J0.317
G1 Y16.748
X15.092 Y16.828
X15.073 Y16.977
X15.033 Y17.121
X14.975 Y17.259
X14.903 Y17.391
X14.818 Y17.515
X14.723 Y17.631
X14.619 Y17.739
X14.507 Y17.839
X14.389 Y17.931
X14.264 Y18.014
X14.134 Y18.089
X14. Y18.156
X13.862 Y18.215
X13.721 Y18.266
X13.577 Y18.307
X13.43 Y18.341
X13.283 Y18.366
X13.133 Y18.38
X12.983 Y18.386
X12.833 Y18.381
X12.684 Y18.364
X12.537 Y18.337
X12.492 Y18.325
X12.301 Y18.245
X12.136 Y18.119
X12.01 Y17.955
X11.931 Y17.763
X11.904 Y17.558
Y16.748
G3 X12.221 Y16.442 I0.317 J0.011
G1 X12.519
X14.481 Y16.441
X14.779
G3 X15.096 Y16.748 I0. J0.317
G1 Y17.549
X15.092 Y17.63
X15.074 Y17.779
X15.035 Y17.923
X14.978 Y18.062
X14.907 Y18.194
X14.823 Y18.318
X14.728 Y18.435
X14.625 Y18.543
X14.513 Y18.644
X14.395 Y18.736
X14.27 Y18.82
X14.141 Y18.895
X14.007 Y18.963
X13.869 Y19.022
X13.728 Y19.073
X13.584 Y19.115
X13.438 Y19.149
X13.29 Y19.174
X13.141 Y19.19
X12.991 Y19.195
X12.841 Y19.191
X12.692 Y19.175
X12.544 Y19.148
X12.496 Y19.135
X12.303 Y19.056
X12.138 Y18.93
X12.011 Y18.765
X11.931 Y18.574
X11.904 Y18.367
Y17.558
G3 X12.22 Y17.251 I0.317 J0.011
G1 X12.519 Y17.25
X14.481 Y17.244
X14.778 Y17.243
G3 X15.096 Y17.549 I0.001 J0.317
G1 Y18.35
X15.092 Y18.43
X15.076 Y18.579
X15.038 Y18.724
X14.982 Y18.863
X14.911 Y18.996
X14.828 Y19.12
X14.734 Y19.237
X14.631 Y19.346
X14.52 Y19.447
X14.402 Y19.54
X14.278 Y19.624
X14.149 Y19.701
X14.015 Y19.769
X13.878 Y19.828
X13.737 Y19.88
X13.593 Y19.923
X13.447 Y19.957
X13.299 Y19.983
X13.15 Y19.998
X13. Y20.005
X12.85 Y20.001
X12.701 Y19.986
X12.553 Y19.959
X12.499 Y19.946
X12.306 Y19.867
X12.14 Y19.741
X12.012 Y19.576
X11.931 Y19.384
X11.904 Y19.177
Y18.367
G3 X12.219 Y18.061 I0.317 J0.011
G1 X12.519 Y18.059
X14.481 Y18.045
X14.777 Y18.043
G3 X15.096 Y18.35 I0.002 J0.317
G1 Y19.152
X15.092 Y19.232
X15.077 Y19.381
X15.04 Y19.526
X14.985 Y19.666
X14.915 Y19.799
X14.832 Y19.924
X14.739 Y20.041
X14.636 Y20.151
X14.526 Y20.252
X14.408 Y20.345
X14.285 Y20.43
X14.156 Y20.506
X14.022 Y20.575
X13.885 Y20.635
X13.744 Y20.687
X13.6 Y20.73
X13.455 Y20.765
X13.307 Y20.791
X13.158 Y20.807
X13.008 Y20.814
X12.858 Y20.811
X12.709 Y20.796
X12.561 Y20.771
X12.503 Y20.756
X12.308 Y20.678
X12.141 Y20.552
X12.012 Y20.387
X11.932 Y20.194
X11.904 Y19.986
Y19.177
G3 X12.218 Y18.871 I0.317 J0.011
G1 X12.519 Y18.868
X14.481 Y18.848
X14.776 Y18.845
G3 X15.096 Y19.152 I0.003 J0.317
G1 Y19.981
X15.092 Y20.062
X15.074 Y20.21
X15.034 Y20.355
X14.977 Y20.494
X14.905 Y20.625
X14.821 Y20.749
X14.726 Y20.866
X14.622 Y20.974
X14.51 Y21.074
X14.392 Y21.166
X14.268 Y21.25
X14.138 Y21.326
X14.004 Y21.393
X13.866 Y21.452
X13.725 Y21.503
X13.581 Y21.545
X13.435 Y21.579
X13.287 Y21.603
X13.138 Y21.618
X12.988 Y21.624
X12.838 Y21.619
X12.689 Y21.603
X12.541 Y21.576
X12.494 Y21.563
X12.302 Y21.484
X12.137 Y21.358
X12.011 Y21.193
X11.931 Y21.002
X11.904 Y20.796
Y19.986
G3 X12.221 Y19.68 I0.317 J0.011
G1 X12.519 Y19.679
X14.481 Y19.676
X14.778 Y19.675
G3 X15.096 Y19.981 I0.001 J0.317
G1 Y20.79
X15.092 Y20.87
X15.074 Y21.019
X15.034 Y21.164
X14.977 Y21.302
X14.906 Y21.434
X14.821 Y21.558
X14.727 Y21.675
X14.623 Y21.783
X14.512 Y21.883
X14.393 Y21.975
X14.269 Y22.059
X14.139 Y22.135
X14.005 Y22.202
X13.867 Y22.261
X13.726 Y22.312
X13.582 Y22.354
X13.436 Y22.388
X13.288 Y22.413
X13.139 Y22.428
X12.989 Y22.434
X12.839 Y22.429
X12.69 Y22.413
X12.542 Y22.386
X12.495 Y22.373
X12.303 Y22.294
X12.137 Y22.168
X12.011 Y22.003
X11.931 Y21.812
X11.904 Y21.606
Y20.796
G3 X12.22 Y20.49 I0.317 J0.011
G1 X12.519 Y20.489
X14.481 Y20.484
X14.778 Y20.483
G3 X15.096 Y20.79 I0.001 J0.317
G1 Y21.584
X15.092 Y21.664
X15.077 Y21.813
X15.039 Y21.958
X14.984 Y22.098
X14.913 Y22.23
X14.831 Y22.355
X14.737 Y22.472
X14.634 Y22.582
X14.523 Y22.683
X14.406 Y22.776
X14.282 Y22.86
X14.153 Y22.937
X14.019 Y23.005
X13.882 Y23.065
X13.741 Y23.117
X13.597 Y23.16
X13.451 Y23.194
X13.304 Y23.22
X13.154 Y23.236
X13.005 Y23.243
X12.855 Y23.24
X12.705 Y23.224
X12.558 Y23.199
X12.501 Y23.184
X12.307 Y23.106
X12.14 Y22.98
X12.012 Y22.815
X11.931 Y22.622
X11.904 Y22.415
Y21.606
G3 X12.218 Y21.299 I0.317 J0.011
G1 X12.519 Y21.297
X14.481 Y21.28
X14.776 Y21.277
G3 X15.096 Y21.584 I0.003 J0.317
G1 Y22.392
X15.092 Y22.472
X15.077 Y22.621
X15.04 Y22.767
X14.984 Y22.906
X14.914 Y23.039
X14.831 Y23.164
X14.738 Y23.281
X14.635 Y23.39
X14.524 Y23.491
X14.407 Y23.584
X14.283 Y23.669
X14.154 Y23.746
X14.02 Y23.814
X13.883 Y23.874
X13.742 Y23.926
X13.598 Y23.969
X13.453 Y24.004
X13.305 Y24.03
X13.156 Y24.046
X13.006 Y24.053
X12.856 Y24.049
X12.707 Y24.034
X12.559 Y24.008
X12.502 Y23.994
X12.308 Y23.916
X12.141 Y23.79
X12.012 Y23.625
X11.931 Y23.432
X11.904 Y23.225
Y22.415
G3 X12.218 Y22.109 I0.317 J0.011
G1 X12.519 Y22.106
X14.481 Y22.088
X14.776 Y22.085
G3 X15.096 Y22.392 I0.003 J0.317
G1 Y23.23
Y23.26
X15.064 Y23.902
X15.089 Y24.167
X14.996 Y24.455
X14.74 Y24.747
X14.159 Y25.021
X13.532 Y25.159
X13.373 Y25.178
X13.293 Y25.185
X13.106 Y25.158
X12.959 Y25.129
X12.813 Y25.094
X12.669 Y25.052
X12.527 Y25.004
X12.388 Y24.948
X12.354 Y24.932
X12.169 Y24.809
X12.026 Y24.639
X11.935 Y24.436
X11.904 Y24.216
Y23.225
G3 X12.226 Y22.918 I0.317 J0.011
G1 X12.519 Y22.922
X14.481 Y22.95
X14.783 Y22.954
G3 X15.096 Y23.26 I-0.004 J0.317
G1 Y25.662
X15.098 Y25.953
X15.101 Y26.099
X15.098 Y26.123
X15.09 Y26.147
X15.06 Y26.211 Z-2.392
X15.032 Y26.272 Z-2.369
X15.007 Y26.327 Z-2.331
X14.986 Y26.372 Z-2.28
X14.97 Y26.406 Z-2.22
X14.96 Y26.428 Z-2.153
X14.956 Y26.435 Z-2.082
G0 Z5.
X10.729 Y28.22
Z-1.765
G1 Z-2.082 F1016.
X10.731 Y28.212 Z-2.153
X10.739 Y28.19 Z-2.22
X10.751 Y28.154 Z-2.28
X10.768 Y28.107 Z-2.331
X10.787 Y28.05 Z-2.369
X10.809 Y27.986 Z-2.392
X10.832 Y27.919 Z-2.4
G3 X11.265 Y27.264 I1.496 J0.516
G1 X11.388 Y27.159
X11.43 Y27.118
X11.534 Y27.008
X11.561 Y26.973
X11.662 Y26.827
X11.745 Y26.681
X11.806 Y26.536
X11.825 Y26.487
X11.85 Y26.39
X11.882 Y26.244
X11.899 Y26.099
X11.902 Y25.953
X11.904 Y25.516
Y24.216
G3 X12.474 Y24.035 I0.317 J0.011
G1 X12.477 Y24.039
X12.857 Y24.539
X13.23 Y25.029
X13.26 Y25.077
X13.281 Y25.129
X13.293 Y25.185
X13.301 Y25.294
X13.358 Y25.551
X13.314 Y25.783
X13.166 Y25.998
X12.92 Y26.154
X12.841 Y26.166
X12.761 Y26.172
G3 X12.558 Y25.909 I-0.009 J-0.203
X13.301 Y25.294 I0.844 J0.264
G1 X13.538 Y25.275
X13.775 Y25.225
X14.009 Y25.273
X14.225 Y25.424
X14.309 Y25.56
X14.336 Y25.636
G3 X14.156 Y26.023 I-0.303 J0.095
G1 X14.093 Y26.036 Z-2.393
X14.033 Y26.048 Z-2.373
X13.986 Y26.036 Z-2.347
X13.944 Y26.026 Z-2.312
X13.909 Y26.017 Z-2.27
X13.881 Y26.01 Z-2.222
X13.866 Y26.001 Z-2.177
X13.857 Y25.995 Z-2.131
X13.853 Y25.993 Z-2.083
G0 Z5.
X-0.602 Y-0.805
Z-1.645
G1 Z-1.962 F1016.
X-0.597 Y-0.799 Z-2.033
X-0.58 Y-0.782 Z-2.1
X-0.554 Y-0.755 Z-2.16
X-0.519 Y-0.719 Z-2.211
X-0.477 Y-0.676 Z-2.249
X-0.43 Y-0.628 Z-2.272
X-0.38 Y-0.578 Z-2.28
G3 X0.699 Y0.795 I-5.795 J5.668
G1 X0.72 Y0.831
Y0.872
X0.699 Y0.908
X0.56 Y1.047
X0.464 Y1.145
X0.366 Y1.261
X0.319 Y1.316
X0.21 Y1.484
X0.173 Y1.553
X-0.236 Y2.358
X-0.264 Y2.414
X-0.301 Y2.503
X-0.349 Y2.649
X-0.382 Y2.795
X-0.409 Y2.943
X-0.478 Y3.377
X-0.545 Y3.814
X-0.551 Y3.96
X-0.556 Y4.251
X-0.557 Y4.543
Y22.603
X-0.556 Y22.749
X-0.551 Y23.04
X-0.545 Y23.186
X-0.478 Y23.623
X-0.409 Y24.06
X-0.382 Y24.205
X-0.349 Y24.351
X-0.301 Y24.497
X-0.264 Y24.586
X-0.236 Y24.642
X0.173 Y25.447
X0.21 Y25.516
X0.319 Y25.684
X0.423 Y25.807
X0.464 Y25.855
X0.56 Y25.953
X1.047 Y26.44
X1.145 Y26.536
X1.261 Y26.634
X1.316 Y26.681
X1.484 Y26.79
X1.553 Y26.827
X2.358 Y27.236
X2.414 Y27.264
X2.503 Y27.301
X2.649 Y27.349
X2.795 Y27.382
X2.943 Y27.409
X3.377 Y27.478
X3.814 Y27.545
X3.96 Y27.551
X4.251 Y27.556
X4.543 Y27.557
X10.077
X10.223 Y27.553
X10.369 Y27.547
G3 X10.606 Y27.639 I0.013 J0.317
G1 X10.631 Y27.662
X11.012 Y27.969
X11.399 Y28.281
G2 X11.913 Y27.99 I0.199 J-0.247
G3 X11.861 Y26.244 I8.029 J-1.114
G1 X11.877 Y26.099
X11.881 Y25.953
X11.882 Y25.516
Y1.338
X11.881 Y1.047
G3 X11.982 Y0.813 I0.317 J-0.001
G1 X12.015 Y0.777
X12.043 Y0.736
X12.249 Y0.365
X12.595 Y-0.255
G2 X12.251 Y-0.72 I-0.277 J-0.155
G3 X10.514 Y-0.541 I-1.694 J-7.927
G1 X10.161 Y-0.555
X10.077 Y-0.557
X4.397
X4.251 Y-0.556
X3.96 Y-0.551
X3.814 Y-0.545
X3.377 Y-0.478
X2.94 Y-0.409
X2.795 Y-0.382
X2.649 Y-0.349
X2.503 Y-0.301
X2.414 Y-0.264
X2.358 Y-0.236
X1.553 Y0.173
X1.484 Y0.21
X1.316 Y0.319
X1.193 Y0.423
X1.145 Y0.464
X1.047 Y0.56
X0.699 Y0.908
G3 X0.169 Y0.627 I-0.217 J-0.232
G1 X0.18 Y0.558 Z-2.272
X0.19 Y0.491 Z-2.249
X0.199 Y0.432 Z-2.211
X0.207 Y0.382 Z-2.16
X0.212 Y0.345 Z-2.1
X0.216 Y0.321 Z-2.033
X0.217 Y0.314 Z-1.962
G0 Z5.
X27.507 Y27.9
Z-1.645
G1 Z-1.962 F1016.
X27.501 Y27.895 Z-2.033
X27.485 Y27.878 Z-2.1
X27.458 Y27.851 Z-2.16
X27.423 Y27.815 Z-2.211
X27.381 Y27.772 Z-2.249
X27.334 Y27.724 Z-2.272
X27.285 Y27.673 Z-2.28
G3 X26.205 Y26.301 I5.795 J-5.668
G1 X26.184 Y26.265
Y26.224
X26.205 Y26.188
X26.44 Y25.953
X26.536 Y25.855
X26.634 Y25.739
X26.681 Y25.684
X26.79 Y25.516
X26.827 Y25.447
X27.236 Y24.642
X27.264 Y24.586
X27.301 Y24.497
X27.349 Y24.351
X27.382 Y24.205
X27.409 Y24.057
X27.478 Y23.623
X27.545 Y23.186
X27.551 Y23.04
X27.556 Y22.749
X27.557 Y22.457
Y4.397
X27.556 Y4.251
X27.551 Y3.96
X27.545 Y3.814
X27.478 Y3.377
X27.409 Y2.94
X27.382 Y2.795
X27.349 Y2.649
X27.301 Y2.503
X27.264 Y2.414
X27.236 Y2.358
X26.827 Y1.553
X26.79 Y1.484
X26.681 Y1.316
X26.577 Y1.193
X26.536 Y1.145
X26.44 Y1.047
X25.953 Y0.56
X25.855 Y0.464
X25.739 Y0.366
X25.684 Y0.319
X25.516 Y0.21
X25.447 Y0.173
X24.642 Y-0.236
X24.586 Y-0.264
X24.497 Y-0.301
X24.351 Y-0.349
X24.205 Y-0.382
X24.057 Y-0.409
X23.623 Y-0.478
X23.186 Y-0.545
X23.04 Y-0.551
X22.749 Y-0.556
X22.457 Y-0.557
X16.923
X16.777 Y-0.553
X16.631 Y-0.547
G3 X16.394 Y-0.639 I-0.013 J-0.317
G1 X16.369 Y-0.662
X15.988 Y-0.969
X15.601 Y-1.281
G2 X15.087 Y-0.99 I-0.199 J0.247
G3 X15.139 Y0.756 I-8.029 J1.114
G1 X15.123 Y0.901
X15.119 Y1.047
X15.118 Y1.484
Y25.662
X15.119 Y25.953
G3 X15.018 Y26.187 I-0.317 J0.001
G1 X14.985 Y26.223
X14.957 Y26.264
X14.751 Y26.635
X14.405 Y27.255
G2 X14.749 Y27.72 I0.277 J0.155
G3 X16.486 Y27.541 I1.694 J7.927
G1 X16.839 Y27.555
X16.923 Y27.557
X22.603
X22.749 Y27.556
X23.04 Y27.551
X23.186 Y27.545
X23.623 Y27.478
X24.06 Y27.409
X24.205 Y27.382
X24.351 Y27.349
X24.497 Y27.301
X24.586 Y27.264
X24.642 Y27.236
X25.447 Y26.827
X25.516 Y26.79
X25.684 Y26.681
X25.807 Y26.577
X25.855 Y26.536
X25.953 Y26.44
X26.205 Y26.188
G3 X26.632 Y26.182 I0.217 J0.232
G1 X26.662 Y26.227 Z-2.275
X26.692 Y26.27 Z-2.261
X26.72 Y26.311 Z-2.238
X26.727 Y26.353 Z-2.208
X26.734 Y26.39 Z-2.172
X26.739 Y26.42 Z-2.131
X26.737 Y26.446 Z-2.078
X26.736 Y26.463 Z-2.021
X26.735 Y26.468 Z-1.963
G0 Z5.
X-0.466 Y-0.9
Z-1.525
G1 Z-1.842 F1016.
X-0.461 Y-0.895 Z-1.913
X-0.444 Y-0.878 Z-1.98
X-0.418 Y-0.851 Z-2.04
X-0.383 Y-0.815 Z-2.091
X-0.341 Y-0.772 Z-2.129
X-0.294 Y-0.724 Z-2.152
X-0.244 Y-0.673 Z-2.16
G3 X0.835 Y0.699 I-5.795 J5.668
G1 X0.856 Y0.735
Y0.776
X0.835 Y0.812
X0.6 Y1.047
X0.463 Y1.193
X0.338 Y1.338
X0.246 Y1.484
X0.166 Y1.63
X-0.056 Y2.067
X-0.202 Y2.358
X-0.264 Y2.486
X-0.319 Y2.649
X-0.353 Y2.795
X-0.38 Y2.94
X-0.449 Y3.377
X-0.516 Y3.814
X-0.522 Y3.96
X-0.528 Y4.251
X-0.529 Y4.543
Y22.603
X-0.528 Y22.749
X-0.522 Y23.04
X-0.516 Y23.186
X-0.449 Y23.623
X-0.38 Y24.06
X-0.353 Y24.205
X-0.319 Y24.351
X-0.264 Y24.514
X-0.202 Y24.642
X0.027 Y25.098
X0.173 Y25.384
X0.246 Y25.516
X0.338 Y25.662
X0.464 Y25.809
X0.61 Y25.963
X1.047 Y26.4
X1.193 Y26.537
X1.338 Y26.662
X1.484 Y26.754
X1.63 Y26.834
X2.067 Y27.056
X2.358 Y27.202
X2.486 Y27.264
X2.649 Y27.319
X2.795 Y27.353
X2.94 Y27.38
X3.377 Y27.449
X3.814 Y27.516
X3.96 Y27.522
X4.251 Y27.528
X4.543 Y27.529
X10.077
X10.303 Y27.521
G3 X10.54 Y27.613 I0.013 J0.317
G1 X10.923 Y27.971
X11.27 Y28.296
G2 X11.803 Y28.033 I0.217 J-0.232
G3 X11.825 Y26.287 I8.069 J-0.771
G1 X11.832 Y26.244
X11.849 Y26.099
X11.852 Y25.953
X11.854 Y25.516
Y1.338
X11.852 Y1.047
G3 X11.953 Y0.813 I0.317 J-0.001
G2 X12.053 Y0.555 I-0.217 J-0.232
G1 X12.034 Y0.319
X11.955 Y-0.635
G2 X11.382 Y-0.796 I-0.316 J0.026
G3 X10.66 Y-0.488 I-0.621 J-0.453
G1 X10.514 Y-0.512
X10.223 Y-0.524
X10.077 Y-0.529
X4.397
X4.251 Y-0.528
X3.96 Y-0.522
X3.814 Y-0.516
X3.377 Y-0.449
X2.94 Y-0.38
X2.795 Y-0.353
X2.649 Y-0.319
X2.486 Y-0.264
X2.358 Y-0.202
X1.902 Y0.027
X1.616 Y0.173
X1.484 Y0.246
X1.338 Y0.338
X1.191 Y0.464
X1.037 Y0.61
X0.835 Y0.812
G3 X0.305 Y0.532 I-0.217 J-0.232
G1 X0.316 Y0.462 Z-2.152
X0.326 Y0.396 Z-2.129
X0.335 Y0.336 Z-2.091
X0.343 Y0.286 Z-2.04
X0.348 Y0.249 Z-1.98
X0.352 Y0.226 Z-1.913
X0.353 Y0.218 Z-1.842
G0 Z5.
X27.466 Y27.9
Z-1.525
G1 Z-1.842 F1016.
X27.461 Y27.895 Z-1.913
X27.444 Y27.878 Z-1.98
X27.418 Y27.851 Z-2.04
X27.383 Y27.815 Z-2.091
X27.341 Y27.772 Z-2.129
X27.294 Y27.724 Z-2.152
X27.244 Y27.673 Z-2.16
G3 X26.165 Y26.301 I5.795 J-5.668
G1 X26.144 Y26.265
Y26.224
X26.165 Y26.188
X26.4 Y25.953
X26.537 Y25.807
X26.662 Y25.662
X26.754 Y25.516
X26.834 Y25.37
X27.056 Y24.933
X27.202 Y24.642
X27.264 Y24.514
X27.319 Y24.351
X27.353 Y24.205
X27.38 Y24.06
X27.449 Y23.623
X27.516 Y23.186
X27.522 Y23.04
X27.528 Y22.749
X27.529 Y22.457
Y4.397
X27.528 Y4.251
X27.522 Y3.96
X27.516 Y3.814
X27.449 Y3.377
X27.38 Y2.94
X27.353 Y2.795
X27.319 Y2.649
X27.264 Y2.486
X27.202 Y2.358
X26.973 Y1.902
X26.827 Y1.616
X26.754 Y1.484
X26.662 Y1.338
X26.536 Y1.191
X26.39 Y1.037
X25.953 Y0.6
X25.807 Y0.463
X25.662 Y0.338
X25.516 Y0.246
X25.37 Y0.166
X24.933 Y-0.056
X24.642 Y-0.202
X24.514 Y-0.264
X24.351 Y-0.319
X24.205 Y-0.353
X24.06 Y-0.38
X23.623 Y-0.449
X23.186 Y-0.516
X23.04 Y-0.522
X22.749 Y-0.528
X22.457 Y-0.529
X16.923
X16.697 Y-0.521
G3 X16.46 Y-0.613 I-0.013 J-0.317
G1 X16.077 Y-0.971
X15.73 Y-1.296
G2 X15.197 Y-1.033 I-0.217 J0.232
G3 X15.175 Y0.713 I-8.069 J0.771
G1 X15.168 Y0.756
X15.151 Y0.901
X15.148 Y1.047
X15.146 Y1.484
Y25.662
X15.148 Y25.953
G3 X15.047 Y26.187 I-0.317 J0.001
G2 X14.947 Y26.445 I0.217 J0.232
G1 X14.966 Y26.681
X15.045 Y27.635
G2 X15.618 Y27.796 I0.316 J-0.026
G3 X16.34 Y27.488 I0.621 J0.453
G1 X16.486 Y27.512
X16.777 Y27.524
X16.923 Y27.529
X22.603
X22.749 Y27.528
X23.04 Y27.522
X23.186 Y27.516
X23.623 Y27.449
X24.06 Y27.38
X24.205 Y27.353
X24.351 Y27.319
X24.514 Y27.264
X24.642 Y27.202
X25.098 Y26.973
X25.384 Y26.827
X25.516 Y26.754
X25.662 Y26.662
X25.809 Y26.536
X25.963 Y26.39
X26.165 Y26.188
G3 X26.591 Y26.182 I0.217 J0.232
G1 X26.622 Y26.227 Z-2.155
X26.652 Y26.27 Z-2.141
X26.68 Y26.311 Z-2.118
X26.687 Y26.353 Z-2.088
X26.693 Y26.39 Z-2.052
X26.699 Y26.42 Z-2.011
X26.697 Y26.446 Z-1.958
X26.695 Y26.463 Z-1.901
Y26.468 Z-1.843
G0 Z5.
X-0.457 Y-0.855
Z-1.405
G1 Z-1.722 F1016.
X-0.451 Y-0.849 Z-1.793
X-0.435 Y-0.833 Z-1.86
