(1001)
(T1  D=3.175 CR=1.587 - ZMIN=-6.599 - BALL END MILL)
G0 G90 G94 G17
G21
G53 G0 Z0.

(ADAPTIVE5)
M5
M9
T1
S16500 M3
G4 P4.
G55
G0 X-3.058 Y-2.093
Z15.
Z5.
Z-0.445
G1 Z-0.762 F1016.
X-3.051 Y-2.09 Z-0.833
X-3.03 Y-2.08 Z-0.9
X-2.995 Y-2.064 Z-0.96
X-2.95 Y-2.043 Z-1.011
X-2.895 Y-2.018 Z-1.049
X-2.834 Y-1.99 Z-1.072
X-2.77 Y-1.961 Z-1.08
G3 X-1.271 Y-1.065 I-3.384 J7.365
G1 X-1.209 Y-1.014
X-1.193 Y-0.967
X-1.197 Y-0.918
X-1.22 Y-0.874
X-1.252 Y-0.834
X-1.342 Y-0.673
X-1.386 Y-0.576
X-1.405 Y-0.527
X-1.451 Y-0.381
X-1.484 Y-0.235
X-1.499 Y-0.09
X-1.504 Y0.056
Y1.805
Y68.115
Y68.26
X-1.499 Y68.406
X-1.484 Y68.552
X-1.451 Y68.698
X-1.405 Y68.843
X-1.386 Y68.893
X-1.342 Y68.989
X-1.252 Y69.15
X-1.094 Y69.346
X-1.012 Y69.426
X-0.948 Y69.482
X-0.825 Y69.572
X-0.656 Y69.668
X-0.51 Y69.728
X-0.364 Y69.771
X-0.218 Y69.802
X-0.072 Y69.817
X0.074 Y69.82
X0.803 Y69.821
X91.118 Y69.82
X91.41
X91.555 Y69.817
X91.701 Y69.802
X91.847 Y69.771
X91.993 Y69.728
X92.139 Y69.668
X92.308 Y69.572
X92.431 Y69.482
X92.495 Y69.426
X92.577 Y69.346
X92.735 Y69.15
X92.825 Y68.989
X92.869 Y68.893
X92.888 Y68.843
X92.934 Y68.698
X92.967 Y68.552
X92.982 Y68.406
X92.987 Y68.26
Y66.512
Y0.202
Y0.056
X92.982 Y-0.09
X92.967 Y-0.235
X92.934 Y-0.381
X92.888 Y-0.527
X92.869 Y-0.576
X92.825 Y-0.673
X92.735 Y-0.834
X92.577 Y-1.03
X92.495 Y-1.11
X92.431 Y-1.166
X92.308 Y-1.256
X92.139 Y-1.352
X91.993 Y-1.411
X91.847 Y-1.455
X91.701 Y-1.485
X91.555 Y-1.501
X91.41 Y-1.503
X90.68 Y-1.504
X0.365
X0.074 Y-1.503
X-0.007 Y-1.502
G3 X-0.317 Y-1.795 I0.006 J-0.317
G1 X-0.318 Y-1.819 Z-1.079
X-0.305 Y-1.873 Z-1.069
X-0.292 Y-1.924 Z-1.05
X-0.28 Y-1.971 Z-1.022
X-0.25 Y-2.006 Z-0.982
X-0.225 Y-2.034 Z-0.935
X-0.207 Y-2.055 Z-0.881
X-0.196 Y-2.068 Z-0.823
X-0.192 Y-2.072 Z-0.763
G0 Z5.
X7.652 Y5.276
Z2.501
G3 X8.253 Y4.757 Z2.458 I0.3 J-0.259 F1016.
X7.652 Y5.276 Z2.414 I-0.3 J0.259
X8.253 Y4.757 Z2.371 I0.3 J-0.259
X7.652 Y5.276 Z2.327 I-0.3 J0.259
X8.253 Y4.757 Z2.284 I0.3 J-0.259
X7.652 Y5.276 Z2.24 I-0.3 J0.259
X8.253 Y4.757 Z2.196 I0.3 J-0.259
X7.652 Y5.276 Z2.153 I-0.3 J0.259
X8.253 Y4.757 Z2.109 I0.3 J-0.259
X7.652 Y5.276 Z2.066 I-0.3 J0.259
X8.253 Y4.757 Z2.022 I0.3 J-0.259
X7.652 Y5.276 Z1.979 I-0.3 J0.259
X8.253 Y4.757 Z1.935 I0.3 J-0.259
X7.652 Y5.276 Z1.892 I-0.3 J0.259
X8.253 Y4.757 Z1.848 I0.3 J-0.259
X7.652 Y5.276 Z1.805 I-0.3 J0.259
X8.253 Y4.757 Z1.761 I0.3 J-0.259
X7.652 Y5.276 Z1.717 I-0.3 J0.259
X8.253 Y4.757 Z1.674 I0.3 J-0.259
X7.652 Y5.276 Z1.63 I-0.3 J0.259
X8.253 Y4.757 Z1.587 I0.3 J-0.259
X7.652 Y5.276 Z1.543 I-0.3 J0.259
X8.253 Y4.757 Z1.5 I0.3 J-0.259
X7.652 Y5.276 Z1.456 I-0.3 J0.259
X8.253 Y4.757 Z1.413 I0.3 J-0.259
X7.652 Y5.276 Z1.369 I-0.3 J0.259
X8.253 Y4.757 Z1.326 I0.3 J-0.259
X7.652 Y5.276 Z1.282 I-0.3 J0.259
X8.253 Y4.757 Z1.239 I0.3 J-0.259
X7.652 Y5.276 Z1.195 I-0.3 J0.259
X8.253 Y4.757 Z1.151 I0.3 J-0.259
X7.652 Y5.276 Z1.108 I-0.3 J0.259
X8.253 Y4.757 Z1.064 I0.3 J-0.259
X7.652 Y5.276 Z1.021 I-0.3 J0.259
X8.253 Y4.757 Z0.977 I0.3 J-0.259
X7.652 Y5.276 Z0.934 I-0.3 J0.259
X8.253 Y4.757 Z0.89 I0.3 J-0.259
X7.652 Y5.276 Z0.847 I-0.3 J0.259
X8.253 Y4.757 Z0.803 I0.3 J-0.259
X7.652 Y5.276 Z0.76 I-0.3 J0.259
X8.253 Y4.757 Z0.716 I0.3 J-0.259
X7.652 Y5.276 Z0.673 I-0.3 J0.259
X8.253 Y4.757 Z0.629 I0.3 J-0.259
X7.652 Y5.276 Z0.585 I-0.3 J0.259
X8.253 Y4.757 Z0.542 I0.3 J-0.259
X7.652 Y5.276 Z0.498 I-0.3 J0.259
X8.253 Y4.757 Z0.455 I0.3 J-0.259
X7.652 Y5.276 Z0.411 I-0.3 J0.259
X8.253 Y4.757 Z0.368 I0.3 J-0.259
X7.652 Y5.276 Z0.324 I-0.3 J0.259
X8.253 Y4.757 Z0.281 I0.3 J-0.259
X7.652 Y5.276 Z0.237 I-0.3 J0.259
X8.253 Y4.757 Z0.194 I0.3 J-0.259
X7.652 Y5.276 Z0.15 I-0.3 J0.259
X8.253 Y4.757 Z0.107 I0.3 J-0.259
X7.652 Y5.276 Z0.063 I-0.3 J0.259
X8.253 Y4.757 Z0.019 I0.3 J-0.259
X7.652 Y5.276 Z-0.024 I-0.3 J0.259
X8.253 Y4.757 Z-0.068 I0.3 J-0.259
X7.652 Y5.276 Z-0.111 I-0.3 J0.259
X8.253 Y4.757 Z-0.155 I0.3 J-0.259
X7.652 Y5.276 Z-0.198 I-0.3 J0.259
X8.253 Y4.757 Z-0.242 I0.3 J-0.259
X7.652 Y5.276 Z-0.285 I-0.3 J0.259
X8.253 Y4.757 Z-0.329 I0.3 J-0.259
X7.652 Y5.276 Z-0.372 I-0.3 J0.259
X8.253 Y4.757 Z-0.416 I0.3 J-0.259
X7.652 Y5.276 Z-0.46 I-0.3 J0.259
X8.253 Y4.757 Z-0.503 I0.3 J-0.259
X7.652 Y5.276 Z-0.547 I-0.3 J0.259
X8.253 Y4.757 Z-0.59 I0.3 J-0.259
X8.349 Y5.016 Z-0.6 I-0.3 J0.259
X7.555 I-0.397 J0.
X8.349 I0.397 J0.
G1 X8.379 Y5.191
X8.386 Y5.278
X8.345 Y5.356
X8.268 Y5.399
X8.171 Y5.42
X8.098 Y5.423
X7.661
X7.566 Y5.419
X7.424 Y5.372
X7.308 Y5.276
X7.248 Y5.135
X7.242 Y4.981
X7.289 Y4.835
X7.385 Y4.715
X7.517 Y4.637
X7.669 Y4.609
X8.098
X8.171 Y4.613
X8.244 Y4.629
X8.324 Y4.647
X8.361 Y4.655
X8.39 Y4.662
X8.41 Y4.67
X8.479 Y4.704
X8.541 Y4.748
X8.596 Y4.802
G3 X8.588 Y5.141 I-0.268 J0.164
X8.074 Y4.793 I-0.257 J-0.174
X8.39 Y4.662 I0.257 J0.174
G1 X8.452 Y4.683
X8.483 Y4.699
X8.514 Y4.72
X8.536 Y4.738
X8.568 Y4.77
X8.596 Y4.802
X8.617 Y4.833
X8.633 Y4.865
X8.648 Y4.902
X8.658 Y4.938
X8.664 Y4.975
X8.666 Y5.011
X8.665 Y5.047
X8.66 Y5.084
X8.652 Y5.12
X8.638 Y5.157
X8.621 Y5.191
X8.6 Y5.226
X8.571 Y5.261
X8.536 Y5.295
X8.527 Y5.303
X8.493 Y5.328
X8.459 Y5.347
X8.424 Y5.361
X8.39 Y5.371
X8.268 Y5.399
X8.218 Y5.404
X7.661 Y5.423
X7.325
X7.235 Y5.419
X7.095 Y5.367
X6.983 Y5.267
X6.928 Y5.125
X6.926 Y4.973
X6.977 Y4.83
X7.074 Y4.713
X7.205 Y4.636
X7.355 Y4.609
X7.669
G3 X7.86 Y4.78 I-0.007 J0.201
X7.325 Y5.423 I-0.555 J0.082
G1 X7.002
X6.914 Y5.419
X6.774 Y5.366
X6.663 Y5.265
X6.606 Y5.093
X6.624 Y4.912
X6.714 Y4.754
X6.86 Y4.647
X7.038 Y4.609
X7.355
G3 X7.547 Y4.785 I-0.007 J0.2
X7.002 Y5.423 I-0.564 J0.07
G1 X6.705
X6.614 Y5.419
X6.471 Y5.374
X6.364 Y5.235
X6.321 Y5.066
X6.348 Y4.893
X6.44 Y4.744
X6.584 Y4.645
X6.756 Y4.609
X7.038
G3 X7.229 Y4.774 I-0.007 J0.201
X6.705 Y5.423 I-0.543 J0.098
G1 X6.413
X6.325 Y5.419
X6.183 Y5.371
X6.079 Y5.231
X6.039 Y5.061
X6.067 Y4.89
X6.161 Y4.743
X6.304 Y4.644
X6.475 Y4.609
X6.756
G3 X6.947 Y4.78 I-0.007 J0.201
X6.413 Y5.423 I-0.554 J0.084
G1 X6.121
X6.035 Y5.419
X5.894 Y5.368
X5.793 Y5.227
X5.755 Y5.058
X5.785 Y4.887
X5.879 Y4.741
X6.022 Y4.644
X6.192 Y4.609
X6.475
G3 X6.667 Y4.786 I-0.007 J0.2
X6.121 Y5.423 I-0.566 J0.068
G1 X5.835
X5.75 Y5.419
X5.609 Y5.367
X5.509 Y5.226
X5.471 Y5.057
X5.502 Y4.886
X5.596 Y4.741
X5.739 Y4.644
X5.909 Y4.609
X6.192
G3 X6.385 Y4.788 I-0.007 J0.2
X5.835 Y5.423 I-0.57 J0.063
G1 X5.543
X5.46 Y5.419
X5.32 Y5.364
X5.222 Y5.223
X5.186 Y5.054
X5.217 Y4.884
X5.312 Y4.74
X5.455 Y4.643
X5.624 Y4.609
X5.909
G3 X6.102 Y4.792 I-0.007 J0.2
X5.543 Y5.423 I-0.579 J0.05
G1 X5.251
X5.212
X5.18
X5.116 Y5.413
X4.987 Y5.337
X4.906 Y5.191
X4.884 Y5.026
X4.925 Y4.865
X5.023 Y4.73
X5.163 Y4.641
X5.326 Y4.609
X5.624
G3 X5.816 Y4.83 I-0.007 J0.2
X5.18 Y5.423 I-0.659 J-0.068
G1 X5.107 Y5.416
X5.034 Y5.399
X4.888 Y5.364
X4.83 Y5.34
X4.801 Y5.324
X4.772 Y5.303
X4.742 Y5.274
X4.693 Y5.216
X4.662 Y5.157
X4.648 Y5.12
X4.64 Y5.084
X4.635 Y5.047
X4.634 Y5.011
X4.636 Y4.975
X4.642 Y4.938
X4.652 Y4.902
X4.667 Y4.865
X4.697 Y4.812
X4.742 Y4.758
X4.764 Y4.737
X4.786 Y4.72
X4.812 Y4.703
X4.837 Y4.689
X4.888 Y4.669
X5.034 Y4.634
X5.107 Y4.617
X5.18 Y4.609
X5.326
G3 X5.632 Y4.907 I-0.011 J0.317
G1 X5.633 Y4.927 Z-0.599
X5.619 Y4.98 Z-0.591
X5.606 Y5.031 Z-0.573
X5.594 Y5.078 Z-0.546
X5.563 Y5.114 Z-0.506
X5.538 Y5.143 Z-0.458
X5.519 Y5.165 Z-0.403
X5.507 Y5.178 Z-0.344
X5.503 Y5.183 Z-0.283
G0 Z5.
X7.652 Y10.576
Z2.501
G3 X8.253 Y10.057 Z2.458 I0.3 J-0.259 F1016.
X7.652 Y10.576 Z2.414 I-0.3 J0.259
X8.253 Y10.057 Z2.371 I0.3 J-0.259
X7.652 Y10.576 Z2.327 I-0.3 J0.259
X8.253 Y10.057 Z2.284 I0.3 J-0.259
X7.652 Y10.576 Z2.24 I-0.3 J0.259
X8.253 Y10.057 Z2.196 I0.3 J-0.259
X7.652 Y10.576 Z2.153 I-0.3 J0.259
X8.253 Y10.057 Z2.109 I0.3 J-0.259
X7.652 Y10.576 Z2.066 I-0.3 J0.259
X8.253 Y10.057 Z2.022 I0.3 J-0.259
X7.652 Y10.576 Z1.979 I-0.3 J0.259
X8.253 Y10.057 Z1.935 I0.3 J-0.259
X7.652 Y10.576 Z1.892 I-0.3 J0.259
X8.253 Y10.057 Z1.848 I0.3 J-0.259
X7.652 Y10.576 Z1.805 I-0.3 J0.259
X8.253 Y10.057 Z1.761 I0.3 J-0.259
X7.652 Y10.576 Z1.717 I-0.3 J0.259
X8.253 Y10.057 Z1.674 I0.3 J-0.259
X7.652 Y10.576 Z1.63 I-0.3 J0.259
X8.253 Y10.057 Z1.587 I0.3 J-0.259
X7.652 Y10.576 Z1.543 I-0.3 J0.259
X8.253 Y10.057 Z1.5 I0.3 J-0.259
X7.652 Y10.576 Z1.456 I-0.3 J0.259
X8.253 Y10.057 Z1.413 I0.3 J-0.259
X7.652 Y10.576 Z1.369 I-0.3 J0.259
X8.253 Y10.057 Z1.326 I0.3 J-0.259
X7.652 Y10.576 Z1.282 I-0.3 J0.259
X8.253 Y10.057 Z1.239 I0.3 J-0.259
X7.652 Y10.576 Z1.195 I-0.3 J0.259
X8.253 Y10.057 Z1.151 I0.3 J-0.259
X7.652 Y10.576 Z1.108 I-0.3 J0.259
X8.253 Y10.057 Z1.064 I0.3 J-0.259
X7.652 Y10.576 Z1.021 I-0.3 J0.259
X8.253 Y10.057 Z0.977 I0.3 J-0.259
X7.652 Y10.576 Z0.934 I-0.3 J0.259
X8.253 Y10.057 Z0.89 I0.3 J-0.259
X7.652 Y10.576 Z0.847 I-0.3 J0.259
X8.253 Y10.057 Z0.803 I0.3 J-0.259
X7.652 Y10.576 Z0.76 I-0.3 J0.259
X8.253 Y10.057 Z0.716 I0.3 J-0.259
X7.652 Y10.576 Z0.673 I-0.3 J0.259
X8.253 Y10.057 Z0.629 I0.3 J-0.259
X7.652 Y10.576 Z0.585 I-0.3 J0.259
X8.253 Y10.057 Z0.542 I0.3 J-0.259
X7.652 Y10.576 Z0.498 I-0.3 J0.259
X8.253 Y10.057 Z0.455 I0.3 J-0.259
X7.652 Y10.576 Z0.411 I-0.3 J0.259
X8.253 Y10.057 Z0.368 I0.3 J-0.259
X7.652 Y10.576 Z0.324 I-0.3 J0.259
X8.253 Y10.057 Z0.281 I0.3 J-0.259
X7.652 Y10.576 Z0.237 I-0.3 J0.259
X8.253 Y10.057 Z0.194 I0.3 J-0.259
X7.652 Y10.576 Z0.15 I-0.3 J0.259
X8.253 Y10.057 Z0.107 I0.3 J-0.259
X7.652 Y10.576 Z0.063 I-0.3 J0.259
X8.253 Y10.057 Z0.019 I0.3 J-0.259
X7.652 Y10.576 Z-0.024 I-0.3 J0.259
X8.253 Y10.057 Z-0.068 I0.3 J-0.259
X7.652 Y10.576 Z-0.111 I-0.3 J0.259
X8.253 Y10.057 Z-0.155 I0.3 J-0.259
X7.652 Y10.576 Z-0.198 I-0.3 J0.259
X8.253 Y10.057 Z-0.242 I0.3 J-0.259
X7.652 Y10.576 Z-0.285 I-0.3 J0.259
X8.253 Y10.057 Z-0.329 I0.3 J-0.259
X7.652 Y10.576 Z-0.372 I-0.3 J0.259
X8.253 Y10.057 Z-0.416 I0.3 J-0.259
X7.652 Y10.576 Z-0.46 I-0.3 J0.259
X8.253 Y10.057 Z-0.503 I0.3 J-0.259
X7.652 Y10.576 Z-0.547 I-0.3 J0.259
X8.253 Y10.057 Z-0.59 I0.3 J-0.259
X8.349 Y10.316 Z-0.6 I-0.3 J0.259
X7.555 I-0.397 J0.
X8.349 I0.397 J0.
G1 X8.379 Y10.491
X8.386 Y10.578
X8.344 Y10.656
X8.268 Y10.699
X8.171 Y10.72
X8.098 Y10.723
X7.661
X7.566 Y10.719
X7.424 Y10.672
X7.308 Y10.576
X7.248 Y10.435
X7.242 Y10.281
X7.289 Y10.135
X7.385 Y10.015
X7.517 Y9.937
X7.669 Y9.909
X8.098
X8.171 Y9.913
X8.244 Y9.929
X8.324 Y9.947
X8.361 Y9.955
X8.39 Y9.962
X8.431 Y9.976
X8.47 Y9.992
G3 X8.561 Y10.265 I-0.126 J0.194
X8.132 Y10.108 I-0.214 J-0.079
X8.39 Y9.962 I0.214 J0.079
G1 X8.404 Y9.966
X8.437 Y9.977
X8.47 Y9.992
X8.503 Y10.012
X8.536 Y10.038
X8.573 Y10.075
X8.603 Y10.112
X8.625 Y10.148
X8.642 Y10.185
X8.654 Y10.221
X8.662 Y10.258
X8.665 Y10.294
Y10.33
X8.663 Y10.367
X8.656 Y10.403
X8.645 Y10.44
X8.629 Y10.476
X8.609 Y10.513
X8.581 Y10.549
X8.536 Y10.595
X8.499 Y10.624
X8.463 Y10.645
X8.427 Y10.66
X8.39 Y10.671
X8.268 Y10.699
X8.219 Y10.704
X7.661 Y10.723
X7.325
X7.235 Y10.719
X7.095 Y10.667
X6.983 Y10.567
X6.928 Y10.425
X6.926 Y10.273
X6.977 Y10.13
X7.074 Y10.013
X7.205 Y9.936
X7.355 Y9.909
X7.669
G3 X7.86 Y10.08 I-0.007 J0.201
X7.325 Y10.723 I-0.555 J0.082
G1 X7.002
X6.914 Y10.719
X6.774 Y10.666
X6.663 Y10.565
X6.606 Y10.393
X6.624 Y10.212
X6.714 Y10.054
X6.86 Y9.947
X7.038 Y9.909
X7.355
G3 X7.547 Y10.085 I-0.007 J0.2
X7.002 Y10.723 I-0.564 J0.07
G1 X6.705
X6.614 Y10.719
X6.471 Y10.674
X6.364 Y10.535
X6.321 Y10.366
X6.348 Y10.193
X6.44 Y10.044
X6.584 Y9.945
X6.756 Y9.909
X7.038
G3 X7.229 Y10.074 I-0.007 J0.201
X6.705 Y10.723 I-0.543 J0.098
G1 X6.413
X6.325 Y10.719
X6.183 Y10.671
X6.079 Y10.531
X6.039 Y10.361
X6.067 Y10.19
X6.161 Y10.043
X6.304 Y9.944
X6.475 Y9.909
X6.756
G3 X6.947 Y10.08 I-0.007 J0.201
X6.413 Y10.723 I-0.554 J0.084
G1 X6.121
X6.035 Y10.719
X5.894 Y10.668
X5.793 Y10.527
X5.755 Y10.358
X5.785 Y10.187
X5.879 Y10.041
X6.022 Y9.944
X6.192 Y9.909
X6.475
G3 X6.667 Y10.086 I-0.007 J0.2
X6.121 Y10.723 I-0.566 J0.068
G1 X5.835
X5.75 Y10.719
X5.609 Y10.667
X5.509 Y10.526
X5.471 Y10.357
X5.502 Y10.186
X5.596 Y10.041
X5.739 Y9.944
X5.909 Y9.909
X6.192
G3 X6.385 Y10.088 I-0.007 J0.2
X5.835 Y10.723 I-0.57 J0.063
G1 X5.543
X5.46 Y10.719
X5.32 Y10.664
X5.222 Y10.523
X5.186 Y10.354
X5.217 Y10.184
X5.312 Y10.04
X5.455 Y9.943
X5.624 Y9.909
X5.909
G3 X6.102 Y10.092 I-0.007 J0.2
X5.543 Y10.723 I-0.579 J0.05
G1 X5.251
X5.212
X5.18
X5.116 Y10.713
X4.987 Y10.637
X4.906 Y10.491
X4.884 Y10.326
X4.925 Y10.165
X5.023 Y10.03
X5.163 Y9.941
X5.326 Y9.909
X5.624
G3 X5.816 Y10.13 I-0.007 J0.2
X5.18 Y10.723 I-0.659 J-0.068
G1 X5.107 Y10.716
X5.014 Y10.695
X4.888 Y10.664
X4.852 Y10.65
X4.815 Y10.632
X4.779 Y10.608
X4.742 Y10.574
X4.719 Y10.549
X4.691 Y10.513
X4.671 Y10.476
X4.655 Y10.44
X4.644 Y10.403
X4.637 Y10.367
X4.635 Y10.33
Y10.294
X4.638 Y10.258
X4.646 Y10.221
X4.658 Y10.185
X4.675 Y10.148
X4.697 Y10.112
X4.742 Y10.058
X4.779 Y10.025
X4.815 Y10.
X4.852 Y9.982
X4.896 Y9.966
X5.034 Y9.934
X5.107 Y9.917
X5.18 Y9.909
X5.326
G3 X5.632 Y10.207 I-0.011 J0.317
G1 X5.633 Y10.227 Z-0.599
X5.619 Y10.28 Z-0.591
X5.606 Y10.331 Z-0.573
X5.594 Y10.378 Z-0.546
X5.563 Y10.414 Z-0.506
X5.538 Y10.443 Z-0.458
X5.519 Y10.465 Z-0.403
X5.507 Y10.478 Z-0.344
X5.503 Y10.483 Z-0.283
G0 Z5.
X7.652 Y15.876
Z2.501
G3 X8.253 Y15.357 Z2.458 I0.3 J-0.259 F1016.
X7.652 Y15.876 Z2.414 I-0.3 J0.259
X8.253 Y15.357 Z2.371 I0.3 J-0.259
X7.652 Y15.876 Z2.327 I-0.3 J0.259
X8.253 Y15.357 Z2.284 I0.3 J-0.259
X7.652 Y15.876 Z2.24 I-0.3 J0.259
X8.253 Y15.357 Z2.196 I0.3 J-0.259
X7.652 Y15.876 Z2.153 I-0.3 J0.259
X8.253 Y15.357 Z2.109 I0.3 J-0.259
X7.652 Y15.876 Z2.066 I-0.3 J0.259
X8.253 Y15.357 Z2.022 I0.3 J-0.259
X7.652 Y15.876 Z1.979 I-0.3 J0.259
X8.253 Y15.357 Z1.935 I0.3 J-0.259
X7.652 Y15.876 Z1.892 I-0.3 J0.259
X8.253 Y15.357 Z1.848 I0.3 J-0.259
X7.652 Y15.876 Z1.805 I-0.3 J0.259
X8.253 Y15.357 Z1.761 I0.3 J-0.259
X7.652 Y15.876 Z1.717 I-0.3 J0.259
X8.253 Y15.357 Z1.674 I0.3 J-0.259
X7.652 Y15.876 Z1.63 I-0.3 J0.259
X8.253 Y15.357 Z1.587 I0.3 J-0.259
X7.652 Y15.876 Z1.543 I-0.3 J0.259
X8.253 Y15.357 Z1.5 I0.3 J-0.259
X7.652 Y15.876 Z1.456 I-0.3 J0.259
X8.253 Y15.357 Z1.413 I0.3 J-0.259
X7.652 Y15.876 Z1.369 I-0.3 J0.259
X8.253 Y15.357 Z1.326 I0.3 J-0.259
X7.652 Y15.876 Z1.282 I-0.3 J0.259
X8.253 Y15.357 Z1.239 I0.3 J-0.259
X7.652 Y15.876 Z1.195 I-0.3 J0.259
X8.253 Y15.357 Z1.151 I0.3 J-0.259
X7.652 Y15.876 Z1.108 I-0.3 J0.259
X8.253 Y15.357 Z1.064 I0.3 J-0.259
X7.652 Y15.876 Z1.021 I-0.3 J0.259
X8.253 Y15.357 Z0.977 I0.3 J-0.259
X7.652 Y15.876 Z0.934 I-0.3 J0.259
X8.253 Y15.357 Z0.89 I0.3 J-0.259
X7.652 Y15.876 Z0.847 I-0.3 J0.259
X8.253 Y15.357 Z0.803 I0.3 J-0.259
X7.652 Y15.876 Z0.76 I-0.3 J0.259
X8.253 Y15.357 Z0.716 I0.3 J-0.259
X7.652 Y15.876 Z0.673 I-0.3 J0.259
X8.253 Y15.357 Z0.629 I0.3 J-0.259
X7.652 Y15.876 Z0.585 I-0.3 J0.259
X8.253 Y15.357 Z0.542 I0.3 J-0.259
X7.652 Y15.876 Z0.498 I-0.3 J0.259
X8.253 Y15.357 Z0.455 I0.3 J-0.259
X7.652 Y15.876 Z0.411 I-0.3 J0.259
X8.253 Y15.357 Z0.368 I0.3 J-0.259
X7.652 Y15.876 Z0.324 I-0.3 J0.259
X8.253 Y15.357 Z0.281 I0.3 J-0.259
X7.652 Y15.876 Z0.237 I-0.3 J0.259
X8.253 Y15.357 Z0.194 I0.3 J-0.259
X7.652 Y15.876 Z0.15 I-0.3 J0.259
X8.253 Y15.357 Z0.107 I0.3 J-0.259
X7.652 Y15.876 Z0.063 I-0.3 J0.259
X8.253 Y15.357 Z0.019 I0.3 J-0.259
X7.652 Y15.876 Z-0.024 I-0.3 J0.259
X8.253 Y15.357 Z-0.068 I0.3 J-0.259
X7.652 Y15.876 Z-0.111 I-0.3 J0.259
X8.253 Y15.357 Z-0.155 I0.3 J-0.259
X7.652 Y15.876 Z-0.198 I-0.3 J0.259
X8.253 Y15.357 Z-0.242 I0.3 J-0.259
X7.652 Y15.876 Z-0.285 I-0.3 J0.259
X8.253 Y15.357 Z-0.329 I0.3 J-0.259
X7.652 Y15.876 Z-0.372 I-0.3 J0.259
X8.253 Y15.357 Z-0.416 I0.3 J-0.259
X7.652 Y15.876 Z-0.46 I-0.3 J0.259
X8.253 Y15.357 Z-0.503 I0.3 J-0.259
X7.652 Y15.876 Z-0.547 I-0.3 J0.259
X8.253 Y15.357 Z-0.59 I0.3 J-0.259
X8.349 Y15.616 Z-0.6 I-0.3 J0.259
X7.555 I-0.397 J0.
X8.349 I0.397 J0.
G1 X8.379 Y15.791
X8.386 Y15.878
X8.345 Y15.956
X8.268 Y15.999
X8.171 Y16.02
X8.098 Y16.023
X7.661
X7.566 Y16.019
X7.424 Y15.972
X7.308 Y15.876
X7.248 Y15.735
X7.242 Y15.581
X7.289 Y15.435
X7.385 Y15.315
X7.517 Y15.237
X7.669 Y15.209
X8.098
X8.169 Y15.213
X8.244 Y15.229
X8.324 Y15.247
X8.361 Y15.255
X8.39 Y15.262
X8.454 Y15.284
G3 X8.57 Y15.597 I-0.098 J0.214
X8.257 Y15.713 I-0.214 J-0.099
G1 X8.246 Y15.708
G3 X8.39 Y15.262 I0.099 J-0.214
G1 X8.427 Y15.273
X8.463 Y15.288
X8.499 Y15.309
X8.536 Y15.338
X8.557 Y15.358
X8.59 Y15.395
X8.615 Y15.431
X8.634 Y15.468
X8.649 Y15.504
X8.659 Y15.54
X8.664 Y15.577
Y15.65
X8.66 Y15.686
X8.651 Y15.723
X8.637 Y15.759
X8.619 Y15.795
X8.603 Y15.82
X8.585 Y15.845
X8.536 Y15.895
X8.503 Y15.921
X8.47 Y15.941
X8.43 Y15.959
X8.39 Y15.971
X8.268 Y15.999
X8.218 Y16.004
X7.661 Y16.023
X7.325
X7.235 Y16.019
X7.095 Y15.967
X6.983 Y15.867
X6.928 Y15.725
X6.926 Y15.573
X6.977 Y15.43
X7.074 Y15.313
X7.205 Y15.236
X7.355 Y15.209
X7.669
G3 X7.86 Y15.38 I-0.007 J0.201
X7.325 Y16.023 I-0.555 J0.082
G1 X7.002
X6.914 Y16.019
X6.774 Y15.966
X6.663 Y15.865
X6.606 Y15.693
X6.624 Y15.512
X6.714 Y15.354
X6.86 Y15.247
X7.038 Y15.209
X7.355
G3 X7.547 Y15.385 I-0.007 J0.2
X7.002 Y16.023 I-0.564 J0.07
G1 X6.705
X6.614 Y16.019
X6.471 Y15.974
X6.364 Y15.835
X6.321 Y15.666
X6.348 Y15.493
X6.44 Y15.344
X6.584 Y15.245
X6.756 Y15.209
X7.038
G3 X7.229 Y15.374 I-0.007 J0.201
X6.705 Y16.023 I-0.543 J0.098
G1 X6.413
X6.325 Y16.019
X6.183 Y15.971
X6.079 Y15.831
X6.039 Y15.661
X6.067 Y15.49
X6.161 Y15.343
X6.304 Y15.244
X6.475 Y15.209
X6.756
G3 X6.947 Y15.38 I-0.007 J0.201
X6.413 Y16.023 I-0.554 J0.084
G1 X6.121
X6.035 Y16.019
X5.894 Y15.968
X5.793 Y15.827
X5.755 Y15.658
X5.785 Y15.487
X5.879 Y15.341
X6.022 Y15.244
X6.192 Y15.209
X6.475
G3 X6.667 Y15.386 I-0.007 J0.2
X6.121 Y16.023 I-0.566 J0.068
G1 X5.835
X5.75 Y16.019
X5.609 Y15.967
X5.509 Y15.826
X5.471 Y15.657
X5.502 Y15.486
X5.596 Y15.341
X5.739 Y15.244
X5.909 Y15.209
X6.192
G3 X6.385 Y15.388 I-0.007 J0.2
X5.835 Y16.023 I-0.57 J0.063
G1 X5.543
X5.46 Y16.019
X5.32 Y15.964
X5.222 Y15.823
X5.186 Y15.654
X5.217 Y15.484
X5.312 Y15.34
X5.455 Y15.243
X5.624 Y15.209
X5.909
G3 X6.102 Y15.392 I-0.007 J0.2
X5.543 Y16.023 I-0.579 J0.05
G1 X5.251
X5.212
X5.18
X5.116 Y16.013
X4.987 Y15.937
X4.906 Y15.791
X4.884 Y15.626
X4.925 Y15.465
X5.023 Y15.33
X5.163 Y15.241
X5.326 Y15.209
X5.624
G3 X5.816 Y15.43 I-0.007 J0.2
X5.18 Y16.023 I-0.659 J-0.068
G1 X5.107 Y16.016
X5.034 Y15.999
X4.888 Y15.964
X4.832 Y15.941
X4.787 Y15.914
X4.765 Y15.896
X4.742 Y15.874
X4.707 Y15.835
X4.681 Y15.795
X4.663 Y15.759
X4.649 Y15.723
X4.64 Y15.686
X4.635 Y15.65
X4.636 Y15.577
X4.641 Y15.54
X4.651 Y15.504
X4.666 Y15.468
X4.685 Y15.431
X4.71 Y15.395
X4.743 Y15.358
X4.779 Y15.325
X4.815 Y15.3
X4.852 Y15.282
X4.888 Y15.269
X5.034 Y15.234
X5.139 Y15.213
X5.18 Y15.209
X5.326
G3 X5.632 Y15.507 I-0.011 J0.317
G1 X5.633 Y15.527 Z-0.599
X5.619 Y15.58 Z-0.591
X5.606 Y15.631 Z-0.573
X5.594 Y15.678 Z-0.546
X5.563 Y15.714 Z-0.506
X5.538 Y15.743 Z-0.458
X5.519 Y15.765 Z-0.403
X5.507 Y15.778 Z-0.344
X5.503 Y15.783 Z-0.283
G0 Z5.
X7.652 Y21.176
Z2.501
G3 X8.253 Y20.657 Z2.458 I0.3 J-0.259 F1016.
X7.652 Y21.176 Z2.414 I-0.3 J0.259
X8.253 Y20.657 Z2.371 I0.3 J-0.259
X7.652 Y21.176 Z2.327 I-0.3 J0.259
X8.253 Y20.657 Z2.284 I0.3 J-0.259
X7.652 Y21.176 Z2.24 I-0.3 J0.259
X8.253 Y20.657 Z2.196 I0.3 J-0.259
X7.652 Y21.176 Z2.153 I-0.3 J0.259
X8.253 Y20.657 Z2.109 I0.3 J-0.259
X7.652 Y21.176 Z2.066 I-0.3 J0.259
X8.253 Y20.657 Z2.022 I0.3 J-0.259
X7.652 Y21.176 Z1.979 I-0.3 J0.259
X8.253 Y20.657 Z1.935 I0.3 J-0.259
X7.652 Y21.176 Z1.892 I-0.3 J0.259
X8.253 Y20.657 Z1.848 I0.3 J-0.259
X7.652 Y21.176 Z1.805 I-0.3 J0.259
X8.253 Y20.657 Z1.761 I0.3 J-0.259
X7.652 Y21.176 Z1.717 I-0.3 J0.259
X8.253 Y20.657 Z1.674 I0.3 J-0.259
X7.652 Y21.176 Z1.63 I-0.3 J0.259
X8.253 Y20.657 Z1.587 I0.3 J-0.259
X7.652 Y21.176 Z1.543 I-0.3 J0.259
X8.253 Y20.657 Z1.5 I0.3 J-0.259
X7.652 Y21.176 Z1.456 I-0.3 J0.259
X8.253 Y20.657 Z1.413 I0.3 J-0.259
X7.652 Y21.176 Z1.369 I-0.3 J0.259
X8.253 Y20.657 Z1.326 I0.3 J-0.259
X7.652 Y21.176 Z1.282 I-0.3 J0.259
X8.253 Y20.657 Z1.239 I0.3 J-0.259
X7.652 Y21.176 Z1.195 I-0.3 J0.259
X8.253 Y20.657 Z1.151 I0.3 J-0.259
X7.652 Y21.176 Z1.108 I-0.3 J0.259
X8.253 Y20.657 Z1.064 I0.3 J-0.259
X7.652 Y21.176 Z1.021 I-0.3 J0.259
X8.253 Y20.657 Z0.977 I0.3 J-0.259
X7.652 Y21.176 Z0.934 I-0.3 J0.259
X8.253 Y20.657 Z0.89 I0.3 J-0.259
X7.652 Y21.176 Z0.847 I-0.3 J0.259
X8.253 Y20.657 Z0.803 I0.3 J-0.259
X7.652 Y21.176 Z0.76 I-0.3 J0.259
X8.253 Y20.657 Z0.716 I0.3 J-0.259
X7.652 Y21.176 Z0.673 I-0.3 J0.259
X8.253 Y20.657 Z0.629 I0.3 J-0.259
X7.652 Y21.176 Z0.585 I-0.3 J0.259
X8.253 Y20.657 Z0.542 I0.3 J-0.259
X7.652 Y21.176 Z0.498 I-0.3 J0.259
X8.253 Y20.657 Z0.455 I0.3 J-0.259
X7.652 Y21.176 Z0.411 I-0.3 J0.259
X8.253 Y20.657 Z0.368 I0.3 J-0.259
X7.652 Y21.176 Z0.324 I-0.3 J0.259
X8.253 Y20.657 Z0.281 I0.3 J-0.259
X7.652 Y21.176 Z0.237 I-0.3 J0.259
X8.253 Y20.657 Z0.194 I0.3 J-0.259
X7.652 Y21.176 Z0.15 I-0.3 J0.259
X8.253 Y20.657 Z0.107 I0.3 J-0.259
X7.652 Y21.176 Z0.063 I-0.3 J0.259
X8.253 Y20.657 Z0.019 I0.3 J-0.259
X7.652 Y21.176 Z-0.024 I-0.3 J0.259
X8.253 Y20.657 Z-0.068 I0.3 J-0.259
X7.652 Y21.176 Z-0.111 I-0.3 J0.259
X8.253 Y20.657 Z-0.155 I0.3 J-0.259
X7.652 Y21.176 Z-0.198 I-0.3 J0.259
X8.253 Y20.657 Z-0.242 I0.3 J-0.259
X7.652 Y21.176 Z-0.285 I-0.3 J0.259
X8.253 Y20.657 Z-0.329 I0.3 J-0.259
X7.652 Y21.176 Z-0.372 I-0.3 J0.259
X8.253 Y20.657 Z-0.416 I0.3 J-0.259
X7.652 Y21.176 Z-0.46 I-0.3 J0.259
X8.253 Y20.657 Z-0.503 I0.3 J-0.259
X7.652 Y21.176 Z-0.547 I-0.3 J0.259
X8.253 Y20.657 Z-0.59 I0.3 J-0.259
X8.349 Y20.916 Z-0.6 I-0.3 J0.259
X7.555 I-0.397 J0.
X8.349 I0.397 J0.
G1 X8.379 Y21.091
X8.386 Y21.178
X8.345 Y21.256
X8.268 Y21.299
X8.171 Y21.32
X8.098 Y21.323
X7.661
X7.566 Y21.319
X7.424 Y21.272
X7.308 Y21.176
X7.248 Y21.035
X7.242 Y20.881
X7.289 Y20.735
X7.385 Y20.615
X7.517 Y20.537
X7.669 Y20.509
X8.098
X8.171 Y20.513
X8.244 Y20.529
X8.324 Y20.547
X8.361 Y20.555
X8.39 Y20.562
X8.47 Y20.592
G3 X8.571 Y20.884 I-0.128 J0.207
X8.117 Y20.716 I-0.227 J-0.084
X8.39 Y20.562 I0.227 J0.084
G1 X8.441 Y20.578
X8.467 Y20.59
X8.493 Y20.605
X8.536 Y20.638
X8.59 Y20.694
X8.61 Y20.722
X8.626 Y20.751
X8.643 Y20.787
X8.655 Y20.823
X8.662 Y20.86
X8.665 Y20.896
X8.662 Y20.969
X8.656 Y21.006
X8.644 Y21.042
X8.628 Y21.078
X8.607 Y21.115
X8.579 Y21.151
X8.536 Y21.195
X8.499 Y21.224
X8.463 Y21.245
X8.427 Y21.26
X8.39 Y21.271
X8.268 Y21.299
X8.218 Y21.304
X7.661 Y21.323
X7.325
X7.235 Y21.319
X7.095 Y21.267
X6.983 Y21.167
X6.928 Y21.025
X6.926 Y20.873
X6.977 Y20.73
X7.074 Y20.613
X7.205 Y20.536
X7.355 Y20.509
X7.669
G3 X7.86 Y20.68 I-0.007 J0.201
X7.325 Y21.323 I-0.555 J0.082
G1 X7.002
X6.914 Y21.319
X6.774 Y21.266
X6.663 Y21.165
X6.606 Y20.993
X6.624 Y20.812
X6.714 Y20.654
X6.86 Y20.547
X7.038 Y20.509
X7.355
G3 X7.547 Y20.685 I-0.007 J0.2
X7.002 Y21.323 I-0.564 J0.07
G1 X6.705
X6.614 Y21.319
X6.471 Y21.274
X6.364 Y21.135
X6.321 Y20.966
X6.348 Y20.793
X6.44 Y20.644
X6.584 Y20.545
X6.756 Y20.509
X7.038
G3 X7.229 Y20.674 I-0.007 J0.201
X6.705 Y21.323 I-0.543 J0.098
G1 X6.413
X6.325 Y21.319
X6.183 Y21.271
X6.079 Y21.131
X6.039 Y20.961
X6.067 Y20.79
X6.161 Y20.643
X6.304 Y20.544
X6.475 Y20.509
X6.756
G3 X6.947 Y20.68 I-0.007 J0.201
X6.413 Y21.323 I-0.554 J0.084
G1 X6.121
X6.035 Y21.319
X5.894 Y21.268
X5.793 Y21.127
X5.755 Y20.958
X5.785 Y20.787
X5.879 Y20.641
X6.022 Y20.544
X6.192 Y20.509
X6.475
G3 X6.667 Y20.686 I-0.007 J0.2
X6.121 Y21.323 I-0.566 J0.068
G1 X5.835
X5.75 Y21.319
X5.609 Y21.267
X5.509 Y21.126
X5.471 Y20.957
X5.502 Y20.786
X5.596 Y20.641
X5.739 Y20.544
X5.909 Y20.509
X6.192
G3 X6.385 Y20.688 I-0.007 J0.2
X5.835 Y21.323 I-0.57 J0.063
G1 X5.543
X5.46 Y21.319
X5.32 Y21.264
X5.222 Y21.123
X5.186 Y20.954
X5.217 Y20.784
X5.312 Y20.64
X5.455 Y20.543
X5.624 Y20.509
X5.909
G3 X6.102 Y20.692 I-0.007 J0.2
X5.543 Y21.323 I-0.579 J0.05
G1 X5.251
X5.212
X5.18
X5.116 Y21.313
X4.987 Y21.237
X4.906 Y21.091
X4.884 Y20.926
X4.925 Y20.765
X5.023 Y20.63
X5.163 Y20.541
X5.326 Y20.509
X5.624
G3 X5.816 Y20.73 I-0.007 J0.2
X5.18 Y21.323 I-0.659 J-0.068
G1 X5.107 Y21.316
X5.034 Y21.299
X4.888 Y21.264
X4.822 Y21.236
X4.789 Y21.215
X4.756 Y21.188
X4.742 Y21.174
X4.712 Y21.141
X4.689 Y21.108
X4.671 Y21.075
X4.656 Y21.042
X4.644 Y21.006
X4.637 Y20.969
X4.635 Y20.896
X4.638 Y20.86
X4.645 Y20.823
X4.657 Y20.787
X4.674 Y20.751
X4.702 Y20.704
X4.742 Y20.658
X4.775 Y20.628
X4.808 Y20.605
X4.848 Y20.584
X4.888 Y20.569
X5.034 Y20.534
X5.107 Y20.517
X5.18 Y20.509
X5.326
G3 X5.632 Y20.807 I-0.011 J0.317
G1 X5.633 Y20.827 Z-0.599
X5.619 Y20.88 Z-0.591
X5.606 Y20.931 Z-0.573
X5.594 Y20.978 Z-0.546
X5.563 Y21.014 Z-0.506
X5.538 Y21.043 Z-0.458
X5.519 Y21.065 Z-0.403
X5.507 Y21.078 Z-0.344
X5.503 Y21.083 Z-0.283
G0 Z5.
X7.652 Y26.476
Z2.501
G3 X8.253 Y25.957 Z2.458 I0.3 J-0.259 F1016.
X7.652 Y26.476 Z2.414 I-0.3 J0.259
X8.253 Y25.957 Z2.371 I0.3 J-0.259
X7.652 Y26.476 Z2.327 I-0.3 J0.259
X8.253 Y25.957 Z2.284 I0.3 J-0.259
X7.652 Y26.476 Z2.24 I-0.3 J0.259
X8.253 Y25.957 Z2.196 I0.3 J-0.259
X7.652 Y26.476 Z2.153 I-0.3 J0.259
X8.253 Y25.957 Z2.109 I0.3 J-0.259
X7.652 Y26.476 Z2.066 I-0.3 J0.259
X8.253 Y25.957 Z2.022 I0.3 J-0.259
X7.652 Y26.476 Z1.979 I-0.3 J0.259
X8.253 Y25.957 Z1.935 I0.3 J-0.259
X7.652 Y26.476 Z1.892 I-0.3 J0.259
X8.253 Y25.957 Z1.848 I0.3 J-0.259
X7.652 Y26.476 Z1.805 I-0.3 J0.259
X8.253 Y25.957 Z1.761 I0.3 J-0.259
X7.652 Y26.476 Z1.717 I-0.3 J0.259
X8.253 Y25.957 Z1.674 I0.3 J-0.259
X7.652 Y26.476 Z1.63 I-0.3 J0.259
X8.253 Y25.957 Z1.587 I0.3 J-0.259
X7.652 Y26.476 Z1.543 I-0.3 J0.259
X8.253 Y25.957 Z1.5 I0.3 J-0.259
X7.652 Y26.476 Z1.456 I-0.3 J0.259
X8.253 Y25.957 Z1.413 I0.3 J-0.259
X7.652 Y26.476 Z1.369 I-0.3 J0.259
X8.253 Y25.957 Z1.326 I0.3 J-0.259
X7.652 Y26.476 Z1.282 I-0.3 J0.259
X8.253 Y25.957 Z1.239 I0.3 J-0.259
X7.652 Y26.476 Z1.195 I-0.3 J0.259
X8.253 Y25.957 Z1.151 I0.3 J-0.259
X7.652 Y26.476 Z1.108 I-0.3 J0.259
X8.253 Y25.957 Z1.064 I0.3 J-0.259
X7.652 Y26.476 Z1.021 I-0.3 J0.259
X8.253 Y25.957 Z0.977 I0.3 J-0.259
X7.652 Y26.476 Z0.934 I-0.3 J0.259
X8.253 Y25.957 Z0.89 I0.3 J-0.259
X7.652 Y26.476 Z0.847 I-0.3 J0.259
X8.253 Y25.957 Z0.803 I0.3 J-0.259
X7.652 Y26.476 Z0.76 I-0.3 J0.259
X8.253 Y25.957 Z0.716 I0.3 J-0.259
X7.652 Y26.476 Z0.673 I-0.3 J0.259
X8.253 Y25.957 Z0.629 I0.3 J-0.259
X7.652 Y26.476 Z0.585 I-0.3 J0.259
X8.253 Y25.957 Z0.542 I0.3 J-0.259
X7.652 Y26.476 Z0.498 I-0.3 J0.259
X8.253 Y25.957 Z0.455 I0.3 J-0.259
X7.652 Y26.476 Z0.411 I-0.3 J0.259
X8.253 Y25.957 Z0.368 I0.3 J-0.259
X7.652 Y26.476 Z0.324 I-0.3 J0.259
X8.253 Y25.957 Z0.281 I0.3 J-0.259
X7.652 Y26.476 Z0.237 I-0.3 J0.259
X8.253 Y25.957 Z0.194 I0.3 J-0.259
X7.652 Y26.476 Z0.15 I-0.3 J0.259
X8.253 Y25.957 Z0.107 I0.3 J-0.259
X7.652 Y26.476 Z0.063 I-0.3 J0.259
X8.253 Y25.957 Z0.019 I0.3 J-0.259
X7.652 Y26.476 Z-0.024 I-0.3 J0.259
X8.253 Y25.957 Z-0.068 I0.3 J-0.259
X7.652 Y26.476 Z-0.111 I-0.3 J0.259
X8.253 Y25.957 Z-0.155 I0.3 J-0.259
X7.652 Y26.476 Z-0.198 I-0.3 J0.259
X8.253 Y25.957 Z-0.242 I0.3 J-0.259
X7.652 Y26.476 Z-0.285 I-0.3 J0.259
X8.253 Y25.957 Z-0.329 I0.3 J-0.259
X7.652 Y26.476 Z-0.372 I-0.3 J0.259
X8.253 Y25.957 Z-0.416 I0.3 J-0.259
X7.652 Y26.476 Z-0.46 I-0.3 J0.259
X8.253 Y25.957 Z-0.503 I0.3 J-0.259
X7.652 Y26.476 Z-0.547 I-0.3 J0.259
X8.253 Y25.957 Z-0.59 I0.3 J-0.259
X8.349 Y26.216 Z-0.6 I-0.3 J0.259
X7.555 I-0.397 J0.
X8.349 I0.397 J0.
G1 X8.379 Y26.391
X8.386 Y26.478
X8.344 Y26.556
X8.268 Y26.599
X8.171 Y26.62
X8.098 Y26.623
X7.661
X7.566 Y26.619
X7.424 Y26.572
X7.308 Y26.476
X7.248 Y26.335
X7.242 Y26.181
X7.289 Y26.035
X7.385 Y25.915
X7.517 Y25.837
X7.669 Y25.809
X8.098
X8.171 Y25.813
X8.299 Y25.841
X8.343 Y25.851
X8.39 Y25.862
X8.427 Y25.873
X8.477 Y25.899
X8.507 Y25.917
X8.536 Y25.937
G3 X8.199 Y26.262 I-0.169 J0.163
X8.223 Y25.915 I0.169 J-0.163
G1 X8.269 Y25.887
X8.32 Y25.87
X8.373 Y25.865
X8.427 Y25.873
X8.463 Y25.889
X8.499 Y25.91
X8.536 Y25.937
X8.567 Y25.967
X8.591 Y25.997
X8.616 Y26.033
X8.635 Y26.07
X8.648 Y26.106
X8.658 Y26.143
X8.664 Y26.179
X8.666 Y26.216
X8.664 Y26.252
X8.659 Y26.288
X8.649 Y26.325
X8.635 Y26.361
X8.618 Y26.398
X8.593 Y26.434
X8.567 Y26.465
X8.536 Y26.495
X8.499 Y26.523
X8.463 Y26.544
X8.427 Y26.56
X8.39 Y26.571
X8.268 Y26.599
X8.219 Y26.604
X7.661 Y26.623
X7.325
X7.235 Y26.619
X7.095 Y26.567
X6.983 Y26.467
X6.928 Y26.325
X6.926 Y26.173
X6.977 Y26.03
X7.074 Y25.913
X7.205 Y25.836
X7.355 Y25.809
X7.669
G3 X7.86 Y25.98 I-0.007 J0.201
X7.325 Y26.623 I-0.555 J0.082
G1 X7.002
X6.914 Y26.619
X6.774 Y26.566
X6.663 Y26.465
X6.606 Y26.293
X6.624 Y26.112
X6.714 Y25.954
X6.86 Y25.847
X7.038 Y25.809
X7.355
G3 X7.547 Y25.985 I-0.007 J0.2
X7.002 Y26.623 I-0.564 J0.07
G1 X6.705
X6.614 Y26.619
X6.471 Y26.574
X6.364 Y26.435
X6.321 Y26.266
X6.348 Y26.093
X6.44 Y25.944
X6.584 Y25.845
X6.756 Y25.809
X7.038
G3 X7.229 Y25.974 I-0.007 J0.201
X6.705 Y26.623 I-0.543 J0.098
G1 X6.413
X6.325 Y26.619
X6.183 Y26.571
X6.079 Y26.431
X6.039 Y26.261
X6.067 Y26.09
X6.161 Y25.943
X6.304 Y25.844
X6.475 Y25.809
X6.756
G3 X6.947 Y25.98 I-0.007 J0.201
X6.413 Y26.623 I-0.554 J0.084
G1 X6.121
X6.035 Y26.619
X5.894 Y26.568
X5.793 Y26.427
X5.755 Y26.258
X5.785 Y26.087
X5.879 Y25.941
X6.022 Y25.844
X6.192 Y25.809
X6.475
G3 X6.667 Y25.986 I-0.007 J0.2
X6.121 Y26.623 I-0.566 J0.068
G1 X5.835
X5.75 Y26.619
X5.609 Y26.567
X5.509 Y26.426
X5.471 Y26.257
X5.502 Y26.086
X5.596 Y25.941
X5.739 Y25.844
X5.909 Y25.809
X6.192
G3 X6.385 Y25.988 I-0.007 J0.2
X5.835 Y26.623 I-0.57 J0.063
G1 X5.543
X5.46 Y26.619
X5.32 Y26.564
X5.222 Y26.423
X5.186 Y26.254
X5.217 Y26.084
X5.312 Y25.94
X5.455 Y25.843
X5.624 Y25.809
X5.909
G3 X6.102 Y25.992 I-0.007 J0.2
X5.543 Y26.623 I-0.579 J0.05
G1 X5.251
X5.212
X5.18
X5.125 Y26.617
X5.094 Y26.612
X5.063 Y26.606
X5.048 Y26.581
G3 X5.15 Y26.154 I0.274 J-0.16
G1 X5.378 Y26.006
X5.599 Y25.863
G3 X6.041 Y25.962 I0.173 J0.266
X5.934 Y26.402 I-0.27 J0.168
X5.18 Y26.623 I-0.809 J-1.36
G1 X5.144 Y26.622
X5.107 Y26.616
X5.034 Y26.599
X5.009 Y26.592
X4.913 Y26.441
X4.881 Y26.265
X4.918 Y26.09
X5.019 Y25.943
X5.168 Y25.844
X5.344 Y25.809
X5.396 Y25.818
X5.444 Y25.839
X5.485 Y25.871
X5.517 Y25.913
G3 X5.034 Y26.599 I-0.397 J0.234
G1 X4.888 Y26.565
X4.852 Y26.552
X4.815 Y26.533
X4.779 Y26.508
X4.742 Y26.475
X4.706 Y26.434
X4.682 Y26.398
X4.664 Y26.361
X4.65 Y26.325
X4.64 Y26.288
X4.635 Y26.252
X4.634 Y26.216
X4.636 Y26.179
X4.642 Y26.143
X4.652 Y26.106
X4.665 Y26.07
X4.684 Y26.033
X4.709 Y25.997
X4.742 Y25.957
X4.779 Y25.925
X4.815 Y25.901
X4.852 Y25.882
X4.888 Y25.868
X4.957 Y25.851
X5.107 Y25.817
X5.144 Y25.811
X5.18 Y25.809
X5.624
G3 X5.93 Y26.107 I-0.011 J0.317
G1 X5.931 Y26.127 Z-0.599
X5.917 Y26.18 Z-0.591
X5.904 Y26.231 Z-0.573
X5.892 Y26.278 Z-0.546
X5.861 Y26.314 Z-0.506
X5.836 Y26.343 Z-0.458
X5.817 Y26.365 Z-0.403
X5.805 Y26.378 Z-0.344
X5.801 Y26.383 Z-0.283
G0 Z5.
X7.652 Y42.376
Z2.501
G3 X8.253 Y41.857 Z2.458 I0.3 J-0.259 F1016.
X7.652 Y42.376 Z2.414 I-0.3 J0.259
X8.253 Y41.857 Z2.371 I0.3 J-0.259
X7.652 Y42.376 Z2.327 I-0.3 J0.259
X8.253 Y41.857 Z2.284 I0.3 J-0.259
X7.652 Y42.376 Z2.24 I-0.3 J0.259
X8.253 Y41.857 Z2.196 I0.3 J-0.259
X7.652 Y42.376 Z2.153 I-0.3 J0.259
X8.253 Y41.857 Z2.109 I0.3 J-0.259
X7.652 Y42.376 Z2.066 I-0.3 J0.259
X8.253 Y41.857 Z2.022 I0.3 J-0.259
X7.652 Y42.376 Z1.979 I-0.3 J0.259
X8.253 Y41.857 Z1.935 I0.3 J-0.259
X7.652 Y42.376 Z1.892 I-0.3 J0.259
X8.253 Y41.857 Z1.848 I0.3 J-0.259
X7.652 Y42.376 Z1.805 I-0.3 J0.259
X8.253 Y41.857 Z1.761 I0.3 J-0.259
X7.652 Y42.376 Z1.717 I-0.3 J0.259
X8.253 Y41.857 Z1.674 I0.3 J-0.259
X7.652 Y42.376 Z1.63 I-0.3 J0.259
X8.253 Y41.857 Z1.587 I0.3 J-0.259
X7.652 Y42.376 Z1.543 I-0.3 J0.259
X8.253 Y41.857 Z1.5 I0.3 J-0.259
X7.652 Y42.376 Z1.456 I-0.3 J0.259
X8.253 Y41.857 Z1.413 I0.3 J-0.259
X7.652 Y42.376 Z1.369 I-0.3 J0.259
X8.253 Y41.857 Z1.326 I0.3 J-0.259
X7.652 Y42.376 Z1.282 I-0.3 J0.259
X8.253 Y41.857 Z1.239 I0.3 J-0.259
X7.652 Y42.376 Z1.195 I-0.3 J0.259
X8.253 Y41.857 Z1.151 I0.3 J-0.259
X7.652 Y42.376 Z1.108 I-0.3 J0.259
X8.253 Y41.857 Z1.064 I0.3 J-0.259
X7.652 Y42.376 Z1.021 I-0.3 J0.259
X8.253 Y41.857 Z0.977 I0.3 J-0.259
X7.652 Y42.376 Z0.934 I-0.3 J0.259
X8.253 Y41.857 Z0.89 I0.3 J-0.259
X7.652 Y42.376 Z0.847 I-0.3 J0.259
X8.253 Y41.857 Z0.803 I0.3 J-0.259
X7.652 Y42.376 Z0.76 I-0.3 J0.259
X8.253 Y41.857 Z0.716 I0.3 J-0.259
X7.652 Y42.376 Z0.673 I-0.3 J0.259
X8.253 Y41.857 Z0.629 I0.3 J-0.259
X7.652 Y42.376 Z0.585 I-0.3 J0.259
X8.253 Y41.857 Z0.542 I0.3 J-0.259
X7.652 Y42.376 Z0.498 I-0.3 J0.259
X8.253 Y41.857 Z0.455 I0.3 J-0.259
X7.652 Y42.376 Z0.411 I-0.3 J0.259
X8.253 Y41.857 Z0.368 I0.3 J-0.259
X7.652 Y42.376 Z0.324 I-0.3 J0.259
X8.253 Y41.857 Z0.281 I0.3 J-0.259
X7.652 Y42.376 Z0.237 I-0.3 J0.259
X8.253 Y41.857 Z0.194 I0.3 J-0.259
X7.652 Y42.376 Z0.15 I-0.3 J0.259
X8.253 Y41.857 Z0.107 I0.3 J-0.259
X7.652 Y42.376 Z0.063 I-0.3 J0.259
X8.253 Y41.857 Z0.019 I0.3 J-0.259
X7.652 Y42.376 Z-0.024 I-0.3 J0.259
X8.253 Y41.857 Z-0.068 I0.3 J-0.259
X7.652 Y42.376 Z-0.111 I-0.3 J0.259
X8.253 Y41.857 Z-0.155 I0.3 J-0.259
X7.652 Y42.376 Z-0.198 I-0.3 J0.259
X8.253 Y41.857 Z-0.242 I0.3 J-0.259
X7.652 Y42.376 Z-0.285 I-0.3 J0.259
X8.253 Y41.857 Z-0.329 I0.3 J-0.259
X7.652 Y42.376 Z-0.372 I-0.3 J0.259
X8.253 Y41.857 Z-0.416 I0.3 J-0.259
X7.652 Y42.376 Z-0.46 I-0.3 J0.259
X8.253 Y41.857 Z-0.503 I0.3 J-0.259
X7.652 Y42.376 Z-0.547 I-0.3 J0.259
X8.253 Y41.857 Z-0.59 I0.3 J-0.259
X8.349 Y42.116 Z-0.6 I-0.3 J0.259
X7.555 I-0.397 J0.
X8.349 I0.397 J0.
G1 X8.379 Y42.291
X8.386 Y42.379
X8.344 Y42.456
X8.268 Y42.499
X8.171 Y42.52
X8.098 Y42.523
X7.661
X7.566 Y42.519
X7.424 Y42.472
X7.308 Y42.376
X7.248 Y42.235
X7.242 Y42.081
X7.289 Y41.935
X7.385 Y41.815
X7.517 Y41.737
X7.669 Y41.709
X8.098
X8.171 Y41.713
X8.279 Y41.736
X8.34 Y41.75
X8.367 Y41.757
X8.39 Y41.762
X8.451 Y41.783
G3 X8.219 Y42.275 I-0.116 J0.246
X8.299 Y41.759 I0.116 J-0.246
G1 X8.345 Y41.757
X8.39 Y41.762
X8.427 Y41.772
X8.463 Y41.788
X8.499 Y41.81
X8.536 Y41.837
X8.581 Y41.882
X8.608 Y41.919
X8.628 Y41.955
X8.643 Y41.991
X8.655 Y42.028
X8.663 Y42.064
X8.666 Y42.101
X8.665 Y42.137
X8.662 Y42.174
X8.654 Y42.21
X8.641 Y42.247
X8.625 Y42.283
X8.604 Y42.319
X8.576 Y42.358
X8.536 Y42.396
X8.505 Y42.42
X8.474 Y42.439
X8.443 Y42.454
X8.412 Y42.465
X8.39 Y42.471
X8.268 Y42.499
X8.219 Y42.504
X7.661 Y42.523
X7.325
X7.235 Y42.519
X7.095 Y42.467
X6.983 Y42.367
X6.928 Y42.225
X6.926 Y42.073
X6.977 Y41.93
X7.074 Y41.813
X7.205 Y41.736
X7.355 Y41.709
X7.669
G3 X7.86 Y41.88 I-0.007 J0.201
X7.325 Y42.523 I-0.555 J0.082
G1 X7.002
X6.914 Y42.519
X6.774 Y42.466
X6.663 Y42.365
X6.606 Y42.193
X6.624 Y42.012
X6.714 Y41.854
X6.86 Y41.747
X7.038 Y41.709
X7.355
G3 X7.547 Y41.885 I-0.007 J0.2
X7.002 Y42.523 I-0.564 J0.07
G1 X6.705
X6.614 Y42.519
X6.471 Y42.474
X6.364 Y42.335
X6.321 Y42.166
X6.348 Y41.993
X6.44 Y41.844
X6.584 Y41.745
X6.756 Y41.709
X7.038
G3 X7.229 Y41.874 I-0.007 J0.201
X6.705 Y42.523 I-0.543 J0.098
G1 X6.413
X6.325 Y42.519
X6.183 Y42.471
X6.079 Y42.331
X6.039 Y42.161
X6.067 Y41.99
X6.161 Y41.843
X6.304 Y41.744
X6.475 Y41.709
X6.756
G3 X6.947 Y41.88 I-0.007 J0.201
X6.413 Y42.523 I-0.554 J0.084
G1 X6.121
X6.035 Y42.519
X5.894 Y42.468
X5.793 Y42.327
X5.755 Y42.158
X5.785 Y41.987
X5.879 Y41.841
X6.022 Y41.744
X6.192 Y41.709
X6.475
G3 X6.667 Y41.886 I-0.007 J0.2
X6.121 Y42.523 I-0.566 J0.068
G1 X5.835
X5.75 Y42.519
X5.609 Y42.467
X5.509 Y42.326
X5.471 Y42.157
X5.502 Y41.986
X5.596 Y41.841
X5.739 Y41.744
X5.909 Y41.709
X6.192
G3 X6.385 Y41.888 I-0.007 J0.2
X5.835 Y42.523 I-0.57 J0.063
G1 X5.543
X5.46 Y42.519
X5.32 Y42.464
X5.222 Y42.323
X5.186 Y42.154
X5.217 Y41.984
X5.312 Y41.84
X5.455 Y41.743
X5.624 Y41.709
X5.909
G3 X6.102 Y41.892 I-0.007 J0.2
X5.543 Y42.523 I-0.579 J0.05
G1 X5.251
X5.212
X5.18
X5.124 Y42.517
X5.094 Y42.512
X5.064 Y42.506
X5.05 Y42.481
G3 X5.15 Y42.054 I0.274 J-0.161
G1 X5.379 Y41.906
X5.598 Y41.763
G3 X6.041 Y41.862 I0.173 J0.266
X5.934 Y42.302 I-0.27 J0.168
X5.18 Y42.523 I-0.809 J-1.36
G1 X5.144 Y42.521
X5.107 Y42.516
X5.034 Y42.499
X5.009 Y42.492
X4.913 Y42.341
X4.881 Y42.165
X4.918 Y41.99
X5.019 Y41.842
X5.168 Y41.744
X5.344 Y41.709
X5.396 Y41.718
X5.444 Y41.739
X5.485 Y41.771
X5.517 Y41.813
G3 X5.034 Y42.499 I-0.398 J0.233
G1 X4.888 Y42.465
X4.852 Y42.452
X4.815 Y42.433
X4.779 Y42.408
X4.742 Y42.377
X4.716 Y42.348
X4.696 Y42.319
X4.675 Y42.283
X4.659 Y42.247
X4.646 Y42.21
X4.638 Y42.174
X4.635 Y42.137
X4.634 Y42.101
X4.637 Y42.064
X4.645 Y42.028
X4.657 Y41.991
X4.672 Y41.955
X4.692 Y41.919
X4.719 Y41.882
X4.742 Y41.857
X4.779 Y41.825
X4.815 Y41.8
X4.852 Y41.781
X4.888 Y41.768
X5.034 Y41.734
X5.107 Y41.717
X5.144 Y41.711
X5.18 Y41.709
X5.624
G3 X5.93 Y42.007 I-0.011 J0.317
G1 X5.931 Y42.027 Z-0.599
X5.917 Y42.08 Z-0.591
X5.904 Y42.131 Z-0.573
X5.892 Y42.178 Z-0.546
X5.861 Y42.214 Z-0.506
X5.836 Y42.243 Z-0.458
X5.817 Y42.265 Z-0.403
X5.805 Y42.278 Z-0.344
X5.801 Y42.283 Z-0.283
G0 Z5.
X7.652 Y47.676
Z2.501
G3 X8.253 Y47.157 Z2.458 I0.3 J-0.259 F1016.
X7.652 Y47.676 Z2.414 I-0.3 J0.259
X8.253 Y47.157 Z2.371 I0.3 J-0.259
X7.652 Y47.676 Z2.327 I-0.3 J0.259
X8.253 Y47.157 Z2.284 I0.3 J-0.259
X7.652 Y47.676 Z2.24 I-0.3 J0.259
X8.253 Y47.157 Z2.196 I0.3 J-0.259
X7.652 Y47.676 Z2.153 I-0.3 J0.259
X8.253 Y47.157 Z2.109 I0.3 J-0.259
X7.652 Y47.676 Z2.066 I-0.3 J0.259
X8.253 Y47.157 Z2.022 I0.3 J-0.259
X7.652 Y47.676 Z1.979 I-0.3 J0.259
X8.253 Y47.157 Z1.935 I0.3 J-0.259
X7.652 Y47.676 Z1.892 I-0.3 J0.259
X8.253 Y47.157 Z1.848 I0.3 J-0.259
X7.652 Y47.676 Z1.805 I-0.3 J0.259
X8.253 Y47.157 Z1.761 I0.3 J-0.259
X7.652 Y47.676 Z1.717 I-0.3 J0.259
X8.253 Y47.157 Z1.674 I0.3 J-0.259
X7.652 Y47.676 Z1.63 I-0.3 J0.259
X8.253 Y47.157 Z1.587 I0.3 J-0.259
X7.652 Y47.676 Z1.543 I-0.3 J0.259
X8.253 Y47.157 Z1.5 I0.3 J-0.259
X7.652 Y47.676 Z1.456 I-0.3 J0.259
X8.253 Y47.157 Z1.413 I0.3 J-0.259
X7.652 Y47.676 Z1.369 I-0.3 J0.259
X8.253 Y47.157 Z1.326 I0.3 J-0.259
X7.652 Y47.676 Z1.282 I-0.3 J0.259
X8.253 Y47.157 Z1.239 I0.3 J-0.259
X7.652 Y47.676 Z1.195 I-0.3 J0.259
X8.253 Y47.157 Z1.151 I0.3 J-0.259
X7.652 Y47.676 Z1.108 I-0.3 J0.259
X8.253 Y47.157 Z1.064 I0.3 J-0.259
X7.652 Y47.676 Z1.021 I-0.3 J0.259
X8.253 Y47.157 Z0.977 I0.3 J-0.259
X7.652 Y47.676 Z0.934 I-0.3 J0.259
X8.253 Y47.157 Z0.89 I0.3 J-0.259
X7.652 Y47.676 Z0.847 I-0.3 J0.259
X8.253 Y47.157 Z0.803 I0.3 J-0.259
X7.652 Y47.676 Z0.76 I-0.3 J0.259
X8.253 Y47.157 Z0.716 I0.3 J-0.259
X7.652 Y47.676 Z0.673 I-0.3 J0.259
X8.253 Y47.157 Z0.629 I0.3 J-0.259
X7.652 Y47.676 Z0.585 I-0.3 J0.259
X8.253 Y47.157 Z0.542 I0.3 J-0.259
X7.652 Y47.676 Z0.498 I-0.3 J0.259
X8.253 Y47.157 Z0.455 I0.3 J-0.259
X7.652 Y47.676 Z0.411 I-0.3 J0.259
X8.253 Y47.157 Z0.368 I0.3 J-0.259
X7.652 Y47.676 Z0.324 I-0.3 J0.259
X8.253 Y47.157 Z0.281 I0.3 J-0.259
X7.652 Y47.676 Z0.237 I-0.3 J0.259
X8.253 Y47.157 Z0.194 I0.3 J-0.259
X7.652 Y47.676 Z0.15 I-0.3 J0.259
X8.253 Y47.157 Z0.107 I0.3 J-0.259
X7.652 Y47.676 Z0.063 I-0.3 J0.259
X8.253 Y47.157 Z0.019 I0.3 J-0.259
X7.652 Y47.676 Z-0.024 I-0.3 J0.259
X8.253 Y47.157 Z-0.068 I0.3 J-0.259
X7.652 Y47.676 Z-0.111 I-0.3 J0.259
X8.253 Y47.157 Z-0.155 I0.3 J-0.259
X7.652 Y47.676 Z-0.198 I-0.3 J0.259
X8.253 Y47.157 Z-0.242 I0.3 J-0.259
X7.652 Y47.676 Z-0.285 I-0.3 J0.259
X8.253 Y47.157 Z-0.329 I0.3 J-0.259
X7.652 Y47.676 Z-0.372 I-0.3 J0.259
X8.253 Y47.157 Z-0.416 I0.3 J-0.259
X7.652 Y47.676 Z-0.46 I-0.3 J0.259
X8.253 Y47.157 Z-0.503 I0.3 J-0.259
X7.652 Y47.676 Z-0.547 I-0.3 J0.259
X8.253 Y47.157 Z-0.59 I0.3 J-0.259
X8.349 Y47.416 Z-0.6 I-0.3 J0.259
X7.555 I-0.397 J0.
X8.349 I0.397 J0.
G1 X8.379 Y47.59
X8.386 Y47.678
X8.345 Y47.756
X8.268 Y47.799
X8.171 Y47.819
X8.098 Y47.823
X7.661
X7.566 Y47.819
X7.424 Y47.772
X7.308 Y47.676
X7.248 Y47.535
X7.242 Y47.381
X7.289 Y47.235
X7.385 Y47.115
X7.517 Y47.037
X7.669 Y47.009
X8.098
X8.171 Y47.013
X8.244 Y47.029
X8.324 Y47.047
X8.361 Y47.055
X8.39 Y47.062
X8.454 Y47.084
G3 X8.305 Y47.443 I-0.079 J0.178
G1 X8.282 Y47.434
G3 X8.39 Y47.062 I0.07 J-0.181
G1 X8.424 Y47.072
X8.458 Y47.086
X8.492 Y47.104
X8.526 Y47.129
X8.536 Y47.138
X8.57 Y47.172
X8.599 Y47.206
X8.621 Y47.24
X8.637 Y47.274
X8.651 Y47.311
X8.66 Y47.347
X8.664 Y47.384
X8.666 Y47.42
X8.664 Y47.457
X8.658 Y47.493
X8.649 Y47.529
X8.634 Y47.566
X8.617 Y47.598
X8.596 Y47.63
X8.569 Y47.663
X8.536 Y47.695
X8.516 Y47.712
X8.485 Y47.733
X8.453 Y47.749
X8.39 Y47.771
X8.268 Y47.799
X8.218 Y47.804
X7.661 Y47.823
X7.325
X7.235 Y47.819
X7.095 Y47.767
X6.983 Y47.667
X6.928 Y47.525
X6.926 Y47.373
X6.977 Y47.23
X7.074 Y47.113
X7.205 Y47.036
X7.355 Y47.009
X7.669
G3 X7.86 Y47.18 I-0.007 J0.201
X7.325 Y47.823 I-0.555 J0.082
G1 X7.002
X6.914 Y47.819
X6.774 Y47.766
X6.663 Y47.665
X6.606 Y47.493
X6.624 Y47.312
X6.714 Y47.154
X6.86 Y47.047
X7.038 Y47.009
X7.355
G3 X7.547 Y47.185 I-0.007 J0.2
X7.002 Y47.823 I-0.564 J0.07
G1 X6.705
X6.614 Y47.819
X6.471 Y47.774
X6.364 Y47.635
X6.321 Y47.466
X6.348 Y47.293
X6.44 Y47.144
X6.584 Y47.045
X6.756 Y47.009
X7.038
G3 X7.229 Y47.174 I-0.007 J0.201
X6.705 Y47.823 I-0.543 J0.098
G1 X6.413
X6.325 Y47.819
X6.183 Y47.771
X6.079 Y47.631
X6.039 Y47.461
X6.067 Y47.29
X6.161 Y47.143
X6.304 Y47.044
X6.475 Y47.009
X6.756
G3 X6.947 Y47.18 I-0.007 J0.201
X6.413 Y47.823 I-0.554 J0.084
G1 X6.121
X6.035 Y47.819
X5.894 Y47.768
X5.793 Y47.627
X5.755 Y47.458
X5.785 Y47.287
X5.879 Y47.141
X6.022 Y47.044
X6.192 Y47.009
X6.475
G3 X6.667 Y47.186 I-0.007 J0.2
X6.121 Y47.823 I-0.566 J0.068
G1 X5.835
X5.75 Y47.819
X5.609 Y47.767
X5.509 Y47.626
X5.471 Y47.457
X5.502 Y47.286
X5.596 Y47.141
X5.739 Y47.044
X5.909 Y47.009
X6.192
G3 X6.385 Y47.188 I-0.007 J0.2
X5.835 Y47.823 I-0.57 J0.063
G1 X5.543
X5.46 Y47.819
X5.32 Y47.764
X5.222 Y47.623
X5.186 Y47.454
X5.217 Y47.284
X5.312 Y47.14
X5.455 Y47.043
X5.624 Y47.009
X5.909
G3 X6.102 Y47.192 I-0.007 J0.2
X5.543 Y47.823 I-0.579 J0.05
G1 X5.251
X5.212
X5.18
X5.122 Y47.817
X5.091 Y47.812
X5.061 Y47.805
X5.047 Y47.78
G3 X5.149 Y47.354 I0.274 J-0.16
G1 X5.377 Y47.206
X5.599 Y47.063
G3 X6.041 Y47.162 I0.172 J0.267
X5.934 Y47.602 I-0.27 J0.167
X5.18 Y47.823 I-0.809 J-1.36
G1 X5.144 Y47.821
X5.107 Y47.816
X5.034 Y47.799
X5.009 Y47.792
X4.912 Y47.641
X4.881 Y47.465
X4.918 Y47.29
X5.019 Y47.142
X5.168 Y47.044
X5.344 Y47.009
X5.395 Y47.018
X5.443 Y47.039
X5.485 Y47.071
X5.517 Y47.112
G3 X5.034 Y47.799 I-0.397 J0.234
G1 X4.888 Y47.765
X4.862 Y47.756
X4.836 Y47.745
X4.81 Y47.73
X4.784 Y47.712
X4.742 Y47.677
X4.717 Y47.649
X4.697 Y47.621
X4.666 Y47.566
X4.651 Y47.529
X4.641 Y47.493
X4.636 Y47.457
X4.634 Y47.42
X4.636 Y47.384
X4.64 Y47.347
X4.649 Y47.311
X4.663 Y47.274
X4.694 Y47.216
X4.742 Y47.158
X4.774 Y47.129
X4.803 Y47.108
X4.831 Y47.092
X4.888 Y47.069
X5.034 Y47.034
X5.107 Y47.017
X5.18 Y47.009
X5.624
G3 X5.93 Y47.307 I-0.011 J0.317
G1 X5.931 Y47.327 Z-0.599
X5.917 Y47.38 Z-0.591
X5.904 Y47.431 Z-0.573
X5.892 Y47.478 Z-0.546
X5.861 Y47.514 Z-0.506
X5.836 Y47.543 Z-0.458
X5.817 Y47.565 Z-0.403
X5.805 Y47.578 Z-0.344
X5.801 Y47.583 Z-0.283
G0 Z5.
X7.652 Y52.976
Z2.501
G3 X8.253 Y52.457 Z2.458 I0.3 J-0.259 F1016.
X7.652 Y52.976 Z2.414 I-0.3 J0.259
X8.253 Y52.457 Z2.371 I0.3 J-0.259
X7.652 Y52.976 Z2.327 I-0.3 J0.259
X8.253 Y52.457 Z2.284 I0.3 J-0.259
X7.652 Y52.976 Z2.24 I-0.3 J0.259
X8.253 Y52.457 Z2.196 I0.3 J-0.259
X7.652 Y52.976 Z2.153 I-0.3 J0.259
X8.253 Y52.457 Z2.109 I0.3 J-0.259
X7.652 Y52.976 Z2.066 I-0.3 J0.259
X8.253 Y52.457 Z2.022 I0.3 J-0.259
X7.652 Y52.976 Z1.979 I-0.3 J0.259
X8.253 Y52.457 Z1.935 I0.3 J-0.259
X7.652 Y52.976 Z1.892 I-0.3 J0.259
X8.253 Y52.457 Z1.848 I0.3 J-0.259
X7.652 Y52.976 Z1.805 I-0.3 J0.259
X8.253 Y52.457 Z1.761 I0.3 J-0.259
X7.652 Y52.976 Z1.717 I-0.3 J0.259
X8.253 Y52.457 Z1.674 I0.3 J-0.259
X7.652 Y52.976 Z1.63 I-0.3 J0.259
X8.253 Y52.457 Z1.587 I0.3 J-0.259
X7.652 Y52.976 Z1.543 I-0.3 J0.259
X8.253 Y52.457 Z1.5 I0.3 J-0.259
X7.652 Y52.976 Z1.456 I-0.3 J0.259
X8.253 Y52.457 Z1.413 I0.3 J-0.259
X7.652 Y52.976 Z1.369 I-0.3 J0.259
X8.253 Y52.457 Z1.326 I0.3 J-0.259
X7.652 Y52.976 Z1.282 I-0.3 J0.259
X8.253 Y52.457 Z1.239 I0.3 J-0.259
X7.652 Y52.976 Z1.195 I-0.3 J0.259
X8.253 Y52.457 Z1.151 I0.3 J-0.259
X7.652 Y52.976 Z1.108 I-0.3 J0.259
X8.253 Y52.457 Z1.064 I0.3 J-0.259
X7.652 Y52.976 Z1.021 I-0.3 J0.259
X8.253 Y52.457 Z0.977 I0.3 J-0.259
X7.652 Y52.976 Z0.934 I-0.3 J0.259
X8.253 Y52.457 Z0.89 I0.3 J-0.259
X7.652 Y52.976 Z0.847 I-0.3 J0.259
X8.253 Y52.457 Z0.803 I0.3 J-0.259
X7.652 Y52.976 Z0.76 I-0.3 J0.259
X8.253 Y52.457 Z0.716 I0.3 J-0.259
X7.652 Y52.976 Z0.673 I-0.3 J0.259
X8.253 Y52.457 Z0.629 I0.3 J-0.259
X7.652 Y52.976 Z0.585 I-0.3 J0.259
X8.253 Y52.457 Z0.542 I0.3 J-0.259
X7.652 Y52.976 Z0.498 I-0.3 J0.259
X8.253 Y52.457 Z0.455 I0.3 J-0.259
X7.652 Y52.976 Z0.411 I-0.3 J0.259
X8.253 Y52.457 Z0.368 I0.3 J-0.259
X7.652 Y52.976 Z0.324 I-0.3 J0.259
X8.253 Y52.457 Z0.281 I0.3 J-0.259
X7.652 Y52.976 Z0.237 I-0.3 J0.259
X8.253 Y52.457 Z0.194 I0.3 J-0.259
X7.652 Y52.976 Z0.15 I-0.3 J0.259
X8.253 Y52.457 Z0.107 I0.3 J-0.259
X7.652 Y52.976 Z0.063 I-0.3 J0.259
X8.253 Y52.457 Z0.019 I0.3 J-0.259
X7.652 Y52.976 Z-0.024 I-0.3 J0.259
X8.253 Y52.457 Z-0.068 I0.3 J-0.259
X7.652 Y52.976 Z-0.111 I-0.3 J0.259
X8.253 Y52.457 Z-0.155 I0.3 J-0.259
X7.652 Y52.976 Z-0.198 I-0.3 J0.259
X8.253 Y52.457 Z-0.242 I0.3 J-0.259
X7.652 Y52.976 Z-0.285 I-0.3 J0.259
X8.253 Y52.457 Z-0.329 I0.3 J-0.259
X7.652 Y52.976 Z-0.372 I-0.3 J0.259
X8.253 Y52.457 Z-0.416 I0.3 J-0.259
X7.652 Y52.976 Z-0.46 I-0.3 J0.259
X8.253 Y52.457 Z-0.503 I0.3 J-0.259
X7.652 Y52.976 Z-0.547 I-0.3 J0.259
X8.253 Y52.457 Z-0.59 I0.3 J-0.259
X8.349 Y52.716 Z-0.6 I-0.3 J0.259
X7.555 I-0.397 J0.
X8.349 I0.397 J0.
G1 X8.379 Y52.891
X8.386 Y52.978
X8.345 Y53.056
X8.268 Y53.099
X8.171 Y53.12
X8.098 Y53.123
X7.661
X7.566 Y53.119
X7.424 Y53.072
X7.308 Y52.976
X7.248 Y52.835
X7.242 Y52.681
X7.289 Y52.535
X7.385 Y52.415
X7.517 Y52.337
X7.669 Y52.309
X8.098
X8.171 Y52.313
X8.244 Y52.329
X8.324 Y52.347
X8.361 Y52.355
X8.39 Y52.362
X8.462 Y52.393
X8.523 Y52.432
X8.577 Y52.479
G3 X8.587 Y52.816 I-0.248 J0.176
X8.078 Y52.498 I-0.254 J-0.159
X8.39 Y52.362 I0.254 J0.159
G1 X8.433 Y52.375
X8.459 Y52.386
X8.484 Y52.4
X8.51 Y52.417
X8.536 Y52.438
X8.577 Y52.479
X8.609 Y52.521
X8.629 Y52.557
X8.645 Y52.594
X8.656 Y52.63
X8.663 Y52.667
X8.665 Y52.74
X8.662 Y52.776
X8.654 Y52.812
X8.641 Y52.849
X8.624 Y52.885
X8.603 Y52.922
X8.573 Y52.958
X8.536 Y52.995
X8.499 Y53.024
X8.463 Y53.045
X8.427 Y53.06
X8.39 Y53.071
X8.268 Y53.099
X8.218 Y53.104
X7.661 Y53.123
X7.325
X7.235 Y53.119
X7.095 Y53.067
X6.983 Y52.967
X6.928 Y52.825
X6.926 Y52.673
X6.977 Y52.53
X7.074 Y52.413
X7.205 Y52.336
X7.355 Y52.309
X7.669
G3 X7.86 Y52.48 I-0.007 J0.201
X7.325 Y53.123 I-0.555 J0.082
G1 X7.002
X6.914 Y53.119
X6.774 Y53.066
X6.663 Y52.965
X6.606 Y52.793
X6.624 Y52.612
X6.714 Y52.454
X6.86 Y52.347
X7.038 Y52.309
X7.355
G3 X7.547 Y52.485 I-0.007 J0.2
X7.002 Y53.123 I-0.564 J0.07
G1 X6.705
X6.614 Y53.119
X6.471 Y53.074
X6.364 Y52.935
X6.321 Y52.766
X6.348 Y52.593
X6.44 Y52.444
X6.584 Y52.345
X6.756 Y52.309
X7.038
G3 X7.229 Y52.474 I-0.007 J0.201
X6.705 Y53.123 I-0.543 J0.098
G1 X6.413
X6.325 Y53.119
X6.183 Y53.071
X6.079 Y52.931
X6.039 Y52.761
X6.067 Y52.59
X6.161 Y52.443
X6.304 Y52.344
X6.475 Y52.309
X6.756
G3 X6.947 Y52.48 I-0.007 J0.201
X6.413 Y53.123 I-0.554 J0.084
G1 X6.121
X6.035 Y53.119
X5.894 Y53.068
X5.793 Y52.927
X5.755 Y52.758
X5.785 Y52.587
X5.879 Y52.441
X6.022 Y52.344
X6.192 Y52.309
X6.475
G3 X6.667 Y52.486 I-0.007 J0.2
X6.121 Y53.123 I-0.566 J0.068
G1 X5.835
X5.75 Y53.119
X5.609 Y53.067
X5.509 Y52.926
X5.471 Y52.757
X5.502 Y52.586
X5.596 Y52.441
X5.739 Y52.344
X5.909 Y52.309
X6.192
G3 X6.385 Y52.488 I-0.007 J0.2
X5.835 Y53.123 I-0.57 J0.063
G1 X5.543
X5.46 Y53.119
X5.32 Y53.064
X5.222 Y52.923
X5.186 Y52.754
X5.217 Y52.584
X5.312 Y52.44
X5.455 Y52.343
X5.624 Y52.309
X5.909
G3 X6.102 Y52.492 I-0.007 J0.2
X5.543 Y53.123 I-0.579 J0.05
G1 X5.251
X5.212
X5.18
X5.076 Y53.108
X5.036 Y53.1
X5.021 Y53.075
G3 X5.132 Y52.643 I0.275 J-0.159
G1 X5.358 Y52.508
X5.608 Y52.357
G3 X6.044 Y52.466 I0.164 J0.272
X5.934 Y52.902 I-0.273 J0.163
X5.18 Y53.123 I-0.809 J-1.36
G1 X5.117 Y53.117
X5.034 Y53.099
X5.009 Y53.092
X4.912 Y52.941
X4.881 Y52.765
X4.918 Y52.59
X5.019 Y52.442
X5.168 Y52.344
X5.344 Y52.309
X5.395 Y52.318
X5.443 Y52.338
X5.484 Y52.37
X5.517 Y52.412
G3 X5.034 Y53.099 I-0.396 J0.235
G1 X4.888 Y53.064
X4.852 Y53.05
X4.815 Y53.032
X4.779 Y53.008
X4.742 Y52.974
X4.727 Y52.958
X4.698 Y52.922
X4.676 Y52.885
X4.659 Y52.849
X4.646 Y52.812
X4.638 Y52.776
X4.635 Y52.74
X4.637 Y52.667
X4.644 Y52.63
X4.655 Y52.594
X4.671 Y52.557
X4.691 Y52.521
X4.714 Y52.49
X4.742 Y52.458
X4.774 Y52.429
X4.806 Y52.406
X4.838 Y52.388
X4.888 Y52.369
X5.034 Y52.334
X5.107 Y52.317
X5.18 Y52.309
X5.624
G3 X5.93 Y52.607 I-0.011 J0.317
G1 X5.931 Y52.627 Z-0.599
X5.917 Y52.68 Z-0.591
X5.904 Y52.731 Z-0.573
X5.892 Y52.778 Z-0.546
X5.861 Y52.814 Z-0.506
X5.836 Y52.843 Z-0.458
X5.817 Y52.865 Z-0.403
X5.805 Y52.878 Z-0.344
X5.801 Y52.883 Z-0.283
G0 Z5.
X7.652 Y63.576
Z2.501
G3 X8.253 Y63.057 Z2.458 I0.3 J-0.259 F1016.
X7.652 Y63.576 Z2.414 I-0.3 J0.259
X8.253 Y63.057 Z2.371 I0.3 J-0.259
X7.652 Y63.576 Z2.327 I-0.3 J0.259
X8.253 Y63.057 Z2.284 I0.3 J-0.259
X7.652 Y63.576 Z2.24 I-0.3 J0.259
X8.253 Y63.057 Z2.196 I0.3 J-0.259
X7.652 Y63.576 Z2.153 I-0.3 J0.259
X8.253 Y63.057 Z2.109 I0.3 J-0.259
X7.652 Y63.576 Z2.066 I-0.3 J0.259
X8.253 Y63.057 Z2.022 I0.3 J-0.259
X7.652 Y63.576 Z1.979 I-0.3 J0.259
X8.253 Y63.057 Z1.935 I0.3 J-0.259
X7.652 Y63.576 Z1.892 I-0.3 J0.259
X8.253 Y63.057 Z1.848 I0.3 J-0.259
X7.652 Y63.576 Z1.805 I-0.3 J0.259
X8.253 Y63.057 Z1.761 I0.3 J-0.259
X7.652 Y63.576 Z1.717 I-0.3 J0.259
X8.253 Y63.057 Z1.674 I0.3 J-0.259
X7.652 Y63.576 Z1.63 I-0.3 J0.259
X8.253 Y63.057 Z1.587 I0.3 J-0.259
X7.652 Y63.576 Z1.543 I-0.3 J0.259
X8.253 Y63.057 Z1.5 I0.3 J-0.259
X7.652 Y63.576 Z1.456 I-0.3 J0.259
X8.253 Y63.057 Z1.413 I0.3 J-0.259
X7.652 Y63.576 Z1.369 I-0.3 J0.259
X8.253 Y63.057 Z1.326 I0.3 J-0.259
X7.652 Y63.576 Z1.282 I-0.3 J0.259
X8.253 Y63.057 Z1.239 I0.3 J-0.259
X7.652 Y63.576 Z1.195 I-0.3 J0.259
X8.253 Y63.057 Z1.151 I0.3 J-0.259
X7.652 Y63.576 Z1.108 I-0.3 J0.259
X8.253 Y63.057 Z1.064 I0.3 J-0.259
X7.652 Y63.576 Z1.021 I-0.3 J0.259
X8.253 Y63.057 Z0.977 I0.3 J-0.259
X7.652 Y63.576 Z0.934 I-0.3 J0.259
X8.253 Y63.057 Z0.89 I0.3 J-0.259
X7.652 Y63.576 Z0.847 I-0.3 J0.259
X8.253 Y63.057 Z0.803 I0.3 J-0.259
X7.652 Y63.576 Z0.76 I-0.3 J0.259
X8.253 Y63.057 Z0.716 I0.3 J-0.259
X7.652 Y63.576 Z0.673 I-0.3 J0.259
X8.253 Y63.057 Z0.629 I0.3 J-0.259
X7.652 Y63.576 Z0.585 I-0.3 J0.259
X8.253 Y63.057 Z0.542 I0.3 J-0.259
X7.652 Y63.576 Z0.498 I-0.3 J0.259
X8.253 Y63.057 Z0.455 I0.3 J-0.259
X7.652 Y63.576 Z0.411 I-0.3 J0.259
X8.253 Y63.057 Z0.368 I0.3 J-0.259
X7.652 Y63.576 Z0.324 I-0.3 J0.259
X8.253 Y63.057 Z0.281 I0.3 J-0.259
X7.652 Y63.576 Z0.237 I-0.3 J0.259
X8.253 Y63.057 Z0.194 I0.3 J-0.259
X7.652 Y63.576 Z0.15 I-0.3 J0.259
X8.253 Y63.057 Z0.107 I0.3 J-0.259
X7.652 Y63.576 Z0.063 I-0.3 J0.259
X8.253 Y63.057 Z0.019 I0.3 J-0.259
X7.652 Y63.576 Z-0.024 I-0.3 J0.259
X8.253 Y63.057 Z-0.068 I0.3 J-0.259
X7.652 Y63.576 Z-0.111 I-0.3 J0.259
X8.253 Y63.057 Z-0.155 I0.3 J-0.259
X7.652 Y63.576 Z-0.198 I-0.3 J0.259
X8.253 Y63.057 Z-0.242 I0.3 J-0.259
X7.652 Y63.576 Z-0.285 I-0.3 J0.259
X8.253 Y63.057 Z-0.329 I0.3 J-0.259
X7.652 Y63.576 Z-0.372 I-0.3 J0.259
X8.253 Y63.057 Z-0.416 I0.3 J-0.259
X7.652 Y63.576 Z-0.46 I-0.3 J0.259
X8.253 Y63.057 Z-0.503 I0.3 J-0.259
X7.652 Y63.576 Z-0.547 I-0.3 J0.259
X8.253 Y63.057 Z-0.59 I0.3 J-0.259
X8.349 Y63.316 Z-0.6 I-0.3 J0.259
X7.555 I-0.397 J0.
X8.349 I0.397 J0.
G1 X8.379 Y63.491
X8.386 Y63.578
X8.345 Y63.656
X8.268 Y63.699
X8.171 Y63.72
X8.098 Y63.723
X7.661
X7.566 Y63.719
X7.424 Y63.672
X7.308 Y63.576
X7.248 Y63.435
X7.242 Y63.281
X7.289 Y63.135
X7.385 Y63.015
X7.517 Y62.937
X7.669 Y62.909
X8.098
X8.171 Y62.913
X8.244 Y62.929
X8.324 Y62.947
X8.361 Y62.955
X8.39 Y62.962
X8.407 Y62.969
X8.476 Y63.002
X8.539 Y63.045
X8.594 Y63.099
G3 X8.589 Y63.44 I-0.265 J0.167
X8.073 Y63.094 I-0.258 J-0.173
X8.39 Y62.962 I0.258 J0.173
G1 X8.448 Y62.981
X8.477 Y62.996
X8.506 Y63.014
X8.536 Y63.038
X8.567 Y63.068
X8.594 Y63.099
X8.614 Y63.129
X8.63 Y63.16
X8.646 Y63.196
X8.657 Y63.232
X8.663 Y63.269
X8.665 Y63.305
Y63.342
X8.661 Y63.378
X8.653 Y63.415
X8.64 Y63.451
X8.623 Y63.487
X8.602 Y63.523
X8.572 Y63.559
X8.534 Y63.597
X8.498 Y63.625
X8.462 Y63.645
X8.426 Y63.66
X8.39 Y63.671
X8.268 Y63.699
X8.218 Y63.704
X7.661 Y63.723
X7.325
X7.235 Y63.719
X7.095 Y63.667
X6.983 Y63.567
X6.928 Y63.425
X6.926 Y63.273
X6.977 Y63.13
X7.074 Y63.013
X7.205 Y62.936
X7.355 Y62.909
X7.669
G3 X7.86 Y63.08 I-0.007 J0.201
X7.325 Y63.723 I-0.555 J0.082
G1 X7.002
X6.914 Y63.719
X6.774 Y63.666
X6.663 Y63.565
X6.606 Y63.393
X6.624 Y63.212
X6.714 Y63.054
X6.86 Y62.947
X7.038 Y62.909
X7.355
G3 X7.547 Y63.085 I-0.007 J0.2
X7.002 Y63.723 I-0.564 J0.07
G1 X6.705
X6.614 Y63.719
X6.471 Y63.674
X6.364 Y63.535
X6.321 Y63.366
X6.348 Y63.193
X6.44 Y63.044
X6.584 Y62.945
X6.756 Y62.909
X7.038
G3 X7.229 Y63.074 I-0.007 J0.201
X6.705 Y63.723 I-0.543 J0.098
G1 X6.413
X6.325 Y63.719
X6.183 Y63.671
X6.079 Y63.531
X6.039 Y63.361
X6.067 Y63.19
X6.161 Y63.043
X6.304 Y62.944
X6.475 Y62.909
X6.756
G3 X6.947 Y63.08 I-0.007 J0.201
X6.413 Y63.723 I-0.554 J0.084
G1 X6.121
X6.035 Y63.719
X5.894 Y63.668
X5.793 Y63.527
X5.755 Y63.358
X5.785 Y63.187
X5.879 Y63.041
X6.022 Y62.944
X6.192 Y62.909
X6.475
G3 X6.667 Y63.086 I-0.007 J0.2
X6.121 Y63.723 I-0.566 J0.068
G1 X5.835
X5.75 Y63.719
X5.609 Y63.667
X5.509 Y63.526
X5.471 Y63.357
X5.502 Y63.186
X5.596 Y63.041
X5.739 Y62.944
X5.909 Y62.909
X6.192
G3 X6.385 Y63.088 I-0.007 J0.2
X5.835 Y63.723 I-0.57 J0.063
G1 X5.543
X5.46 Y63.719
X5.32 Y63.664
X5.222 Y63.523
X5.186 Y63.354
X5.217 Y63.184
X5.312 Y63.04
X5.455 Y62.943
X5.624 Y62.909
X5.909
G3 X6.102 Y63.092 I-0.007 J0.2
X5.543 Y63.723 I-0.579 J0.05
G1 X5.251
X5.212
X5.18
X5.116 Y63.713
X4.987 Y63.637
X4.906 Y63.491
X4.884 Y63.326
X4.925 Y63.165
X5.023 Y63.03
X5.163 Y62.941
X5.326 Y62.909
X5.624
G3 X5.816 Y63.13 I-0.007 J0.2
X5.18 Y63.723 I-0.659 J-0.068
G1 X5.107 Y63.716
X5.034 Y63.699
X4.888 Y63.664
X4.827 Y63.639
X4.796 Y63.62
X4.766 Y63.597
X4.742 Y63.574
X4.714 Y63.544
X4.692 Y63.513
X4.674 Y63.482
X4.659 Y63.451
X4.647 Y63.415
X4.639 Y63.378
X4.635 Y63.342
Y63.305
X4.637 Y63.269
X4.643 Y63.232
X4.654 Y63.196
X4.67 Y63.16
X4.699 Y63.109
X4.742 Y63.058
X4.768 Y63.034
X4.794 Y63.014
X4.841 Y62.987
X4.888 Y62.969
X5.034 Y62.934
X5.107 Y62.917
X5.18 Y62.909
X5.326
G3 X5.632 Y63.207 I-0.011 J0.317
G1 X5.633 Y63.227 Z-0.599
X5.619 Y63.28 Z-0.591
X5.606 Y63.331 Z-0.573
X5.594 Y63.378 Z-0.546
X5.563 Y63.414 Z-0.506
X5.538 Y63.443 Z-0.458
X5.519 Y63.465 Z-0.403
X5.507 Y63.478 Z-0.344
X5.503 Y63.483 Z-0.283
G0 Z5.
X7.652 Y58.276
Z2.501
G3 X8.253 Y57.757 Z2.458 I0.3 J-0.259 F1016.
X7.652 Y58.276 Z2.414 I-0.3 J0.259
X8.253 Y57.757 Z2.371 I0.3 J-0.259
X7.652 Y58.276 Z2.327 I-0.3 J0.259
X8.253 Y57.757 Z2.284 I0.3 J-0.259
X7.652 Y58.276 Z2.24 I-0.3 J0.259
X8.253 Y57.757 Z2.196 I0.3 J-0.259
X7.652 Y58.276 Z2.153 I-0.3 J0.259
X8.253 Y57.757 Z2.109 I0.3 J-0.259
X7.652 Y58.276 Z2.066 I-0.3 J0.259
X8.253 Y57.757 Z2.022 I0.3 J-0.259
X7.652 Y58.276 Z1.979 I-0.3 J0.259
X8.253 Y57.757 Z1.935 I0.3 J-0.259
X7.652 Y58.276 Z1.892 I-0.3 J0.259
X8.253 Y57.757 Z1.848 I0.3 J-0.259
X7.652 Y58.276 Z1.805 I-0.3 J0.259
X8.253 Y57.757 Z1.761 I0.3 J-0.259
X7.652 Y58.276 Z1.717 I-0.3 J0.259
X8.253 Y57.757 Z1.674 I0.3 J-0.259
X7.652 Y58.276 Z1.63 I-0.3 J0.259
X8.253 Y57.757 Z1.587 I0.3 J-0.259
X7.652 Y58.276 Z1.543 I-0.3 J0.259
X8.253 Y57.757 Z1.5 I0.3 J-0.259
X7.652 Y58.276 Z1.456 I-0.3 J0.259
X8.253 Y57.757 Z1.413 I0.3 J-0.259
X7.652 Y58.276 Z1.369 I-0.3 J0.259
X8.253 Y57.757 Z1.326 I0.3 J-0.259
X7.652 Y58.276 Z1.282 I-0.3 J0.259
X8.253 Y57.757 Z1.239 I0.3 J-0.259
X7.652 Y58.276 Z1.195 I-0.3 J0.259
X8.253 Y57.757 Z1.151 I0.3 J-0.259
X7.652 Y58.276 Z1.108 I-0.3 J0.259
X8.253 Y57.757 Z1.064 I0.3 J-0.259
X7.652 Y58.276 Z1.021 I-0.3 J0.259
X8.253 Y57.757 Z0.977 I0.3 J-0.259
X7.652 Y58.276 Z0.934 I-0.3 J0.259
X8.253 Y57.757 Z0.89 I0.3 J-0.259
X7.652 Y58.276 Z0.847 I-0.3 J0.259
X8.253 Y57.757 Z0.803 I0.3 J-0.259
X7.652 Y58.276 Z0.76 I-0.3 J0.259
X8.253 Y57.757 Z0.716 I0.3 J-0.259
X7.652 Y58.276 Z0.673 I-0.3 J0.259
X8.253 Y57.757 Z0.629 I0.3 J-0.259
X7.652 Y58.276 Z0.585 I-0.3 J0.259
X8.253 Y57.757 Z0.542 I0.3 J-0.259
X7.652 Y58.276 Z0.498 I-0.3 J0.259
X8.253 Y57.757 Z0.455 I0.3 J-0.259
X7.652 Y58.276 Z0.411 I-0.3 J0.259
X8.253 Y57.757 Z0.368 I0.3 J-0.259
X7.652 Y58.276 Z0.324 I-0.3 J0.259
X8.253 Y57.757 Z0.281 I0.3 J-0.259
X7.652 Y58.276 Z0.237 I-0.3 J0.259
X8.253 Y57.757 Z0.194 I0.3 J-0.259
X7.652 Y58.276 Z0.15 I-0.3 J0.259
X8.253 Y57.757 Z0.107 I0.3 J-0.259
X7.652 Y58.276 Z0.063 I-0.3 J0.259
X8.253 Y57.757 Z0.019 I0.3 J-0.259
X7.652 Y58.276 Z-0.024 I-0.3 J0.259
X8.253 Y57.757 Z-0.068 I0.3 J-0.259
X7.652 Y58.276 Z-0.111 I-0.3 J0.259
X8.253 Y57.757 Z-0.155 I0.3 J-0.259
X7.652 Y58.276 Z-0.198 I-0.3 J0.259
X8.253 Y57.757 Z-0.242 I0.3 J-0.259
X7.652 Y58.276 Z-0.285 I-0.3 J0.259
X8.253 Y57.757 Z-0.329 I0.3 J-0.259
X7.652 Y58.276 Z-0.372 I-0.3 J0.259
X8.253 Y57.757 Z-0.416 I0.3 J-0.259
X7.652 Y58.276 Z-0.46 I-0.3 J0.259
X8.253 Y57.757 Z-0.503 I0.3 J-0.259
X7.652 Y58.276 Z-0.547 I-0.3 J0.259
X8.253 Y57.757 Z-0.59 I0.3 J-0.259
X8.349 Y58.016 Z-0.6 I-0.3 J0.259
X7.555 I-0.397 J0.
X8.349 I0.397 J0.
G1 X8.379 Y58.19
X8.386 Y58.278
X8.345 Y58.356
X8.268 Y58.399
X8.171 Y58.42
X8.098 Y58.423
X7.661
X7.566 Y58.419
X7.424 Y58.372
X7.308 Y58.276
X7.248 Y58.135
X7.242 Y57.981
X7.289 Y57.835
X7.385 Y57.715
X7.517 Y57.637
X7.669 Y57.609
X8.098
X8.156 Y57.611
X8.214 Y57.622
X8.324 Y57.647
X8.361 Y57.655
X8.39 Y57.662
X8.454 Y57.684
G3 X8.57 Y57.997 I-0.098 J0.214
X8.257 Y58.113 I-0.214 J-0.098
G1 X8.247 Y58.108
G3 X8.39 Y57.662 I0.099 J-0.214
G1 X8.427 Y57.673
X8.463 Y57.688
X8.499 Y57.709
X8.536 Y57.738
X8.566 Y57.767
X8.597 Y57.804
X8.621 Y57.84
X8.638 Y57.877
X8.652 Y57.913
X8.66 Y57.95
X8.665 Y57.986
X8.664 Y58.059
X8.658 Y58.095
X8.648 Y58.132
X8.633 Y58.168
X8.614 Y58.205
X8.599 Y58.227
X8.581 Y58.25
X8.536 Y58.295
X8.493 Y58.328
X8.451 Y58.35
X8.39 Y58.371
X8.268 Y58.399
X8.218 Y58.404
X7.661 Y58.423
X7.325
X7.235 Y58.419
X7.095 Y58.367
X6.983 Y58.267
X6.928 Y58.125
X6.926 Y57.973
X6.977 Y57.83
X7.074 Y57.713
X7.205 Y57.636
X7.355 Y57.609
X7.669
G3 X7.86 Y57.78 I-0.007 J0.201
X7.325 Y58.423 I-0.555 J0.082
G1 X7.002
X6.914 Y58.419
X6.774 Y58.366
X6.663 Y58.265
X6.606 Y58.093
X6.624 Y57.912
X6.714 Y57.754
X6.86 Y57.647
X7.038 Y57.609
X7.355
G3 X7.547 Y57.785 I-0.007 J0.2
X7.002 Y58.423 I-0.564 J0.07
G1 X6.705
X6.614 Y58.419
X6.471 Y58.374
X6.364 Y58.235
X6.321 Y58.066
X6.348 Y57.893
X6.44 Y57.744
X6.584 Y57.645
X6.756 Y57.609
X7.038
G3 X7.229 Y57.774 I-0.007 J0.201
X6.705 Y58.423 I-0.543 J0.098
G1 X6.413
X6.325 Y58.419
X6.183 Y58.371
X6.079 Y58.231
X6.039 Y58.061
X6.067 Y57.89
X6.161 Y57.743
X6.304 Y57.644
X6.475 Y57.609
X6.756
G3 X6.947 Y57.78 I-0.007 J0.201
X6.413 Y58.423 I-0.554 J0.084
G1 X6.121
X6.035 Y58.419
X5.894 Y58.368
X5.793 Y58.227
X5.755 Y58.058
X5.785 Y57.887
X5.879 Y57.741
X6.022 Y57.644
X6.192 Y57.609
X6.475
G3 X6.667 Y57.786 I-0.007 J0.2
X6.121 Y58.423 I-0.566 J0.068
G1 X5.835
X5.75 Y58.419
X5.609 Y58.367
X5.509 Y58.226
X5.471 Y58.057
X5.502 Y57.886
X5.596 Y57.741
X5.739 Y57.644
X5.909 Y57.609
X6.192
G3 X6.385 Y57.788 I-0.007 J0.2
X5.835 Y58.423 I-0.57 J0.063
G1 X5.543
X5.46 Y58.419
X5.32 Y58.364
X5.222 Y58.223
X5.186 Y58.054
X5.217 Y57.884
X5.312 Y57.74
X5.455 Y57.643
X5.624 Y57.609
X5.909
G3 X6.102 Y57.792 I-0.007 J0.2
X5.543 Y58.423 I-0.579 J0.05
G1 X5.251
X5.212
X5.18
X5.116 Y58.413
X4.987 Y58.337
X4.906 Y58.191
X4.884 Y58.026
X4.925 Y57.865
X5.023 Y57.73
X5.163 Y57.641
X5.326 Y57.609
X5.624
G3 X5.816 Y57.83 I-0.007 J0.2
X5.18 Y58.423 I-0.659 J-0.068
G1 X5.107 Y58.416
X5.034 Y58.399
X4.888 Y58.364
X4.852 Y58.35
X4.824 Y58.337
X4.797 Y58.321
X4.77 Y58.3
X4.742 Y58.274
X4.711 Y58.24
X4.686 Y58.205
X4.667 Y58.168
X4.652 Y58.132
X4.642 Y58.095
X4.636 Y58.059
X4.635 Y57.986
X4.64 Y57.95
X4.648 Y57.913
X4.662 Y57.877
X4.679 Y57.84
X4.703 Y57.804
X4.742 Y57.758
X4.779 Y57.725
X4.815 Y57.7
X4.852 Y57.682
X4.888 Y57.669
X5.086 Y57.622
X5.133 Y57.613
X5.18 Y57.609
X5.326
G3 X5.632 Y57.907 I-0.011 J0.317
G1 X5.633 Y57.927 Z-0.599
X5.619 Y57.98 Z-0.591
X5.606 Y58.031 Z-0.573
X5.594 Y58.078 Z-0.546
X5.563 Y58.114 Z-0.506
X5.538 Y58.143 Z-0.458
X5.519 Y58.165 Z-0.403
X5.507 Y58.178 Z-0.344
X5.503 Y58.183 Z-0.283
G0 Z5.
X7.652 Y31.776
Z2.501
G3 X8.253 Y31.257 Z2.458 I0.3 J-0.259 F1016.
X7.652 Y31.776 Z2.414 I-0.3 J0.259
X8.253 Y31.257 Z2.371 I0.3 J-0.259
X7.652 Y31.776 Z2.327 I-0.3 J0.259
X8.253 Y31.257 Z2.284 I0.3 J-0.259
X7.652 Y31.776 Z2.24 I-0.3 J0.259
X8.253 Y31.257 Z2.196 I0.3 J-0.259
X7.652 Y31.776 Z2.153 I-0.3 J0.259
X8.253 Y31.257 Z2.109 I0.3 J-0.259
X7.652 Y31.776 Z2.066 I-0.3 J0.259
X8.253 Y31.257 Z2.022 I0.3 J-0.259
X7.652 Y31.776 Z1.979 I-0.3 J0.259
X8.253 Y31.257 Z1.935 I0.3 J-0.259
X7.652 Y31.776 Z1.892 I-0.3 J0.259
X8.253 Y31.257 Z1.848 I0.3 J-0.259
X7.652 Y31.776 Z1.805 I-0.3 J0.259
X8.253 Y31.257 Z1.761 I0.3 J-0.259
X7.652 Y31.776 Z1.717 I-0.3 J0.259
X8.253 Y31.257 Z1.674 I0.3 J-0.259
X7.652 Y31.776 Z1.63 I-0.3 J0.259
X8.253 Y31.257 Z1.587 I0.3 J-0.259
X7.652 Y31.776 Z1.543 I-0.3 J0.259
X8.253 Y31.257 Z1.5 I0.3 J-0.259
X7.652 Y31.776 Z1.456 I-0.3 J0.259
X8.253 Y31.257 Z1.413 I0.3 J-0.259
X7.652 Y31.776 Z1.369 I-0.3 J0.259
X8.253 Y31.257 Z1.326 I0.3 J-0.259
X7.652 Y31.776 Z1.282 I-0.3 J0.259
X8.253 Y31.257 Z1.239 I0.3 J-0.259
X7.652 Y31.776 Z1.195 I-0.3 J0.259
X8.253 Y31.257 Z1.151 I0.3 J-0.259
X7.652 Y31.776 Z1.108 I-0.3 J0.259
X8.253 Y31.257 Z1.064 I0.3 J-0.259
X7.652 Y31.776 Z1.021 I-0.3 J0.259
X8.253 Y31.257 Z0.977 I0.3 J-0.259
X7.652 Y31.776 Z0.934 I-0.3 J0.259
X8.253 Y31.257 Z0.89 I0.3 J-0.259
X7.652 Y31.776 Z0.847 I-0.3 J0.259
X8.253 Y31.257 Z0.803 I0.3 J-0.259
X7.652 Y31.776 Z0.76 I-0.3 J0.259
X8.253 Y31.257 Z0.716 I0.3 J-0.259
X7.652 Y31.776 Z0.673 I-0.3 J0.259
X8.253 Y31.257 Z0.629 I0.3 J-0.259
X7.652 Y31.776 Z0.585 I-0.3 J0.259
X8.253 Y31.257 Z0.542 I0.3 J-0.259
X7.652 Y31.776 Z0.498 I-0.3 J0.259
X8.253 Y31.257 Z0.455 I0.3 J-0.259
X7.652 Y31.776 Z0.411 I-0.3 J0.259
X8.253 Y31.257 Z0.368 I0.3 J-0.259
X7.652 Y31.776 Z0.324 I-0.3 J0.259
X8.253 Y31.257 Z0.281 I0.3 J-0.259
X7.652 Y31.776 Z0.237 I-0.3 J0.259
X8.253 Y31.257 Z0.194 I0.3 J-0.259
X7.652 Y31.776 Z0.15 I-0.3 J0.259
X8.253 Y31.257 Z0.107 I0.3 J-0.259
X7.652 Y31.776 Z0.063 I-0.3 J0.259
X8.253 Y31.257 Z0.019 I0.3 J-0.259
X7.652 Y31.776 Z-0.024 I-0.3 J0.259
X8.253 Y31.257 Z-0.068 I0.3 J-0.259
X7.652 Y31.776 Z-0.111 I-0.3 J0.259
X8.253 Y31.257 Z-0.155 I0.3 J-0.259
X7.652 Y31.776 Z-0.198 I-0.3 J0.259
X8.253 Y31.257 Z-0.242 I0.3 J-0.259
X7.652 Y31.776 Z-0.285 I-0.3 J0.259
X8.253 Y31.257 Z-0.329 I0.3 J-0.259
X7.652 Y31.776 Z-0.372 I-0.3 J0.259
X8.253 Y31.257 Z-0.416 I0.3 J-0.259
X7.652 Y31.776 Z-0.46 I-0.3 J0.259
X8.253 Y31.257 Z-0.503 I0.3 J-0.259
X7.652 Y31.776 Z-0.547 I-0.3 J0.259
X8.253 Y31.257 Z-0.59 I0.3 J-0.259
X8.349 Y31.516 Z-0.6 I-0.3 J0.259
X7.555 I-0.397 J0.
X8.349 I0.397 J0.
G1 X8.379 Y31.691
X8.386 Y31.778
X8.344 Y31.856
X8.268 Y31.899
X8.171 Y31.92
X8.098 Y31.923
X7.661
X7.566 Y31.919
X7.424 Y31.872
X7.308 Y31.776
X7.248 Y31.635
X7.242 Y31.481
X7.289 Y31.335
X7.385 Y31.215
X7.517 Y31.137
X7.669 Y31.109
X8.098
X8.171 Y31.113
X8.324 Y31.147
X8.361 Y31.155
X8.39 Y31.162
X8.448 Y31.185
X8.493 Y31.209
X8.536 Y31.237
G3 X8.132 Y31.664 I-0.202 J0.213
X8.13 Y31.239 I0.202 J-0.213
X8.39 Y31.162 I0.204 J0.212
G1 X8.427 Y31.173
X8.463 Y31.188
X8.499 Y31.21
X8.536 Y31.237
X8.543 Y31.243
X8.579 Y31.28
X8.607 Y31.316
X8.627 Y31.353
X8.643 Y31.389
X8.654 Y31.426
X8.662 Y31.462
X8.665 Y31.499
Y31.535
X8.662 Y31.571
X8.654 Y31.608
X8.643 Y31.644
X8.627 Y31.681
X8.611 Y31.709
X8.592 Y31.738
X8.567 Y31.767
X8.536 Y31.795
X8.495 Y31.826
X8.469 Y31.842
X8.443 Y31.854
X8.39 Y31.871
X8.268 Y31.899
X8.219 Y31.904
X7.661 Y31.923
X7.325
X7.235 Y31.919
X7.095 Y31.867
X6.983 Y31.767
X6.928 Y31.625
X6.926 Y31.473
X6.977 Y31.33
X7.074 Y31.213
X7.205 Y31.136
X7.355 Y31.109
X7.669
G3 X7.86 Y31.28 I-0.007 J0.201
X7.325 Y31.923 I-0.555 J0.082
G1 X7.002
X6.914 Y31.919
X6.774 Y31.866
X6.663 Y31.765
X6.606 Y31.593
X6.624 Y31.412
X6.714 Y31.254
X6.86 Y31.147
X7.038 Y31.109
X7.355
G3 X7.547 Y31.285 I-0.007 J0.2
X7.002 Y31.923 I-0.564 J0.07
G1 X6.705
X6.614 Y31.919
X6.471 Y31.874
X6.364 Y31.735
X6.321 Y31.566
X6.348 Y31.393
X6.44 Y31.244
X6.584 Y31.145
X6.756 Y31.109
X7.038
G3 X7.229 Y31.274 I-0.007 J0.201
X6.705 Y31.923 I-0.543 J0.098
G1 X6.413
X6.325 Y31.919
X6.183 Y31.871
X6.079 Y31.731
X6.039 Y31.561
X6.067 Y31.39
X6.161 Y31.243
X6.304 Y31.144
X6.475 Y31.109
X6.756
G3 X6.947 Y31.28 I-0.007 J0.201
X6.413 Y31.923 I-0.554 J0.084
G1 X6.121
X6.035 Y31.919
X5.894 Y31.868
X5.793 Y31.727
X5.755 Y31.558
X5.785 Y31.387
X5.879 Y31.241
X6.022 Y31.144
X6.192 Y31.109
X6.475
G3 X6.667 Y31.286 I-0.007 J0.2
X6.121 Y31.923 I-0.566 J0.068
G1 X5.835
X5.75 Y31.919
X5.609 Y31.867
X5.509 Y31.726
X5.471 Y31.557
X5.502 Y31.386
X5.596 Y31.241
X5.739 Y31.144
X5.909 Y31.109
X6.192
G3 X6.385 Y31.288 I-0.007 J0.2
X5.835 Y31.923 I-0.57 J0.063
G1 X5.543
X5.46 Y31.919
X5.32 Y31.864
X5.222 Y31.723
X5.186 Y31.554
X5.217 Y31.384
X5.312 Y31.24
X5.455 Y31.143
X5.624 Y31.109
X5.909
G3 X6.102 Y31.292 I-0.007 J0.2
X5.543 Y31.923 I-0.579 J0.05
G1 X5.251
X5.212
X5.18
X5.117 Y31.914
X4.988 Y31.837
X4.907 Y31.692
X4.885 Y31.527
X4.925 Y31.365
X5.023 Y31.23
X5.163 Y31.141
X5.327 Y31.109
X5.624
G3 X5.816 Y31.33 I-0.007 J0.2
X5.18 Y31.923 I-0.659 J-0.068
G1 X5.107 Y31.916
X4.888 Y31.865
X4.847 Y31.848
X4.806 Y31.826
X4.774 Y31.804
X4.742 Y31.776
X4.72 Y31.752
X4.701 Y31.728
X4.673 Y31.681
X4.657 Y31.644
X4.646 Y31.608
X4.638 Y31.571
X4.635 Y31.535
Y31.499
X4.638 Y31.462
X4.646 Y31.426
X4.657 Y31.389
X4.671 Y31.356
X4.689 Y31.323
X4.712 Y31.29
X4.742 Y31.258
X4.758 Y31.243
X4.79 Y31.216
X4.823 Y31.195
X4.856 Y31.179
X4.888 Y31.167
X5.107 Y31.117
X5.18 Y31.109
X5.327
G3 X5.633 Y31.407 I-0.011 J0.317
G1 Y31.427 Z-0.599
X5.62 Y31.48 Z-0.591
X5.607 Y31.531 Z-0.573
X5.595 Y31.578 Z-0.546
X5.563 Y31.614 Z-0.506
X5.538 Y31.643 Z-0.458
X5.519 Y31.665 Z-0.403
X5.507 Y31.678 Z-0.344
X5.503 Y31.683 Z-0.283
G0 Z5.
X7.652 Y37.076
Z2.501
G3 X8.253 Y36.557 Z2.458 I0.3 J-0.259 F1016.
X7.652 Y37.076 Z2.414 I-0.3 J0.259
X8.253 Y36.557 Z2.371 I0.3 J-0.259
X7.652 Y37.076 Z2.327 I-0.3 J0.259
X8.253 Y36.557 Z2.284 I0.3 J-0.259
X7.652 Y37.076 Z2.24 I-0.3 J0.259
X8.253 Y36.557 Z2.196 I0.3 J-0.259
X7.652 Y37.076 Z2.153 I-0.3 J0.259
X8.253 Y36.557 Z2.109 I0.3 J-0.259
X7.652 Y37.076 Z2.066 I-0.3 J0.259
X8.253 Y36.557 Z2.022 I0.3 J-0.259
X7.652 Y37.076 Z1.979 I-0.3 J0.259
X8.253 Y36.557 Z1.935 I0.3 J-0.259
X7.652 Y37.076 Z1.892 I-0.3 J0.259
X8.253 Y36.557 Z1.848 I0.3 J-0.259
X7.652 Y37.076 Z1.805 I-0.3 J0.259
X8.253 Y36.557 Z1.761 I0.3 J-0.259
X7.652 Y37.076 Z1.717 I-0.3 J0.259
X8.253 Y36.557 Z1.674 I0.3 J-0.259
X7.652 Y37.076 Z1.63 I-0.3 J0.259
X8.253 Y36.557 Z1.587 I0.3 J-0.259
X7.652 Y37.076 Z1.543 I-0.3 J0.259
X8.253 Y36.557 Z1.5 I0.3 J-0.259
X7.652 Y37.076 Z1.456 I-0.3 J0.259
X8.253 Y36.557 Z1.413 I0.3 J-0.259
X7.652 Y37.076 Z1.369 I-0.3 J0.259
X8.253 Y36.557 Z1.326 I0.3 J-0.259
X7.652 Y37.076 Z1.282 I-0.3 J0.259
X8.253 Y36.557 Z1.239 I0.3 J-0.259
X7.652 Y37.076 Z1.195 I-0.3 J0.259
X8.253 Y36.557 Z1.151 I0.3 J-0.259
X7.652 Y37.076 Z1.108 I-0.3 J0.259
X8.253 Y36.557 Z1.064 I0.3 J-0.259
X7.652 Y37.076 Z1.021 I-0.3 J0.259
X8.253 Y36.557 Z0.977 I0.3 J-0.259
X7.652 Y37.076 Z0.934 I-0.3 J0.259
X8.253 Y36.557 Z0.89 I0.3 J-0.259
X7.652 Y37.076 Z0.847 I-0.3 J0.259
X8.253 Y36.557 Z0.803 I0.3 J-0.259
X7.652 Y37.076 Z0.76 I-0.3 J0.259
X8.253 Y36.557 Z0.716 I0.3 J-0.259
X7.652 Y37.076 Z0.673 I-0.3 J0.259
X8.253 Y36.557 Z0.629 I0.3 J-0.259
X7.652 Y37.076 Z0.585 I-0.3 J0.259
X8.253 Y36.557 Z0.542 I0.3 J-0.259
X7.652 Y37.076 Z0.498 I-0.3 J0.259
X8.253 Y36.557 Z0.455 I0.3 J-0.259
X7.652 Y37.076 Z0.411 I-0.3 J0.259
X8.253 Y36.557 Z0.368 I0.3 J-0.259
X7.652 Y37.076 Z0.324 I-0.3 J0.259
X8.253 Y36.557 Z0.281 I0.3 J-0.259
X7.652 Y37.076 Z0.237 I-0.3 J0.259
X8.253 Y36.557 Z0.194 I0.3 J-0.259
X7.652 Y37.076 Z0.15 I-0.3 J0.259
X8.253 Y36.557 Z0.107 I0.3 J-0.259
X7.652 Y37.076 Z0.063 I-0.3 J0.259
X8.253 Y36.557 Z0.019 I0.3 J-0.259
X7.652 Y37.076 Z-0.024 I-0.3 J0.259
X8.253 Y36.557 Z-0.068 I0.3 J-0.259
X7.652 Y37.076 Z-0.111 I-0.3 J0.259
X8.253 Y36.557 Z-0.155 I0.3 J-0.259
X7.652 Y37.076 Z-0.198 I-0.3 J0.259
X8.253 Y36.557 Z-0.242 I0.3 J-0.259
X7.652 Y37.076 Z-0.285 I-0.3 J0.259
X8.253 Y36.557 Z-0.329 I0.3 J-0.259
X7.652 Y37.076 Z-0.372 I-0.3 J0.259
X8.253 Y36.557 Z-0.416 I0.3 J-0.259
X7.652 Y37.076 Z-0.46 I-0.3 J0.259
X8.253 Y36.557 Z-0.503 I0.3 J-0.259
X7.652 Y37.076 Z-0.547 I-0.3 J0.259
X8.253 Y36.557 Z-0.59 I0.3 J-0.259
X8.349 Y36.816 Z-0.6 I-0.3 J0.259
X7.555 I-0.397 J0.
X8.349 I0.397 J0.
G1 X8.379 Y36.991
X8.386 Y37.078
X8.344 Y37.156
X8.268 Y37.199
X8.179 Y37.219
X8.098 Y37.223
X7.661
X7.566 Y37.219
X7.424 Y37.172
X7.308 Y37.076
X7.248 Y36.935
X7.242 Y36.781
X7.289 Y36.635
X7.385 Y36.515
X7.517 Y36.437
X7.669 Y36.409
X8.098
X8.171 Y36.413
X8.324 Y36.447
X8.361 Y36.455
X8.39 Y36.462
X8.413 Y36.47
X8.466 Y36.494
X8.515 Y36.523
X8.561 Y36.559
G3 X8.593 Y36.901 I-0.229 J0.194
X8.075 Y36.607 I-0.259 J-0.147
X8.39 Y36.462 I0.259 J0.147
G1 X8.428 Y36.474
X8.466 Y36.49
X8.501 Y36.51
X8.536 Y36.537
X8.561 Y36.559
X8.586 Y36.586
X8.604 Y36.611
X8.618 Y36.636
X8.636 Y36.672
X8.649 Y36.709
X8.658 Y36.745
X8.664 Y36.781
X8.666 Y36.818
X8.665 Y36.854
X8.659 Y36.891
X8.65 Y36.927
X8.635 Y36.964
X8.617 Y37.
X8.592 Y37.036
X8.559 Y37.073
X8.536 Y37.095
X8.499 Y37.123
X8.463 Y37.144
X8.427 Y37.16
X8.39 Y37.171
X8.268 Y37.199
X8.219 Y37.204
X7.661 Y37.223
X7.325
X7.235 Y37.219
X7.095 Y37.167
X6.983 Y37.067
X6.928 Y36.925
X6.926 Y36.773
X6.977 Y36.63
X7.074 Y36.513
X7.205 Y36.436
X7.355 Y36.409
X7.669
G3 X7.86 Y36.58 I-0.007 J0.201
X7.325 Y37.223 I-0.555 J0.082
G1 X7.002
X6.914 Y37.219
X6.774 Y37.166
X6.663 Y37.065
X6.606 Y36.893
X6.624 Y36.712
X6.714 Y36.554
X6.86 Y36.447
X7.038 Y36.409
X7.355
G3 X7.547 Y36.585 I-0.007 J0.2
X7.002 Y37.223 I-0.564 J0.07
G1 X6.705
X6.614 Y37.219
X6.471 Y37.174
X6.364 Y37.035
X6.321 Y36.866
X6.348 Y36.693
X6.44 Y36.544
X6.584 Y36.445
X6.756 Y36.409
X7.038
G3 X7.229 Y36.574 I-0.007 J0.201
X6.705 Y37.223 I-0.543 J0.098
G1 X6.413
X6.325 Y37.219
X6.183 Y37.171
X6.079 Y37.031
X6.039 Y36.861
X6.067 Y36.69
X6.161 Y36.543
X6.304 Y36.444
X6.475 Y36.409
X6.756
G3 X6.947 Y36.58 I-0.007 J0.201
X6.413 Y37.223 I-0.554 J0.084
G1 X6.121
X6.035 Y37.219
X5.894 Y37.168
X5.793 Y37.027
X5.755 Y36.858
X5.785 Y36.687
X5.879 Y36.541
X6.022 Y36.444
X6.192 Y36.409
X6.475
G3 X6.667 Y36.586 I-0.007 J0.2
X6.121 Y37.223 I-0.566 J0.068
G1 X5.835
X5.75 Y37.219
X5.609 Y37.167
X5.509 Y37.026
X5.471 Y36.857
X5.502 Y36.686
X5.596 Y36.541
X5.739 Y36.444
X5.909 Y36.409
X6.192
G3 X6.385 Y36.588 I-0.007 J0.2
X5.835 Y37.223 I-0.57 J0.063
G1 X5.543
X5.46 Y37.219
X5.32 Y37.164
X5.222 Y37.023
X5.186 Y36.854
X5.217 Y36.684
X5.312 Y36.54
X5.455 Y36.443
X5.624 Y36.409
X5.909
G3 X6.102 Y36.592 I-0.007 J0.2
X5.543 Y37.223 I-0.579 J0.05
G1 X5.251
X5.212
X5.18
X5.097 Y37.212
X5.062 Y37.205
X5.047 Y37.18
G3 X5.149 Y36.748 I0.272 J-0.165
G1 X5.372 Y36.606
X5.602 Y36.461
G3 X6.042 Y36.563 I0.17 J0.268
X5.934 Y37.002 I-0.271 J0.166
X5.18 Y37.223 I-0.809 J-1.36
G1 X5.127 Y37.219
X5.034 Y37.199
X5.009 Y37.192
X4.913 Y37.041
X4.881 Y36.865
X4.918 Y36.69
X5.019 Y36.542
X5.168 Y36.444
X5.344 Y36.409
X5.397 Y36.418
X5.445 Y36.44
X5.487 Y36.474
X5.519 Y36.517
G3 X5.034 Y37.199 I-0.406 J0.225
G1 X4.888 Y37.164
X4.852 Y37.149
X4.815 Y37.132
X4.779 Y37.108
X4.74 Y37.073
X4.708 Y37.036
X4.684 Y37.
X4.665 Y36.964
X4.65 Y36.927
X4.641 Y36.891
X4.635 Y36.854
X4.634 Y36.818
X4.636 Y36.781
X4.642 Y36.745
X4.651 Y36.709
X4.664 Y36.672
X4.682 Y36.636
X4.707 Y36.596
X4.742 Y36.557
X4.789 Y36.517
X4.836 Y36.49
X4.888 Y36.469
X5.034 Y36.434
X5.107 Y36.417
X5.18 Y36.409
X5.624
G3 X5.93 Y36.707 I-0.011 J0.317
G1 X5.931 Y36.727 Z-0.599
X5.917 Y36.78 Z-0.591
X5.904 Y36.831 Z-0.573
X5.892 Y36.878 Z-0.546
X5.861 Y36.914 Z-0.506
X5.836 Y36.943 Z-0.458
X5.817 Y36.965 Z-0.403
X5.805 Y36.978 Z-0.344
X5.801 Y36.983 Z-0.283
G0 Z5.
X16.26 Y5.276
Z2.501
G3 X16.861 Y4.757 Z2.458 I0.3 J-0.259 F1016.
X16.26 Y5.276 Z2.414 I-0.3 J0.259
X16.861 Y4.757 Z2.371 I0.3 J-0.259
X16.26 Y5.276 Z2.327 I-0.3 J0.259
X16.861 Y4.757 Z2.284 I0.3 J-0.259
X16.26 Y5.276 Z2.24 I-0.3 J0.259
X16.861 Y4.757 Z2.196 I0.3 J-0.259
X16.26 Y5.276 Z2.153 I-0.3 J0.259
X16.861 Y4.757 Z2.109 I0.3 J-0.259
X16.26 Y5.276 Z2.066 I-0.3 J0.259
X16.861 Y4.757 Z2.022 I0.3 J-0.259
X16.26 Y5.276 Z1.979 I-0.3 J0.259
X16.861 Y4.757 Z1.935 I0.3 J-0.259
X16.26 Y5.276 Z1.892 I-0.3 J0.259
X16.861 Y4.757 Z1.848 I0.3 J-0.259
X16.26 Y5.276 Z1.805 I-0.3 J0.259
X16.861 Y4.757 Z1.761 I0.3 J-0.259
X16.26 Y5.276 Z1.717 I-0.3 J0.259
X16.861 Y4.757 Z1.674 I0.3 J-0.259
X16.26 Y5.276 Z1.63 I-0.3 J0.259
X16.861 Y4.757 Z1.587 I0.3 J-0.259
X16.26 Y5.276 Z1.543 I-0.3 J0.259
X16.861 Y4.757 Z1.5 I0.3 J-0.259
X16.26 Y5.276 Z1.456 I-0.3 J0.259
X16.861 Y4.757 Z1.413 I0.3 J-0.259
X16.26 Y5.276 Z1.369 I-0.3 J0.259
X16.861 Y4.757 Z1.326 I0.3 J-0.259
X16.26 Y5.276 Z1.282 I-0.3 J0.259
X16.861 Y4.757 Z1.239 I0.3 J-0.259
X16.26 Y5.276 Z1.195 I-0.3 J0.259
X16.861 Y4.757 Z1.151 I0.3 J-0.259
X16.26 Y5.276 Z1.108 I-0.3 J0.259
X16.861 Y4.757 Z1.064 I0.3 J-0.259
X16.26 Y5.276 Z1.021 I-0.3 J0.259
X16.861 Y4.757 Z0.977 I0.3 J-0.259
X16.26 Y5.276 Z0.934 I-0.3 J0.259
X16.861 Y4.757 Z0.89 I0.3 J-0.259
X16.26 Y5.276 Z0.847 I-0.3 J0.259
X16.861 Y4.757 Z0.803 I0.3 J-0.259
X16.26 Y5.276 Z0.76 I-0.3 J0.259
X16.861 Y4.757 Z0.716 I0.3 J-0.259
X16.26 Y5.276 Z0.673 I-0.3 J0.259
X16.861 Y4.757 Z0.629 I0.3 J-0.259
X16.26 Y5.276 Z0.585 I-0.3 J0.259
X16.861 Y4.757 Z0.542 I0.3 J-0.259
X16.26 Y5.276 Z0.498 I-0.3 J0.259
X16.861 Y4.757 Z0.455 I0.3 J-0.259
X16.26 Y5.276 Z0.411 I-0.3 J0.259
X16.861 Y4.757 Z0.368 I0.3 J-0.259
X16.26 Y5.276 Z0.324 I-0.3 J0.259
X16.861 Y4.757 Z0.281 I0.3 J-0.259
X16.26 Y5.276 Z0.237 I-0.3 J0.259
X16.861 Y4.757 Z0.194 I0.3 J-0.259
X16.26 Y5.276 Z0.15 I-0.3 J0.259
X16.861 Y4.757 Z0.107 I0.3 J-0.259
X16.26 Y5.276 Z0.063 I-0.3 J0.259
X16.861 Y4.757 Z0.019 I0.3 J-0.259
X16.26 Y5.276 Z-0.024 I-0.3 J0.259
X16.861 Y4.757 Z-0.068 I0.3 J-0.259
X16.26 Y5.276 Z-0.111 I-0.3 J0.259
X16.861 Y4.757 Z-0.155 I0.3 J-0.259
X16.26 Y5.276 Z-0.198 I-0.3 J0.259
X16.861 Y4.757 Z-0.242 I0.3 J-0.259
X16.26 Y5.276 Z-0.285 I-0.3 J0.259
X16.861 Y4.757 Z-0.329 I0.3 J-0.259
X16.26 Y5.276 Z-0.372 I-0.3 J0.259
X16.861 Y4.757 Z-0.416 I0.3 J-0.259
X16.26 Y5.276 Z-0.46 I-0.3 J0.259
X16.861 Y4.757 Z-0.503 I0.3 J-0.259
X16.26 Y5.276 Z-0.547 I-0.3 J0.259
X16.861 Y4.757 Z-0.59 I0.3 J-0.259
X16.958 Y5.016 Z-0.6 I-0.3 J0.259
X16.164 I-0.397 J0.
X16.958 I0.397 J0.
G1 X16.987 Y5.19
X16.994 Y5.277
X16.953 Y5.354
X16.877 Y5.397
X16.78 Y5.418
X16.707 Y5.423
X16.269
X16.174 Y5.419
X16.032 Y5.372
X15.916 Y5.276
X15.856 Y5.135
X15.85 Y4.981
X15.898 Y4.835
X15.994 Y4.715
X16.126 Y4.637
X16.277 Y4.609
X16.707
X16.78 Y4.615
X16.933 Y4.649
X16.969 Y4.657
X16.998 Y4.664
X17.056 Y4.688
X17.102 Y4.713
X17.144 Y4.744
G3 X17.184 Y5.06 I-0.199 J0.186
X16.709 Y4.8 I-0.238 J-0.13
X16.998 Y4.664 I0.238 J0.13
G1 X17.027 Y4.673
X17.056 Y4.685
X17.085 Y4.7
X17.114 Y4.72
X17.144 Y4.744
X17.175 Y4.774
X17.198 Y4.805
X17.233 Y4.865
X17.248 Y4.902
X17.258 Y4.938
X17.264 Y4.975
X17.266 Y5.011
X17.265 Y5.047
X17.261 Y5.084
X17.252 Y5.12
X17.238 Y5.157
X17.202 Y5.223
X17.177 Y5.256
X17.144 Y5.289
X17.128 Y5.303
X17.095 Y5.326
X17.063 Y5.345
X17.031 Y5.359
X16.998 Y5.369
X16.877 Y5.397
X16.829 Y5.402
X16.269 Y5.423
X15.933
X15.844 Y5.419
X15.703 Y5.367
X15.591 Y5.267
X15.537 Y5.125
X15.535 Y4.973
X15.585 Y4.83
X15.682 Y4.713
X15.813 Y4.636
X15.963 Y4.609
X16.277
G3 X16.468 Y4.78 I-0.007 J0.201
X15.933 Y5.423 I-0.555 J0.082
G1 X15.61
X15.523 Y5.419
X15.383 Y5.366
X15.271 Y5.265
X15.214 Y5.093
X15.232 Y4.912
X15.322 Y4.754
X15.469 Y4.647
X15.646 Y4.609
X15.963
G3 X16.155 Y4.785 I-0.007 J0.2
X15.61 Y5.423 I-0.564 J0.07
G1 X15.313
X15.223 Y5.419
X15.079 Y5.374
X14.973 Y5.235
X14.929 Y5.066
X14.956 Y4.893
X15.049 Y4.744
X15.193 Y4.645
X15.364 Y4.609
X15.646
G3 X15.837 Y4.774 I-0.007 J0.201
X15.313 Y5.423 I-0.543 J0.098
G1 X15.021
X14.933 Y5.419
X14.791 Y5.371
X14.688 Y5.231
X14.647 Y5.061
X14.676 Y4.89
X14.769 Y4.743
X14.913 Y4.644
X15.083 Y4.609
X15.364
G3 X15.555 Y4.78 I-0.007 J0.201
X15.021 Y5.423 I-0.554 J0.084
G1 X14.73
X14.644 Y5.419
X14.503 Y5.368
X14.402 Y5.227
X14.363 Y5.058
X14.393 Y4.887
X14.487 Y4.741
X14.631 Y4.644
X14.801 Y4.609
X15.083
G3 X15.275 Y4.786 I-0.007 J0.2
X14.73 Y5.423 I-0.566 J0.068
G1 X14.443
X14.358 Y5.419
X14.217 Y5.367
X14.117 Y5.226
X14.079 Y5.057
X14.11 Y4.886
X14.204 Y4.741
X14.348 Y4.644
X14.517 Y4.609
X14.801
G3 X14.993 Y4.788 I-0.007 J0.2
X14.443 Y5.423 I-0.57 J0.063
G1 X14.151
X14.068 Y5.419
X13.928 Y5.364
X13.83 Y5.223
X13.794 Y5.054
X13.826 Y4.884
X13.92 Y4.74
X14.064 Y4.643
X14.233 Y4.609
X14.517
G3 X14.71 Y4.792 I-0.007 J0.2
X14.151 Y5.423 I-0.579 J0.05
G1 X13.859
X13.784 Y5.42
X13.644 Y5.365
X13.546 Y5.223
X13.509 Y5.055
X13.541 Y4.885
X13.635 Y4.74
X13.779 Y4.643
X13.948 Y4.609
X14.233
G3 X14.426 Y4.796 I-0.007 J0.2
X13.859 Y5.423 I-0.587 J0.04
G1 X13.789
X13.716 Y5.417
X13.526 Y5.374
X13.497 Y5.368
X13.466 Y5.358
X13.435 Y5.344
X13.403 Y5.326
X13.372 Y5.303
X13.351 Y5.284
X13.32 Y5.253
X13.297 Y5.221
X13.262 Y5.157
X13.248 Y5.12
X13.239 Y5.084
X13.235 Y5.047
X13.234 Y5.011
X13.236 Y4.975
X13.242 Y4.938
X13.252 Y4.902
X13.267 Y4.865
X13.301 Y4.807
X13.323 Y4.778
X13.351 Y4.748
X13.386 Y4.72
X13.414 Y4.701
X13.441 Y4.686
X13.469 Y4.674
X13.497 Y4.665
X13.716 Y4.615
X13.789 Y4.609
X13.948
G3 X14.254 Y4.907 I-0.011 J0.317
G1 Y4.927 Z-0.599
X14.241 Y4.98 Z-0.591
X14.228 Y5.031 Z-0.573
X14.216 Y5.078 Z-0.546
X14.185 Y5.114 Z-0.506
X14.159 Y5.143 Z-0.458
X14.14 Y5.165 Z-0.403
X14.129 Y5.178 Z-0.344
X14.125 Y5.183 Z-0.283
G0 Z5.
X16.26 Y10.576
Z2.501
G3 X16.861 Y10.057 Z2.458 I0.3 J-0.259 F1016.
X16.26 Y10.576 Z2.414 I-0.3 J0.259
X16.861 Y10.057 Z2.371 I0.3 J-0.259
X16.26 Y10.576 Z2.327 I-0.3 J0.259
X16.861 Y10.057 Z2.284 I0.3 J-0.259
X16.26 Y10.576 Z2.24 I-0.3 J0.259
X16.861 Y10.057 Z2.196 I0.3 J-0.259
X16.26 Y10.576 Z2.153 I-0.3 J0.259
X16.861 Y10.057 Z2.109 I0.3 J-0.259
X16.26 Y10.576 Z2.066 I-0.3 J0.259
X16.861 Y10.057 Z2.022 I0.3 J-0.259
X16.26 Y10.576 Z1.979 I-0.3 J0.259
X16.861 Y10.057 Z1.935 I0.3 J-0.259
X16.26 Y10.576 Z1.892 I-0.3 J0.259
X16.861 Y10.057 Z1.848 I0.3 J-0.259
X16.26 Y10.576 Z1.805 I-0.3 J0.259
X16.861 Y10.057 Z1.761 I0.3 J-0.259
X16.26 Y10.576 Z1.717 I-0.3 J0.259
X16.861 Y10.057 Z1.674 I0.3 J-0.259
X16.26 Y10.576 Z1.63 I-0.3 J0.259
X16.861 Y10.057 Z1.587 I0.3 J-0.259
X16.26 Y10.576 Z1.543 I-0.3 J0.259
X16.861 Y10.057 Z1.5 I0.3 J-0.259
X16.26 Y10.576 Z1.456 I-0.3 J0.259
X16.861 Y10.057 Z1.413 I0.3 J-0.259
X16.26 Y10.576 Z1.369 I-0.3 J0.259
X16.861 Y10.057 Z1.326 I0.3 J-0.259
X16.26 Y10.576 Z1.282 I-0.3 J0.259
X16.861 Y10.057 Z1.239 I0.3 J-0.259
X16.26 Y10.576 Z1.195 I-0.3 J0.259
X16.861 Y10.057 Z1.151 I0.3 J-0.259
X16.26 Y10.576 Z1.108 I-0.3 J0.259
X16.861 Y10.057 Z1.064 I0.3 J-0.259
X16.26 Y10.576 Z1.021 I-0.3 J0.259
X16.861 Y10.057 Z0.977 I0.3 J-0.259
X16.26 Y10.576 Z0.934 I-0.3 J0.259
X16.861 Y10.057 Z0.89 I0.3 J-0.259
X16.26 Y10.576 Z0.847 I-0.3 J0.259
X16.861 Y10.057 Z0.803 I0.3 J-0.259
X16.26 Y10.576 Z0.76 I-0.3 J0.259
X16.861 Y10.057 Z0.716 I0.3 J-0.259
X16.26 Y10.576 Z0.673 I-0.3 J0.259
X16.861 Y10.057 Z0.629 I0.3 J-0.259
X16.26 Y10.576 Z0.585 I-0.3 J0.259
X16.861 Y10.057 Z0.542 I0.3 J-0.259
X16.26 Y10.576 Z0.498 I-0.3 J0.259
X16.861 Y10.057 Z0.455 I0.3 J-0.259
X16.26 Y10.576 Z0.411 I-0.3 J0.259
X16.861 Y10.057 Z0.368 I0.3 J-0.259
X16.26 Y10.576 Z0.324 I-0.3 J0.259
X16.861 Y10.057 Z0.281 I0.3 J-0.259
X16.26 Y10.576 Z0.237 I-0.3 J0.259
X16.861 Y10.057 Z0.194 I0.3 J-0.259
X16.26 Y10.576 Z0.15 I-0.3 J0.259
X16.861 Y10.057 Z0.107 I0.3 J-0.259
X16.26 Y10.576 Z0.063 I-0.3 J0.259
X16.861 Y10.057 Z0.019 I0.3 J-0.259
X16.26 Y10.576 Z-0.024 I-0.3 J0.259
X16.861 Y10.057 Z-0.068 I0.3 J-0.259
X16.26 Y10.576 Z-0.111 I-0.3 J0.259
X16.861 Y10.057 Z-0.155 I0.3 J-0.259
X16.26 Y10.576 Z-0.198 I-0.3 J0.259
X16.861 Y10.057 Z-0.242 I0.3 J-0.259
X16.26 Y10.576 Z-0.285 I-0.3 J0.259
X16.861 Y10.057 Z-0.329 I0.3 J-0.259
X16.26 Y10.576 Z-0.372 I-0.3 J0.259
X16.861 Y10.057 Z-0.416 I0.3 J-0.259
X16.26 Y10.576 Z-0.46 I-0.3 J0.259
X16.861 Y10.057 Z-0.503 I0.3 J-0.259
X16.26 Y10.576 Z-0.547 I-0.3 J0.259
X16.861 Y10.057 Z-0.59 I0.3 J-0.259
X16.958 Y10.316 Z-0.6 I-0.3 J0.259
X16.164 I-0.397 J0.
X16.958 I0.397 J0.
G1 X16.987 Y10.49
X16.994 Y10.577
X16.953 Y10.654
X16.877 Y10.697
X16.78 Y10.718
X16.707 Y10.723
X16.269
X16.174 Y10.719
X16.032 Y10.672
X15.916 Y10.576
X15.856 Y10.435
X15.85 Y10.281
X15.898 Y10.135
X15.994 Y10.015
X16.126 Y9.937
X16.277 Y9.909
X16.707
X16.78 Y9.915
X16.933 Y9.949
X16.969 Y9.957
X16.998 Y9.964
X17.032 Y9.975
G3 X16.87 Y10.408 I-0.081 J0.216
X16.92 Y9.963 I0.081 J-0.216
G1 X16.923 Y9.962
X16.961 Y9.96
X16.998 Y9.964
X17.04 Y9.978
X17.075 Y9.994
X17.11 Y10.016
X17.144 Y10.044
X17.178 Y10.078
X17.203 Y10.112
X17.225 Y10.148
X17.242 Y10.185
X17.254 Y10.221
X17.262 Y10.258
X17.266 Y10.33
X17.263 Y10.367
X17.256 Y10.403
X17.245 Y10.44
X17.229 Y10.476
X17.208 Y10.513
X17.183 Y10.549
X17.165 Y10.569
X17.144 Y10.589
X17.108 Y10.618
X17.071 Y10.641
X17.035 Y10.657
X16.998 Y10.669
X16.877 Y10.697
X16.829 Y10.702
X16.269 Y10.723
X15.933
X15.844 Y10.719
X15.703 Y10.667
X15.591 Y10.567
X15.537 Y10.425
X15.535 Y10.273
X15.585 Y10.13
X15.682 Y10.013
X15.813 Y9.936
X15.963 Y9.909
X16.277
G3 X16.468 Y10.08 I-0.007 J0.201
X15.933 Y10.723 I-0.555 J0.082
G1 X15.61
X15.523 Y10.719
X15.383 Y10.666
X15.271 Y10.565
X15.214 Y10.393
X15.232 Y10.212
X15.322 Y10.054
X15.469 Y9.947
X15.646 Y9.909
X15.963
G3 X16.155 Y10.085 I-0.007 J0.2
X15.61 Y10.723 I-0.564 J0.07
G1 X15.313
X15.223 Y10.719
X15.079 Y10.674
X14.973 Y10.535
X14.929 Y10.366
X14.956 Y10.193
X15.049 Y10.044
X15.193 Y9.945
X15.364 Y9.909
X15.646
G3 X15.837 Y10.074 I-0.007 J0.201
X15.313 Y10.723 I-0.543 J0.098
G1 X15.021
X14.933 Y10.719
X14.791 Y10.671
X14.688 Y10.531
X14.647 Y10.361
X14.676 Y10.19
X14.769 Y10.043
X14.913 Y9.944
X15.083 Y9.909
X15.364
G3 X15.555 Y10.08 I-0.007 J0.201
X15.021 Y10.723 I-0.554 J0.084
G1 X14.73
X14.644 Y10.719
X14.503 Y10.668
X14.402 Y10.527
X14.363 Y10.358
X14.393 Y10.187
X14.487 Y10.041
X14.631 Y9.944
X14.801 Y9.909
X15.083
G3 X15.275 Y10.086 I-0.007 J0.2
X14.73 Y10.723 I-0.566 J0.068
G1 X14.443
X14.358 Y10.719
X14.217 Y10.667
X14.117 Y10.526
X14.079 Y10.357
X14.11 Y10.186
X14.204 Y10.041
X14.348 Y9.944
X14.517 Y9.909
X14.801
G3 X14.993 Y10.088 I-0.007 J0.2
X14.443 Y10.723 I-0.57 J0.063
G1 X14.151
X14.068 Y10.719
X13.928 Y10.664
X13.83 Y10.523
X13.794 Y10.354
X13.826 Y10.184
X13.92 Y10.04
X14.063 Y9.943
X14.233 Y9.909
X14.517
G3 X14.71 Y10.092 I-0.007 J0.2
X14.151 Y10.723 I-0.579 J0.05
G1 X13.859
X13.784 Y10.72
X13.644 Y10.665
X13.546 Y10.523
X13.509 Y10.355
X13.541 Y10.185
X13.635 Y10.04
X13.779 Y9.943
X13.948 Y9.909
X14.233
G3 X14.426 Y10.096 I-0.007 J0.2
X13.859 Y10.723 I-0.587 J0.04
G1 X13.789
X13.716 Y10.717
X13.521 Y10.673
X13.497 Y10.668
X13.46 Y10.655
X13.424 Y10.638
X13.387 Y10.614
X13.351 Y10.584
X13.317 Y10.549
X13.292 Y10.513
X13.271 Y10.476
X13.255 Y10.44
X13.244 Y10.403
X13.237 Y10.367
X13.234 Y10.33
X13.238 Y10.258
X13.246 Y10.221
X13.258 Y10.185
X13.275 Y10.148
X13.297 Y10.112
X13.321 Y10.08
X13.351 Y10.048
X13.386 Y10.019
X13.422 Y9.996
X13.458 Y9.978
X13.497 Y9.965
X13.716 Y9.915
X13.789 Y9.909
X13.948
G3 X14.254 Y10.207 I-0.011 J0.317
G1 Y10.227 Z-0.599
X14.241 Y10.28 Z-0.591
X14.228 Y10.331 Z-0.573
X14.216 Y10.378 Z-0.546
X14.185 Y10.414 Z-0.506
X14.159 Y10.443 Z-0.458
X14.14 Y10.465 Z-0.403
X14.129 Y10.478 Z-0.344
X14.125 Y10.483 Z-0.283
G0 Z5.
X16.26 Y15.876
Z2.501
G3 X16.861 Y15.357 Z2.458 I0.3 J-0.259 F1016.
X16.26 Y15.876 Z2.414 I-0.3 J0.259
X16.861 Y15.357 Z2.371 I0.3 J-0.259
X16.26 Y15.876 Z2.327 I-0.3 J0.259
X16.861 Y15.357 Z2.284 I0.3 J-0.259
X16.26 Y15.876 Z2.24 I-0.3 J0.259
X16.861 Y15.357 Z2.196 I0.3 J-0.259
X16.26 Y15.876 Z2.153 I-0.3 J0.259
X16.861 Y15.357 Z2.109 I0.3 J-0.259
X16.26 Y15.876 Z2.066 I-0.3 J0.259
X16.861 Y15.357 Z2.022 I0.3 J-0.259
X16.26 Y15.876 Z1.979 I-0.3 J0.259
X16.861 Y15.357 Z1.935 I0.3 J-0.259
X16.26 Y15.876 Z1.892 I-0.3 J0.259
X16.861 Y15.357 Z1.848 I0.3 J-0.259
X16.26 Y15.876 Z1.805 I-0.3 J0.259
X16.861 Y15.357 Z1.761 I0.3 J-0.259
X16.26 Y15.876 Z1.717 I-0.3 J0.259
X16.861 Y15.357 Z1.674 I0.3 J-0.259
X16.26 Y15.876 Z1.63 I-0.3 J0.259
X16.861 Y15.357 Z1.587 I0.3 J-0.259
X16.26 Y15.876 Z1.543 I-0.3 J0.259
X16.861 Y15.357 Z1.5 I0.3 J-0.259
X16.26 Y15.876 Z1.456 I-0.3 J0.259
X16.861 Y15.357 Z1.413 I0.3 J-0.259
X16.26 Y15.876 Z1.369 I-0.3 J0.259
X16.861 Y15.357 Z1.326 I0.3 J-0.259
X16.26 Y15.876 Z1.282 I-0.3 J0.259
X16.861 Y15.357 Z1.239 I0.3 J-0.259
X16.26 Y15.876 Z1.195 I-0.3 J0.259
X16.861 Y15.357 Z1.151 I0.3 J-0.259
X16.26 Y15.876 Z1.108 I-0.3 J0.259
X16.861 Y15.357 Z1.064 I0.3 J-0.259
X16.26 Y15.876 Z1.021 I-0.3 J0.259
X16.861 Y15.357 Z0.977 I0.3 J-0.259
X16.26 Y15.876 Z0.934 I-0.3 J0.259
X16.861 Y15.357 Z0.89 I0.3 J-0.259
X16.26 Y15.876 Z0.847 I-0.3 J0.259
X16.861 Y15.357 Z0.803 I0.3 J-0.259
X16.26 Y15.876 Z0.76 I-0.3 J0.259
X16.861 Y15.357 Z0.716 I0.3 J-0.259
X16.26 Y15.876 Z0.673 I-0.3 J0.259
X16.861 Y15.357 Z0.629 I0.3 J-0.259
X16.26 Y15.876 Z0.585 I-0.3 J0.259
X16.861 Y15.357 Z0.542 I0.3 J-0.259
X16.26 Y15.876 Z0.498 I-0.3 J0.259
X16.861 Y15.357 Z0.455 I0.3 J-0.259
X16.26 Y15.876 Z0.411 I-0.3 J0.259
X16.861 Y15.357 Z0.368 I0.3 J-0.259
X16.26 Y15.876 Z0.324 I-0.3 J0.259
X16.861 Y15.357 Z0.281 I0.3 J-0.259
X16.26 Y15.876 Z0.237 I-0.3 J0.259
X16.861 Y15.357 Z0.194 I0.3 J-0.259
X16.26 Y15.876 Z0.15 I-0.3 J0.259
X16.861 Y15.357 Z0.107 I0.3 J-0.259
X16.26 Y15.876 Z0.063 I-0.3 J0.259
X16.861 Y15.357 Z0.019 I0.3 J-0.259
X16.26 Y15.876 Z-0.024 I-0.3 J0.259
X16.861 Y15.357 Z-0.068 I0.3 J-0.259
X16.26 Y15.876 Z-0.111 I-0.3 J0.259
X16.861 Y15.357 Z-0.155 I0.3 J-0.259
X16.26 Y15.876 Z-0.198 I-0.3 J0.259
X16.861 Y15.357 Z-0.242 I0.3 J-0.259
X16.26 Y15.876 Z-0.285 I-0.3 J0.259
X16.861 Y15.357 Z-0.329 I0.3 J-0.259
X16.26 Y15.876 Z-0.372 I-0.3 J0.259
X16.861 Y15.357 Z-0.416 I0.3 J-0.259
X16.26 Y15.876 Z-0.46 I-0.3 J0.259
X16.861 Y15.357 Z-0.503 I0.3 J-0.259
X16.26 Y15.876 Z-0.547 I-0.3 J0.259
X16.861 Y15.357 Z-0.59 I0.3 J-0.259
X16.958 Y15.616 Z-0.6 I-0.3 J0.259
X16.164 I-0.397 J0.
X16.958 I0.397 J0.
G1 X16.987 Y15.79
X16.994 Y15.877
X16.953 Y15.954
X16.877 Y15.997
X16.78 Y16.018
X16.707 Y16.023
X16.269
X16.174 Y16.019
X16.032 Y15.972
X15.916 Y15.876
X15.856 Y15.735
X15.85 Y15.581
X15.898 Y15.435
X15.994 Y15.315
X16.126 Y15.237
X16.277 Y15.209
X16.707
X16.765 Y15.213
X16.853 Y15.23
X16.933 Y15.249
X16.969 Y15.257
X16.998 Y15.264
X17.011 Y15.269
X17.058 Y15.289
X17.103 Y15.314
X17.144 Y15.344
G3 X16.737 Y15.752 I-0.204 J0.204
X16.731 Y15.35 I0.204 J-0.204
X16.998 Y15.264 I0.212 J0.2
G1 X17.035 Y15.276
X17.071 Y15.292
X17.108 Y15.315
X17.144 Y15.344
X17.16 Y15.358
X17.191 Y15.395
X17.215 Y15.431
X17.234 Y15.468
X17.249 Y15.504
X17.259 Y15.54
X17.264 Y15.577
X17.265 Y15.65
X17.26 Y15.686
X17.251 Y15.723
X17.237 Y15.759
X17.219 Y15.795
X17.188 Y15.842
X17.168 Y15.866
X17.144 Y15.889
X17.107 Y15.918
X17.07 Y15.941
X17.034 Y15.957
X16.998 Y15.969
X16.877 Y15.997
X16.829 Y16.002
X16.269 Y16.023
X15.933
X15.844 Y16.019
X15.703 Y15.967
X15.591 Y15.867
X15.537 Y15.725
X15.535 Y15.573
X15.585 Y15.43
X15.682 Y15.313
X15.813 Y15.236
X15.963 Y15.209
X16.277
G3 X16.468 Y15.38 I-0.007 J0.201
X15.933 Y16.023 I-0.555 J0.082
G1 X15.61
X15.523 Y16.019
X15.383 Y15.966
X15.271 Y15.865
X15.214 Y15.693
X15.232 Y15.512
X15.322 Y15.354
X15.469 Y15.247
X15.646 Y15.209
X15.963
G3 X16.155 Y15.385 I-0.007 J0.2
X15.61 Y16.023 I-0.564 J0.07
G1 X15.313
X15.223 Y16.019
X15.079 Y15.974
X14.973 Y15.835
X14.929 Y15.666
X14.956 Y15.493
X15.049 Y15.344
X15.193 Y15.245
X15.364 Y15.209
X15.646
G3 X15.837 Y15.374 I-0.007 J0.201
X15.313 Y16.023 I-0.543 J0.098
G1 X15.021
X14.933 Y16.019
X14.791 Y15.971
X14.688 Y15.831
X14.647 Y15.661
X14.676 Y15.49
X14.769 Y15.343
X14.913 Y15.244
X15.083 Y15.209
X15.364
G3 X15.555 Y15.38 I-0.007 J0.201
X15.021 Y16.023 I-0.554 J0.084
G1 X14.73
X14.644 Y16.019
X14.503 Y15.968
X14.402 Y15.827
X14.363 Y15.658
X14.393 Y15.487
X14.487 Y15.341
X14.631 Y15.244
X14.801 Y15.209
X15.083
G3 X15.275 Y15.386 I-0.007 J0.2
X14.73 Y16.023 I-0.566 J0.068
G1 X14.443
X14.358 Y16.019
X14.217 Y15.967
X14.117 Y15.826
X14.079 Y15.657
X14.11 Y15.486
X14.204 Y15.341
X14.348 Y15.244
X14.517 Y15.209
X14.801
G3 X14.993 Y15.388 I-0.007 J0.2
X14.443 Y16.023 I-0.57 J0.063
G1 X14.151
X14.068 Y16.019
X13.928 Y15.964
X13.83 Y15.823
X13.794 Y15.654
X13.826 Y15.484
X13.92 Y15.34
X14.064 Y15.243
X14.233 Y15.209
X14.517
G3 X14.71 Y15.392 I-0.007 J0.2
X14.151 Y16.023 I-0.579 J0.05
G1 X13.859
X13.784 Y16.02
X13.644 Y15.965
X13.546 Y15.823
X13.509 Y15.655
X13.541 Y15.485
X13.635 Y15.34
X13.779 Y15.243
X13.948 Y15.209
X14.233
G3 X14.426 Y15.396 I-0.007 J0.2
X13.859 Y16.023 I-0.587 J0.04
G1 X13.789
X13.716 Y16.017
X13.526 Y15.974
X13.497 Y15.968
X13.463 Y15.957
X13.43 Y15.941
X13.39 Y15.916
X13.351 Y15.884
X13.329 Y15.862
X13.31 Y15.84
X13.281 Y15.795
X13.263 Y15.759
X13.249 Y15.723
X13.24 Y15.686
X13.235 Y15.65
X13.236 Y15.577
X13.241 Y15.54
X13.251 Y15.504
X13.266 Y15.468
X13.285 Y15.431
X13.309 Y15.395
X13.34 Y15.358
X13.351 Y15.348
X13.387 Y15.319
X13.424 Y15.295
X13.46 Y15.277
X13.497 Y15.265
X13.643 Y15.232
X13.736 Y15.213
X13.789 Y15.209
X13.948
G3 X14.254 Y15.507 I-0.011 J0.317
G1 Y15.527 Z-0.599
X14.241 Y15.58 Z-0.591
X14.228 Y15.631 Z-0.573
X14.216 Y15.678 Z-0.546
X14.185 Y15.714 Z-0.506
X14.159 Y15.743 Z-0.458
X14.14 Y15.765 Z-0.403
X14.129 Y15.778 Z-0.344
X14.125 Y15.783 Z-0.283
G0 Z5.
X16.26 Y21.176
Z2.501
G3 X16.861 Y20.657 Z2.458 I0.3 J-0.259 F1016.
X16.26 Y21.176 Z2.414 I-0.3 J0.259
X16.861 Y20.657 Z2.371 I0.3 J-0.259
X16.26 Y21.176 Z2.327 I-0.3 J0.259
X16.861 Y20.657 Z2.284 I0.3 J-0.259
X16.26 Y21.176 Z2.24 I-0.3 J0.259
X16.861 Y20.657 Z2.196 I0.3 J-0.259
X16.26 Y21.176 Z2.153 I-0.3 J0.259
X16.861 Y20.657 Z2.109 I0.3 J-0.259
X16.26 Y21.176 Z2.066 I-0.3 J0.259
X16.861 Y20.657 Z2.022 I0.3 J-0.259
X16.26 Y21.176 Z1.979 I-0.3 J0.259
X16.861 Y20.657 Z1.935 I0.3 J-0.259
X16.26 Y21.176 Z1.892 I-0.3 J0.259
X16.861 Y20.657 Z1.848 I0.3 J-0.259
X16.26 Y21.176 Z1.805 I-0.3 J0.259
X16.861 Y20.657 Z1.761 I0.3 J-0.259
X16.26 Y21.176 Z1.717 I-0.3 J0.259
X16.861 Y20.657 Z1.674 I0.3 J-0.259
X16.26 Y21.176 Z1.63 I-0.3 J0.259
X16.861 Y20.657 Z1.587 I0.3 J-0.259
X16.26 Y21.176 Z1.543 I-0.3 J0.259
X16.861 Y20.657 Z1.5 I0.3 J-0.259
X16.26 Y21.176 Z1.456 I-0.3 J0.259
X16.861 Y20.657 Z1.413 I0.3 J-0.259
X16.26 Y21.176 Z1.369 I-0.3 J0.259
X16.861 Y20.657 Z1.326 I0.3 J-0.259
X16.26 Y21.176 Z1.282 I-0.3 J0.259
X16.861 Y20.657 Z1.239 I0.3 J-0.259
X16.26 Y21.176 Z1.195 I-0.3 J0.259
X16.861 Y20.657 Z1.151 I0.3 J-0.259
X16.26 Y21.176 Z1.108 I-0.3 J0.259
X16.861 Y20.657 Z1.064 I0.3 J-0.259
X16.26 Y21.176 Z1.021 I-0.3 J0.259
X16.861 Y20.657 Z0.977 I0.3 J-0.259
X16.26 Y21.176 Z0.934 I-0.3 J0.259
X16.861 Y20.657 Z0.89 I0.3 J-0.259
X16.26 Y21.176 Z0.847 I-0.3 J0.259
X16.861 Y20.657 Z0.803 I0.3 J-0.259
X16.26 Y21.176 Z0.76 I-0.3 J0.259
X16.861 Y20.657 Z0.716 I0.3 J-0.259
X16.26 Y21.176 Z0.673 I-0.3 J0.259
X16.861 Y20.657 Z0.629 I0.3 J-0.259
X16.26 Y21.176 Z0.585 I-0.3 J0.259
X16.861 Y20.657 Z0.542 I0.3 J-0.259
X16.26 Y21.176 Z0.498 I-0.3 J0.259
X16.861 Y20.657 Z0.455 I0.3 J-0.259
X16.26 Y21.176 Z0.411 I-0.3 J0.259
X16.861 Y20.657 Z0.368 I0.3 J-0.259
X16.26 Y21.176 Z0.324 I-0.3 J0.259
X16.861 Y20.657 Z0.281 I0.3 J-0.259
X16.26 Y21.176 Z0.237 I-0.3 J0.259
X16.861 Y20.657 Z0.194 I0.3 J-0.259
X16.26 Y21.176 Z0.15 I-0.3 J0.259
X16.861 Y20.657 Z0.107 I0.3 J-0.259
X16.26 Y21.176 Z0.063 I-0.3 J0.259
X16.861 Y20.657 Z0.019 I0.3 J-0.259
X16.26 Y21.176 Z-0.024 I-0.3 J0.259
X16.861 Y20.657 Z-0.068 I0.3 J-0.259
X16.26 Y21.176 Z-0.111 I-0.3 J0.259
X16.861 Y20.657 Z-0.155 I0.3 J-0.259
X16.26 Y21.176 Z-0.198 I-0.3 J0.259
X16.861 Y20.657 Z-0.242 I0.3 J-0.259
X16.26 Y21.176 Z-0.285 I-0.3 J0.259
X16.861 Y20.657 Z-0.329 I0.3 J-0.259
X16.26 Y21.176 Z-0.372 I-0.3 J0.259
X16.861 Y20.657 Z-0.416 I0.3 J-0.259
X16.26 Y21.176 Z-0.46 I-0.3 J0.259
X16.861 Y20.657 Z-0.503 I0.3 J-0.259
X16.26 Y21.176 Z-0.547 I-0.3 J0.259
X16.861 Y20.657 Z-0.59 I0.3 J-0.259
X16.958 Y20.916 Z-0.6 I-0.3 J0.259
X16.164 I-0.397 J0.
X16.958 I0.397 J0.
G1 X16.987 Y21.09
X16.994 Y21.177
X16.953 Y21.254
X16.877 Y21.297
X16.78 Y21.318
X16.707 Y21.323
X16.269
X16.174 Y21.319
X16.032 Y21.272
X15.916 Y21.176
X15.856 Y21.035
X15.85 Y20.881
X15.898 Y20.735
X15.994 Y20.615
X16.126 Y20.537
X16.277 Y20.509
X16.707
X16.78 Y20.515
X16.933 Y20.549
X16.969 Y20.557
X16.998 Y20.564
X17.055 Y20.587
X17.093 Y20.605
G3 X17.156 Y20.862 I-0.139 J0.17
X16.758 Y20.691 I-0.199 J-0.085
X16.998 Y20.564 I0.199 J0.085
G1 X17.046 Y20.58
X17.093 Y20.605
X17.144 Y20.644
X17.171 Y20.671
X17.193 Y20.697
X17.226 Y20.751
X17.243 Y20.787
X17.255 Y20.823
X17.262 Y20.86
X17.266 Y20.896
X17.263 Y20.969
X17.256 Y21.006
X17.244 Y21.042
X17.228 Y21.078
X17.207 Y21.115
X17.181 Y21.151
X17.144 Y21.189
X17.108 Y21.218
X17.071 Y21.241
X17.035 Y21.257
X16.998 Y21.269
X16.877 Y21.297
X16.829 Y21.302
X16.269 Y21.323
X15.933
X15.844 Y21.319
X15.703 Y21.267
X15.591 Y21.167
X15.537 Y21.025
X15.535 Y20.873
X15.585 Y20.73
X15.682 Y20.613
X15.813 Y20.536
X15.963 Y20.509
X16.277
G3 X16.468 Y20.68 I-0.007 J0.201
X15.933 Y21.323 I-0.555 J0.082
G1 X15.61
X15.523 Y21.319
X15.383 Y21.266
X15.271 Y21.165
X15.214 Y20.993
X15.232 Y20.812
X15.322 Y20.654
X15.469 Y20.547
X15.646 Y20.509
X15.963
G3 X16.155 Y20.685 I-0.007 J0.2
X15.61 Y21.323 I-0.564 J0.07
G1 X15.313
X15.223 Y21.319
X15.079 Y21.274
X14.973 Y21.135
X14.929 Y20.966
X14.956 Y20.793
X15.049 Y20.644
X15.193 Y20.545
X15.364 Y20.509
X15.646
G3 X15.837 Y20.674 I-0.007 J0.201
X15.313 Y21.323 I-0.543 J0.098
G1 X15.021
X14.933 Y21.319
X14.791 Y21.271
X14.688 Y21.131
X14.647 Y20.961
X14.676 Y20.79
X14.769 Y20.643
X14.913 Y20.544
X15.083 Y20.509
X15.364
G3 X15.555 Y20.68 I-0.007 J0.201
X15.021 Y21.323 I-0.554 J0.084
G1 X14.73
X14.644 Y21.319
X14.503 Y21.268
X14.402 Y21.127
X14.363 Y20.958
X14.393 Y20.787
X14.487 Y20.641
X14.631 Y20.544
X14.801 Y20.509
X15.083
G3 X15.275 Y20.686 I-0.007 J0.2
X14.73 Y21.323 I-0.566 J0.068
G1 X14.443
X14.358 Y21.319
X14.217 Y21.267
X14.117 Y21.126
X14.079 Y20.957
X14.11 Y20.786
X14.204 Y20.641
X14.348 Y20.544
X14.517 Y20.509
X14.801
G3 X14.993 Y20.688 I-0.007 J0.2
X14.443 Y21.323 I-0.57 J0.063
G1 X14.151
X14.068 Y21.319
X13.928 Y21.264
X13.83 Y21.123
X13.794 Y20.954
X13.826 Y20.784
X13.92 Y20.64
X14.064 Y20.543
X14.233 Y20.509
X14.517
G3 X14.71 Y20.692 I-0.007 J0.2
X14.151 Y21.323 I-0.579 J0.05
G1 X13.859
X13.784 Y21.32
X13.644 Y21.265
X13.546 Y21.123
X13.509 Y20.955
X13.541 Y20.785
X13.635 Y20.64
X13.779 Y20.543
X13.948 Y20.509
X14.233
G3 X14.426 Y20.696 I-0.007 J0.2
X13.859 Y21.323 I-0.587 J0.04
G1 X13.789
X13.716 Y21.317
X13.526 Y21.274
X13.497 Y21.268
X13.461 Y21.256
X13.426 Y21.239
X13.39 Y21.216
X13.351 Y21.184
X13.317 Y21.149
X13.292 Y21.113
X13.272 Y21.078
X13.256 Y21.042
X13.244 Y21.006
X13.237 Y20.969
X13.235 Y20.896
X13.238 Y20.86
X13.245 Y20.823
X13.257 Y20.787
X13.274 Y20.751
X13.306 Y20.699
X13.326 Y20.674
X13.351 Y20.648
X13.407 Y20.605
X13.452 Y20.581
X13.497 Y20.565
X13.716 Y20.515
X13.789 Y20.509
X13.948
G3 X14.254 Y20.807 I-0.011 J0.317
G1 Y20.827 Z-0.599
X14.241 Y20.88 Z-0.591
X14.228 Y20.931 Z-0.573
X14.216 Y20.978 Z-0.546
X14.185 Y21.014 Z-0.506
X14.159 Y21.043 Z-0.458
X14.14 Y21.065 Z-0.403
X14.129 Y21.078 Z-0.344
X14.125 Y21.083 Z-0.283
G0 Z5.
X16.26 Y26.476
Z2.501
G3 X16.861 Y25.957 Z2.458 I0.3 J-0.259 F1016.
X16.26 Y26.476 Z2.414 I-0.3 J0.259
X16.861 Y25.957 Z2.371 I0.3 J-0.259
X16.26 Y26.476 Z2.327 I-0.3 J0.259
X16.861 Y25.957 Z2.284 I0.3 J-0.259
X16.26 Y26.476 Z2.24 I-0.3 J0.259
X16.861 Y25.957 Z2.196 I0.3 J-0.259
X16.26 Y26.476 Z2.153 I-0.3 J0.259
X16.861 Y25.957 Z2.109 I0.3 J-0.259
X16.26 Y26.476 Z2.066 I-0.3 J0.259
X16.861 Y25.957 Z2.022 I0.3 J-0.259
X16.26 Y26.476 Z1.979 I-0.3 J0.259
X16.861 Y25.957 Z1.935 I0.3 J-0.259
X16.26 Y26.476 Z1.892 I-0.3 J0.259
X16.861 Y25.957 Z1.848 I0.3 J-0.259
X16.26 Y26.476 Z1.805 I-0.3 J0.259
X16.861 Y25.957 Z1.761 I0.3 J-0.259
X16.26 Y26.476 Z1.717 I-0.3 J0.259
X16.861 Y25.957 Z1.674 I0.3 J-0.259
X16.26 Y26.476 Z1.63 I-0.3 J0.259
X16.861 Y25.957 Z1.587 I0.3 J-0.259
X16.26 Y26.476 Z1.543 I-0.3 J0.259
X16.861 Y25.957 Z1.5 I0.3 J-0.259
X16.26 Y26.476 Z1.456 I-0.3 J0.259
X16.861 Y25.957 Z1.413 I0.3 J-0.259
X16.26 Y26.476 Z1.369 I-0.3 J0.259
X16.861 Y25.957 Z1.326 I0.3 J-0.259
X16.26 Y26.476 Z1.282 I-0.3 J0.259
X16.861 Y25.957 Z1.239 I0.3 J-0.259
X16.26 Y26.476 Z1.195 I-0.3 J0.259
X16.861 Y25.957 Z1.151 I0.3 J-0.259
